; generated by Slic3r 1.2.9 on 2017-01-19 at 14:31:09

; external perimeters extrusion width = 0.28mm
; perimeters extrusion width = 0.27mm
; infill extrusion width = 0.25mm
; solid infill extrusion width = 0.25mm
; top infill extrusion width = 0.25mm
; support material extrusion width = 0.25mm

M190 S40 ; set bed temperature
M104 S180 T1 ; set temperature
G28 ; home all axes
G1 Z5 F5000 ; lift nozzle
M109 S180 T1 ; wait for temperature to be reached
G21 ; set units to millimeters
G90 ; use absolute coordinates
M82 ; use absolute distances for extrusion
G92 E0
T1
G92 E0
G1 Z0.338 F9600.000
G1 E-3.00000 F2400.00000
G92 E0
G1 Z0.538 F9600.000
G1 X45.911 Y45.803 F9600.000
G1 Z0.338 F9600.000
G1 E3.00000 F2400.00000
G1 X46.528 Y45.247 E3.03479 F3000.000
G1 X47.046 Y44.850 E3.06220
G1 X47.447 Y44.579 E3.08247
G1 X48.013 Y44.245 E3.11003
G1 X48.761 Y43.881 E3.14490
G1 X49.368 Y43.642 E3.17228
G1 X49.825 Y43.493 E3.19243
G1 X50.631 Y43.292 E3.22726
G1 X51.115 Y43.207 E3.24783
G1 X51.757 Y43.134 E3.27492
G1 X52.413 Y43.105 E3.30246
G1 X147.587 Y43.105 E7.29308
G1 X148.068 Y43.122 E7.31327
G1 X148.731 Y43.186 E7.34120 F3000.000
G1 X149.539 Y43.329 E7.37560
G1 X150.006 Y43.445 E7.39578
G1 X150.631 Y43.642 E7.42325
G1 X151.399 Y43.952 E7.45795
G1 X151.833 Y44.163 E7.47819
G1 X152.404 Y44.486 E7.50571
G1 X152.954 Y44.849 E7.53334
G1 X153.606 Y45.360 E7.56807
G1 X154.089 Y45.803 E7.59554
G1 X154.539 Y46.277 E7.62295
G1 X154.850 Y46.648 E7.64326
G1 X155.240 Y47.174 E7.67072
G1 X155.679 Y47.876 E7.70543
G1 X155.983 Y48.461 E7.73306
G1 X156.179 Y48.902 E7.75332
G1 X156.407 Y49.510 E7.78056
G1 X156.595 Y50.143 E7.80821
G1 X156.767 Y50.955 E7.84303
G1 X156.853 Y51.606 E7.87058
G1 X156.896 Y52.500 E7.90809
G1 X156.896 Y147.500 E11.89140
G1 X156.853 Y148.393 E11.92890
G1 X156.737 Y149.217 E11.96377
G1 X156.597 Y149.848 E11.99086
G1 X156.461 Y150.324 E12.01161
G1 X156.179 Y151.098 E12.04616
G1 X155.906 Y151.697 E12.07377
G1 X155.679 Y152.124 E12.09404
G1 X155.338 Y152.681 E12.12145
G1 X154.850 Y153.352 E12.15622
G1 X154.538 Y153.724 E12.17658
G1 X154.089 Y154.197 E12.20392
G1 X153.472 Y154.753 E12.23873
G1 X152.954 Y155.151 E12.26614
G1 X152.553 Y155.421 E12.28639
G1 X151.979 Y155.759 E12.31432
G1 X151.240 Y156.119 E12.34882
G1 X150.631 Y156.358 E12.37625
G1 X150.174 Y156.507 E12.39638
G1 X149.369 Y156.708 E12.43119
G1 X148.895 Y156.791 E12.45135
G1 X148.245 Y156.866 E12.47881
G1 X147.587 Y156.895 E12.50640
G1 X52.413 Y156.895 E16.49702
G1 X51.931 Y156.878 E16.51725
G1 X51.278 Y156.816 E16.54472
G1 X50.461 Y156.671 E16.57954
G1 X49.984 Y156.552 E16.60014
G1 X49.369 Y156.358 E16.62718
G1 X48.601 Y156.048 E16.66191
G1 X48.014 Y155.755 E16.68942
G1 X47.596 Y155.514 E16.70963
G1 X47.048 Y155.151 E16.73722
G1 X46.394 Y154.641 E16.77200
G1 X46.037 Y154.319 E16.79215
G1 X45.579 Y153.854 E16.81953
G1 X45.150 Y153.352 E16.84719
G1 X44.662 Y152.681 E16.88198
G1 X44.321 Y152.124 E16.90937
G1 X44.094 Y151.696 E16.92967
G1 X43.821 Y151.098 E16.95725
G1 X43.539 Y150.323 E16.99181
G1 X43.405 Y149.857 E17.01215
G1 X43.263 Y149.217 E17.03964
G1 X43.165 Y148.567 E17.06719
G1 X43.108 Y147.740 E17.10195
G1 X43.104 Y52.500 E21.09534
G1 X43.147 Y51.606 E21.13286
G1 X43.263 Y50.783 E21.16771
G1 X43.405 Y50.142 E21.19523
G1 X43.539 Y49.676 E21.21555
G1 X43.821 Y48.902 E21.25011
G1 X44.094 Y48.304 E21.27768
G1 X44.321 Y47.876 E21.29800
G1 X44.662 Y47.319 E21.32538
G1 X45.150 Y46.648 E21.36017
G1 X45.462 Y46.276 E21.38051
G1 X45.869 Y45.846 E21.40536
G1 X46.119 Y46.018 F9600.000
G1 X46.720 Y45.476 E21.43928 F3000.000
G1 X47.222 Y45.091 E21.46581
G1 X47.605 Y44.833 E21.48520
G1 X48.153 Y44.509 E21.51189
G1 X48.882 Y44.154 E21.54588
G1 X49.471 Y43.923 E21.57240
G1 X49.908 Y43.781 E21.59167
G1 X50.694 Y43.585 E21.62562
G1 X51.156 Y43.503 E21.64532
G1 X51.778 Y43.432 E21.67154
G1 X52.413 Y43.404 E21.69820
G1 X147.587 Y43.404 E25.68882
G1 X148.048 Y43.420 E25.70814
G1 X148.689 Y43.482 E25.73517 F3000.000
G1 X149.477 Y43.621 E25.76871
G1 X149.924 Y43.732 E25.78802
G1 X150.529 Y43.923 E25.81462
G1 X151.277 Y44.225 E25.84845
G1 X151.692 Y44.427 E25.86782
G1 X152.246 Y44.739 E25.89445
G1 X152.778 Y45.091 E25.92120
G1 X153.414 Y45.588 E25.95506
G1 X153.881 Y46.017 E25.98166
G1 X154.317 Y46.477 E26.00820
G1 X154.615 Y46.832 E26.02763
G1 X154.992 Y47.341 E26.05422
G1 X155.420 Y48.026 E26.08806
G1 X155.714 Y48.592 E26.11480
G1 X155.902 Y49.014 E26.13419
G1 X156.123 Y49.603 E26.16056
G1 X156.305 Y50.215 E26.18733
G1 X156.473 Y51.007 E26.22128
G1 X156.556 Y51.638 E26.24795
G1 X156.598 Y52.500 E26.28415
G1 X156.598 Y147.500 E30.26746
G1 X156.556 Y148.362 E30.30366
G1 X156.443 Y149.165 E30.33765
G1 X156.307 Y149.775 E30.36387
G1 X156.177 Y150.231 E30.38374
G1 X155.902 Y150.986 E30.41742
G1 X155.637 Y151.566 E30.44414
G1 X155.420 Y151.974 E30.46354
G1 X155.090 Y152.514 E30.49008
G1 X154.615 Y153.168 E30.52398
G1 X154.316 Y153.524 E30.54345
G1 X153.882 Y153.982 E30.56992
G1 X153.280 Y154.524 E30.60386
G1 X152.778 Y154.909 E30.63040
G1 X152.395 Y155.167 E30.64977
G1 X151.839 Y155.495 E30.67683
G1 X151.118 Y155.846 E30.71045
G1 X150.529 Y156.077 E30.73701
G1 X150.092 Y156.219 E30.75627
G1 X149.307 Y156.415 E30.79020
G1 X148.843 Y156.497 E30.80994
G1 X148.224 Y156.568 E30.83607
G1 X147.587 Y156.596 E30.86279
G1 X52.413 Y156.596 E34.85341
G1 X51.952 Y156.580 E34.87276
G1 X51.320 Y156.520 E34.89936
G1 X50.523 Y156.379 E34.93331
G1 X50.067 Y156.265 E34.95302
G1 X49.471 Y156.077 E34.97920
G1 X48.722 Y155.775 E35.01305
G1 X48.154 Y155.491 E35.03969
G1 X47.755 Y155.261 E35.05903
G1 X47.223 Y154.910 E35.08573
G1 X46.586 Y154.412 E35.11964
G1 X46.244 Y154.104 E35.13892
G1 X45.801 Y153.654 E35.16543
G1 X45.385 Y153.168 E35.19221
G1 X44.910 Y152.514 E35.22612
G1 X44.580 Y151.974 E35.25264
G1 X44.362 Y151.565 E35.27207
G1 X44.098 Y150.986 E35.29877
G1 X43.823 Y150.231 E35.33246
G1 X43.695 Y149.785 E35.35192
G1 X43.557 Y149.165 E35.37854
G1 X43.463 Y148.536 E35.40521
G1 X43.406 Y147.730 E35.43910
G1 X43.402 Y52.500 E39.43205
G1 X43.444 Y51.637 E39.46826
G1 X43.557 Y50.835 E39.50223
G1 X43.695 Y50.215 E39.52888
G1 X43.823 Y49.769 E39.54832
G1 X44.098 Y49.014 E39.58201
G1 X44.362 Y48.435 E39.60871
G1 X44.580 Y48.025 E39.62814
G1 X44.910 Y47.486 E39.65466
G1 X45.385 Y46.832 E39.68857
G1 X45.684 Y46.476 E39.70804
G1 X46.077 Y46.061 E39.73201
G1 X46.326 Y46.232 F9600.000
G1 X46.912 Y45.705 E39.76506 F3000.000
G1 X47.398 Y45.333 E39.79072
G1 X47.764 Y45.086 E39.80923
G1 X48.294 Y44.773 E39.83504
G1 X49.004 Y44.427 E39.86816
G1 X49.573 Y44.204 E39.89380
G1 X49.990 Y44.068 E39.91220
G1 X50.756 Y43.877 E39.94528
G1 X51.198 Y43.799 E39.96410
G1 X51.798 Y43.730 E39.98945
G1 X52.413 Y43.703 E40.01524
G1 X147.587 Y43.703 E44.00586
G1 X148.027 Y43.718 E44.02430
G1 X148.638 Y43.776 E44.05004 F3000.000
G1 X149.415 Y43.913 E44.08312
G1 X149.841 Y44.020 E44.10155
G1 X150.427 Y44.203 E44.12728
G1 X151.156 Y44.498 E44.16024
G1 X151.552 Y44.691 E44.17873
G1 X152.087 Y44.993 E44.20449
G1 X152.602 Y45.333 E44.23036
G1 X153.222 Y45.817 E44.26335
G1 X153.674 Y46.232 E44.28908
G1 X154.095 Y46.677 E44.31474
G1 X154.379 Y47.016 E44.33329
G1 X154.745 Y47.508 E44.35901
G1 X155.161 Y48.175 E44.39198
G1 X155.446 Y48.723 E44.41784
G1 X155.625 Y49.126 E44.43635
G1 X155.839 Y49.695 E44.46186
G1 X156.015 Y50.287 E44.48775
G1 X156.179 Y51.059 E44.52082
G1 X156.258 Y51.669 E44.54662
G1 X156.299 Y52.500 E44.58151
G1 X156.299 Y147.500 E48.56482
G1 X156.258 Y148.331 E48.59971
G1 X156.149 Y149.113 E48.63282
G1 X156.017 Y149.705 E48.65823
G1 X155.893 Y150.139 E48.67715
G1 X155.625 Y150.874 E48.70997
G1 X155.369 Y151.435 E48.73582
G1 X155.161 Y151.825 E48.75434
G1 X154.842 Y152.347 E48.78000
G1 X154.379 Y152.984 E48.81303
G1 X154.094 Y153.324 E48.83162
G1 X153.674 Y153.767 E48.85723
G1 X153.088 Y154.295 E48.89029
G1 X152.602 Y154.667 E48.91596
G1 X152.237 Y154.914 E48.93445
G1 X151.699 Y155.231 E48.96063
G1 X150.997 Y155.573 E48.99338
G1 X150.427 Y155.797 E49.01906
G1 X150.009 Y155.932 E49.03745
G1 X149.244 Y156.123 E49.07051
G1 X148.812 Y156.199 E49.08892
G1 X148.203 Y156.270 E49.11463
G1 X147.587 Y156.297 E49.14047
G1 X52.413 Y156.297 E53.13109
G1 X51.972 Y156.282 E53.14956
G1 X51.362 Y156.224 E53.17529
G1 X50.585 Y156.087 E53.20836
G1 X50.150 Y155.978 E53.22717
G1 X49.573 Y155.797 E53.25250
G1 X48.844 Y155.502 E53.28549
G1 X48.294 Y155.227 E53.31125
G1 X47.913 Y155.007 E53.32971
G1 X47.399 Y154.668 E53.35554
G1 X46.778 Y154.183 E53.38858
G1 X46.452 Y153.889 E53.40698
G1 X46.023 Y153.453 E53.43262
G1 X45.621 Y152.984 E53.45852
G1 X45.158 Y152.347 E53.49156
G1 X44.839 Y151.825 E53.51721
G1 X44.631 Y151.434 E53.53576
G1 X44.375 Y150.874 E53.56158
G1 X44.107 Y150.139 E53.59440
G1 X43.985 Y149.713 E53.61299
G1 X43.851 Y149.113 E53.63873
G1 X43.760 Y148.505 E53.66452
G1 X43.705 Y147.720 E53.69754
G1 X43.701 Y52.500 E57.69005
G1 X43.742 Y51.668 E57.72496
G1 X43.851 Y50.887 E57.75805
G1 X43.985 Y50.287 E57.78383
G1 X44.107 Y49.861 E57.80238
G1 X44.375 Y49.126 E57.83521
G1 X44.631 Y48.566 E57.86103
G1 X44.839 Y48.175 E57.87959
G1 X45.158 Y47.653 E57.90523
G1 X45.621 Y47.016 E57.93827
G1 X45.906 Y46.676 E57.95685
G1 X46.284 Y46.276 E57.97996
G1 F7680
G1 X46.912 Y45.705 E57.72822
G1 F7680
G1 X47.398 Y45.333 E57.54652
G1 F7680
G1 X47.764 Y45.086 E57.41544
G1 F7680
G1 X48.294 Y44.773 E57.23273
G1 F7680
G1 X49.004 Y44.427 E56.99823
G1 F7680
G1 X49.573 Y44.204 E56.81667
G1 F7680
G1 X49.990 Y44.068 E56.68641
G1 F7680
G1 X50.756 Y43.877 E56.45217
G1 F7680
G1 X51.198 Y43.799 E56.31892
G1 F7680
G1 X51.798 Y43.730 E56.13945
G1 F7680
G1 X52.413 Y43.703 E55.95687
G1 F7680
G1 X55.198 Y43.703 E55.12996
G1 E54.97996 F2400.00000
G92 E0
G1 Z0.538 F9600.000
G1 X145.877 Y145.915 F9600.000
G1 Z0.338 F9600.000
G1 E3.00000 F2400.00000
G1 X146.127 Y145.705 E3.01369 F3000.000
G1 X146.412 Y145.554 E3.02724
G1 X146.625 Y145.484 E3.03665
G1 X146.945 Y145.439 E3.05020 F3000.000
G1 X147.271 Y145.462 E3.06388
G1 X147.576 Y145.549 E3.07720
G1 X147.783 Y145.649 E3.08683
G1 X148.045 Y145.839 E3.10040
G1 X148.261 Y146.080 E3.11395
G1 X148.380 Y146.270 E3.12335
G1 X148.501 Y146.570 E3.13690
G1 X148.558 Y146.891 E3.15059
G1 X148.546 Y147.217 E3.16428
G1 X148.467 Y147.534 E3.17797
G1 X148.324 Y147.827 E3.19166
G1 X148.123 Y148.085 E3.20535
G1 X147.873 Y148.295 E3.21903
G1 X147.588 Y148.446 E3.23259
G1 X147.375 Y148.516 E3.24200
G1 X147.055 Y148.561 E3.25554
G1 X146.729 Y148.538 E3.26923
G1 X146.424 Y148.451 E3.28254
G1 X146.217 Y148.351 E3.29218
G1 X145.955 Y148.160 E3.30574
G1 X145.739 Y147.920 E3.31929
G1 X145.620 Y147.730 E3.32870
G1 X145.499 Y147.430 E3.34225
G1 X145.442 Y147.109 E3.35594
G1 X145.454 Y146.783 E3.36963
G1 X145.533 Y146.466 E3.38332
G1 X145.676 Y146.172 E3.39700
G1 X145.840 Y145.962 E3.40818
G1 X121.324 Y133.077 F9600.000
G1 X121.123 Y133.335 E3.42187 F3000.000
G1 X120.873 Y133.545 E3.43556
G1 X120.588 Y133.696 E3.44911
G1 X120.375 Y133.766 E3.45852
G1 X120.055 Y133.811 E3.47207
G1 X119.729 Y133.788 E3.48576
G1 X119.424 Y133.701 E3.49907
G1 X119.217 Y133.601 E3.50870
G1 X118.955 Y133.410 E3.52227
G1 X118.739 Y133.170 E3.53582
G1 X118.620 Y132.980 E3.54523
G1 X118.499 Y132.680 E3.55878
G1 X118.442 Y132.359 E3.57247
G1 X118.454 Y132.033 E3.58616
G1 X118.533 Y131.716 E3.59984
G1 X118.676 Y131.422 E3.61353
G1 X118.877 Y131.165 E3.62722
G1 X119.127 Y130.955 E3.64091
G1 X119.412 Y130.804 E3.65446
G1 X119.625 Y130.734 E3.66387
G1 X119.945 Y130.689 E3.67742 F3000.000
G1 X120.271 Y130.712 E3.69110
G1 X120.576 Y130.799 E3.70442
G1 X120.783 Y130.899 E3.71405
G1 X121.045 Y131.089 E3.72762
G1 X121.261 Y131.330 E3.74117
G1 X121.380 Y131.520 E3.75057
G1 X121.501 Y131.820 E3.76412
G1 X121.558 Y132.141 E3.77781
G1 X121.546 Y132.467 E3.79150
G1 X121.467 Y132.784 E3.80519
G1 X121.351 Y133.024 E3.81636
G1 F7680
G1 X121.123 Y133.335 E3.70193
G1 F7680
G1 X120.873 Y133.545 E3.60502
G1 F7680
G1 X120.588 Y133.696 E3.50907
G1 F7680
G1 X120.375 Y133.766 E3.44245
G1 F7680
G1 X120.055 Y133.811 E3.34652
G1 F7680
G1 X119.729 Y133.788 E3.24962
G1 F7680
G1 X119.424 Y133.701 E3.15536
G1 F7680
G1 X119.217 Y133.601 E3.08714
G1 F7680
G1 X118.955 Y133.410 E2.99109
G1 F7680
G1 X118.739 Y133.170 E2.89516
G1 F7680
G1 X118.620 Y132.980 E2.82855
G1 F7680
G1 X118.499 Y132.680 E2.73262
G1 F7680
G1 X118.442 Y132.359 E2.63569
G1 F7680
G1 X118.454 Y132.033 E2.53875
G1 F7680
G1 X118.533 Y131.716 E2.44185
G1 F7680
G1 X118.676 Y131.422 E2.34494
G1 F7680
G1 X118.877 Y131.165 E2.24799
G1 F7680
G1 X119.127 Y130.955 E2.15109
G1 F7680
G1 X119.412 Y130.804 E2.05514
G1 F7680
G1 X119.625 Y130.734 E1.98852
G1 E0.81636 F2400.00000
G92 E0
G1 Z0.538 F9600.000
G1 X110.924 Y122.799 F9600.000
G1 Z0.338 F9600.000
G1 E3.00000 F2400.00000
G1 X110.161 Y123.535 E3.04444 F3000.000
G1 X109.349 Y124.217 E3.08889
G1 X108.492 Y124.840 E3.13333
G1 X107.593 Y125.401 E3.17777
G1 X106.657 Y125.899 E3.22222
G1 X105.689 Y126.330 E3.26666
G1 X104.693 Y126.692 E3.31110
G1 X103.674 Y126.985 E3.35554
G1 X102.637 Y127.205 E3.39999
G1 X101.587 Y127.353 E3.44443
G1 X100.530 Y127.427 E3.48887
G1 X99.470 Y127.427 E3.53332
G1 X98.413 Y127.353 E3.57776
G1 X97.363 Y127.205 E3.62220
G1 X96.326 Y126.985 E3.66665
G1 X95.307 Y126.692 E3.71109
G1 X94.311 Y126.330 E3.75553
G1 X93.343 Y125.899 E3.79998
G1 X92.407 Y125.401 E3.84442
G1 X91.508 Y124.840 E3.88886
G1 X90.651 Y124.217 E3.93330
G1 X89.839 Y123.535 E3.97775
G1 X89.076 Y122.799 E4.02219
G1 X88.367 Y122.011 E4.06664
G1 X87.714 Y121.176 E4.11108
G1 X87.122 Y120.297 E4.15554
G1 X86.566 Y119.326 E4.20244
G1 X86.127 Y118.427 E4.24440
G1 X85.730 Y117.444 E4.28885
G1 X85.402 Y116.435 E4.33330
G1 X85.136 Y115.349 E4.38021
G1 X84.962 Y114.363 E4.42217
G1 X84.851 Y113.309 E4.46662
G1 X84.814 Y112.250 E4.51106
G1 X84.851 Y111.191 E4.55550
G1 X84.962 Y110.137 E4.59994
G1 X85.146 Y109.093 E4.64439
G1 X85.403 Y108.064 E4.68883
G1 X85.730 Y107.056 E4.73327
G1 X86.127 Y106.073 E4.77772
G1 X86.592 Y105.121 E4.82216
G1 X87.122 Y104.203 E4.86660
G1 X87.715 Y103.324 E4.91106
G1 X88.407 Y102.445 E4.95797
G1 X89.076 Y101.701 E4.99993
G1 X89.839 Y100.965 E5.04437
G1 X90.651 Y100.283 E5.08881
G1 X91.508 Y99.660 E5.13326
G1 X92.357 Y99.130 E5.17521
G1 X93.343 Y98.601 E5.22212
G1 X94.311 Y98.170 E5.26658
G1 X95.307 Y97.808 E5.31102
G1 X96.326 Y97.515 E5.35547
G1 X97.363 Y97.295 E5.39991
G1 X98.413 Y97.147 E5.44435
G1 X99.470 Y97.074 E5.48879
G1 X100.530 Y97.074 E5.53324 F3000.000
G1 X101.528 Y97.143 E5.57520
G1 X102.637 Y97.295 E5.62210
G1 X103.674 Y97.515 E5.66656
G1 X104.693 Y97.808 E5.71100
G1 X105.633 Y98.150 E5.75296
G1 X106.657 Y98.601 E5.79987
G1 X107.593 Y99.099 E5.84433
G1 X108.492 Y99.660 E5.88877
G1 X109.349 Y100.283 E5.93321
G1 X110.161 Y100.965 E5.97766
G1 X110.924 Y101.701 E6.02210
G1 X111.633 Y102.489 E6.06655
G1 X112.286 Y103.324 E6.11099
G1 X112.878 Y104.203 E6.15543
G1 X113.408 Y105.121 E6.19987
G1 X113.873 Y106.073 E6.24432
G1 X114.270 Y107.056 E6.28876
G1 X114.597 Y108.064 E6.33320
G1 X114.854 Y109.093 E6.37765
G1 X115.038 Y110.137 E6.42209
G1 X115.149 Y111.191 E6.46654
G1 X115.186 Y112.250 E6.51098
G1 X115.149 Y113.309 E6.55542
G1 X115.038 Y114.363 E6.59986
G1 X114.854 Y115.407 E6.64431
G1 X114.597 Y116.436 E6.68875
G1 X114.276 Y117.430 E6.73256
G1 X113.873 Y118.427 E6.77763
G1 X113.408 Y119.379 E6.82208
G1 X112.878 Y120.297 E6.86652
G1 X112.286 Y121.176 E6.91097
G1 X111.633 Y122.011 E6.95541
G1 X110.964 Y122.754 E6.99734
G1 F7680
G1 X110.161 Y123.535 E6.66490
G1 F7680
G1 X109.349 Y124.217 E6.35022
G1 F7680
G1 X108.492 Y124.840 E6.03554
G1 F7680
G1 X107.593 Y125.401 E5.72088
G1 F7680
G1 X106.657 Y125.899 E5.40621
G1 F7680
G1 X105.689 Y126.330 E5.09153
G1 F7680
G1 X104.693 Y126.692 E4.77686
G1 F7680
G1 X103.674 Y126.985 E4.46219
G1 F7680
G1 X102.637 Y127.205 E4.14752
G1 F7680
G1 X102.636 Y127.205 E4.14734
G1 E3.99734 F2400.00000
G92 E0
G1 Z0.538 F9600.000
G1 X81.123 Y93.335 F9600.000
G1 Z0.338 F9600.000
G1 E3.00000 F2400.00000
G1 X80.876 Y93.543 E3.01355 F3000.000
G1 X80.682 Y93.655 E3.02296
G1 X80.378 Y93.765 E3.03651
G1 X80.055 Y93.811 E3.05020
G1 X79.729 Y93.788 E3.06388
G1 X79.424 Y93.701 E3.07720
G1 X79.217 Y93.601 E3.08683
G1 X78.955 Y93.411 E3.10040
G1 X78.739 Y93.170 E3.11395
