; generated by Slic3r 1.2.9 on 2017-01-20 at 09:49:37

; external perimeters extrusion width = 0.28mm
; perimeters extrusion width = 0.27mm
; infill extrusion width = 0.27mm
; solid infill extrusion width = 0.25mm
; top infill extrusion width = 0.25mm
; support material extrusion width = 0.25mm

M190 S40 ; set bed temperature
M104 S180 T1 ; set temperature
G28 ; home all axes
G1 Z5 F5000 ; lift nozzle
M109 S180 T1 ; wait for temperature to be reached
G21 ; set units to millimeters
G90 ; use absolute coordinates
M82 ; use absolute distances for extrusion
G92 E0
T1
G92 E0
G1 Z0.270 F9600.000
G1 E-3.00000 F2400.00000
G92 E0
G1 Z0.470 F9600.000
G1 X71.824 Y73.219 F9600.000
G1 Z0.270 F9600.000
G1 E3.00000 F2400.00000
G1 X73.580 Y71.719 E3.06197 F3000.000
G1 X75.740 Y70.902 E3.12395
G1 X77.000 Y70.783 E3.15791
G1 X123.000 Y70.783 E4.39231
G1 X125.275 Y71.180 E4.45429
G1 X127.281 Y72.324 E4.51626 F3000.000
G1 X128.781 Y74.080 E4.57824
G1 X129.598 Y76.240 E4.64021
G1 X129.717 Y77.500 E4.67417
G1 X129.717 Y122.500 E5.88174
G1 X129.320 Y124.775 E5.94371
G1 X128.176 Y126.781 E6.00569
G1 X126.420 Y128.281 E6.06766
G1 X124.260 Y129.098 E6.12964
G1 X123.000 Y129.217 E6.16359
G1 X77.000 Y129.217 E7.39800
G1 X74.725 Y128.820 E7.45998
G1 X72.719 Y127.676 E7.52195
G1 X71.219 Y125.920 E7.58392
G1 X70.402 Y123.760 E7.64590
G1 X70.283 Y122.500 E7.67986
G1 X70.283 Y77.500 E8.88743
G1 X70.680 Y75.225 E8.94940
G1 X71.794 Y73.271 E9.00977
G1 X72.040 Y73.345 F9600.000
G1 X72.061 Y73.308 E9.01089 F3000.000
G1 X73.808 Y71.863 E9.07175
G1 X77.000 Y71.022 E9.16032
G1 X123.000 Y71.022 E10.39473
G1 X125.233 Y71.419 E10.45558
G1 X127.192 Y72.561 E10.51644 F3000.000
G1 X128.637 Y74.308 E10.57729
G1 X129.478 Y77.500 E10.66586
G1 X129.478 Y122.500 E11.87343
G1 X129.081 Y124.733 E11.93429
G1 X127.939 Y126.692 E11.99514
G1 X126.192 Y128.137 E12.05599
G1 X123.000 Y128.978 E12.14457
G1 X77.000 Y128.978 E13.37897
G1 X74.767 Y128.581 E13.43983
G1 X72.808 Y127.439 E13.50068
G1 X71.363 Y125.692 E13.56153
G1 X70.522 Y122.500 E13.65011
G1 X70.522 Y77.500 E14.85768
G1 X70.919 Y75.267 E14.91853
G1 X72.010 Y73.396 E14.97665
G1 X72.254 Y73.472 F9600.000
G1 X72.298 Y73.400 E14.97893 F3000.000
G1 X74.036 Y72.010 E15.03864
G1 X77.000 Y71.261 E15.12069
G1 X123.000 Y71.261 E16.35509
G1 X125.189 Y71.658 E16.41480
G1 X127.100 Y72.798 E16.47451 F3000.000
G1 X128.490 Y74.536 E16.53423
G1 X129.239 Y77.500 E16.61627
G1 X129.239 Y122.500 E17.82385
G1 X128.842 Y124.689 E17.88356
G1 X127.702 Y126.600 E17.94327
G1 X125.964 Y127.990 E18.00298
G1 X123.000 Y128.739 E18.08503
G1 X77.000 Y128.739 E19.31943
G1 X74.811 Y128.342 E19.37915
G1 X72.900 Y127.202 E19.43886
G1 X71.510 Y125.464 E19.49857
G1 X70.761 Y122.500 E19.58062
G1 X70.761 Y77.500 E20.78819
G1 X71.158 Y75.311 E20.84790
G1 X72.223 Y73.524 E20.90372
G1 F7680
G1 X72.298 Y73.400 E20.86072
G1 F7680
G1 X74.036 Y72.010 E20.20013
G1 F7680
G1 X77.000 Y71.261 E19.29243
G1 F7680
G1 X81.172 Y71.261 E18.05372
G1 E17.90372 F2400.00000
G92 E0
G1 Z0.470 F9600.000
G1 X117.148 Y119.648 F9600.000
G1 Z0.270 F9600.000
G1 E3.00000 F2400.00000
G1 X82.852 Y119.648 E3.92036 F3000.000
G1 X82.852 Y97.352 E4.51869
G1 X117.148 Y97.352 E5.43905
G1 X117.148 Y119.588 E6.03578
G1 F7680
G1 X107.549 Y119.605 E3.18578
G1 E3.03578 F2400.00000
G92 E0
G1 Z0.470 F9600.000
G1 X81.096 Y81.059 F9600.000
G1 Z0.270 F9600.000
G1 E3.00000 F2400.00000
G1 X80.852 Y81.264 E3.00855 F3000.000
G1 X80.571 Y81.413 E3.01710
G1 X80.273 Y81.499 E3.02544
G1 X80.051 Y81.523 E3.03142
G1 X79.735 Y81.501 E3.03991
G1 X79.437 Y81.416 E3.04824
G1 X79.236 Y81.319 E3.05423
G1 X78.980 Y81.133 E3.06272
G1 X78.767 Y80.896 E3.07127
G1 X78.607 Y80.620 E3.07982
G1 X78.510 Y80.319 E3.08831
G1 X78.479 Y80.098 E3.09429
G1 X78.491 Y79.788 E3.10263
G1 X78.568 Y79.479 E3.11118
G1 X78.707 Y79.192 E3.11973
G1 X78.904 Y78.941 E3.12828
G1 X79.148 Y78.736 E3.13683
G1 X79.429 Y78.587 E3.14538
G1 X79.727 Y78.501 E3.15372
G1 X79.949 Y78.477 E3.15970 F3000.000
G1 X80.265 Y78.499 E3.16819
G1 X80.571 Y78.587 E3.17674
G1 X80.852 Y78.736 E3.18529
G1 X81.096 Y78.941 E3.19384
G1 X81.293 Y79.192 E3.20240
G1 X81.432 Y79.479 E3.21095
G1 X81.509 Y79.785 E3.21943
G1 X81.524 Y80.003 E3.22527
G1 X81.491 Y80.315 E3.23369
G1 X81.429 Y80.529 E3.23968
G1 X81.293 Y80.808 E3.24801
G1 X81.133 Y81.012 E3.25495
G1 F7680
G1 X80.852 Y81.264 E3.14286
G1 F7680
G1 X80.571 Y81.413 E3.04829
G1 F7680
G1 X80.273 Y81.499 E2.95606
G1 F7680
G1 X80.051 Y81.523 E2.88983
G1 F7680
G1 X79.735 Y81.501 E2.79597
G1 F7680
G1 X79.437 Y81.416 E2.70374
G1 F7680
G1 X79.236 Y81.319 E2.63752
G1 F7680
G1 X78.980 Y81.133 E2.54363
G1 F7680
G1 X78.767 Y80.896 E2.44903
G1 F7680
G1 X78.607 Y80.620 E2.35442
G1 F7680
G1 X78.510 Y80.319 E2.26053
G1 F7680
G1 X78.479 Y80.098 E2.19431
G1 F7680
G1 X78.491 Y79.788 E2.10208
G1 F7680
G1 X78.568 Y79.479 E2.00750
G1 F7680
G1 X78.707 Y79.192 E1.91290
G1 F7680
G1 X78.904 Y78.941 E1.81829
G1 F7680
G1 X79.148 Y78.736 E1.72369
G1 F7680
G1 X79.429 Y78.587 E1.62911
G1 F7680
G1 X79.727 Y78.501 E1.53688
G1 E0.25495 F2400.00000
G92 E0
G1 Z0.470 F9600.000
G1 X118.479 Y80.098 F9600.000
G1 Z0.270 F9600.000
G1 E3.00000 F2400.00000
G1 X118.491 Y79.788 E3.00834 F3000.000
G1 X118.568 Y79.479 E3.01688
G1 X118.707 Y79.192 E3.02544
G1 X118.903 Y78.941 E3.03399
G1 X119.141 Y78.741 E3.04232
G1 X119.334 Y78.629 E3.04831
G1 X119.631 Y78.521 E3.05680
G1 X119.947 Y78.477 E3.06535 F3000.000
G1 X120.265 Y78.499 E3.07390
G1 X120.571 Y78.587 E3.08245
G1 X120.850 Y78.735 E3.09093
G1 X121.022 Y78.869 E3.09678
G1 X121.231 Y79.102 E3.10519
G1 X121.347 Y79.287 E3.11103
G1 X121.465 Y79.580 E3.11951
G1 X121.521 Y79.894 E3.12806
G1 X121.509 Y80.212 E3.13662
G1 X121.432 Y80.521 E3.14517
G1 X121.293 Y80.808 E3.15372
G1 X121.096 Y81.059 E3.16227
G1 X120.854 Y81.262 E3.17075
G1 X120.666 Y81.371 E3.17660
G1 X120.369 Y81.479 E3.18508
G1 X120.053 Y81.523 E3.19363
G1 X119.735 Y81.501 E3.20218
G1 X119.429 Y81.413 E3.21073
G1 X119.150 Y81.265 E3.21921
G1 X118.978 Y81.131 E3.22506
G1 X118.767 Y80.896 E3.23354
G1 X118.608 Y80.620 E3.24209
G1 X118.510 Y80.319 E3.25058
G1 X118.487 Y80.158 E3.25495
G1 X117.143 Y77.648 F9600.000
G1 X122.852 Y77.648 E3.40813 F3000.000
G1 X122.852 Y122.352 E4.60773
G1 X77.148 Y122.352 E5.83417
G1 X77.148 Y77.648 E7.03377
G1 X82.857 Y77.648 E7.18695
G1 X82.891 Y78.632 E7.21336
G1 X83.018 Y79.886 E7.24719
G1 X83.226 Y81.065 E7.27932
G1 X83.516 Y82.227 E7.31144
G1 X83.866 Y83.304 E7.34183
G1 X84.334 Y84.475 E7.37567
G1 X84.859 Y85.551 E7.40779
G1 X85.457 Y86.587 E7.43991
G1 X86.127 Y87.580 E7.47203
G1 X86.863 Y88.523 E7.50416
G1 X87.621 Y89.365 E7.53455
G1 X88.525 Y90.244 E7.56839
G1 X89.442 Y91.013 E7.60051
G1 X90.411 Y91.717 E7.63263
G1 X91.426 Y92.351 E7.66475
G1 X92.483 Y92.913 E7.69687
G1 X93.576 Y93.400 E7.72899
G1 X94.701 Y93.809 E7.76111
G1 X95.851 Y94.139 E7.79323
G1 X97.022 Y94.388 E7.82535
G1 X98.207 Y94.555 E7.85747
G1 X99.402 Y94.638 E7.88959
G1 X100.598 Y94.638 E7.92171
G1 X101.793 Y94.555 E7.95383
G1 X102.978 Y94.388 E7.98595
G1 X104.149 Y94.139 E8.01807
G1 X105.299 Y93.809 E8.05019
G1 X106.424 Y93.400 E8.08231
G1 X107.517 Y92.913 E8.11443
G1 X108.574 Y92.351 E8.14655
G1 X109.589 Y91.717 E8.17867
G1 X110.558 Y91.013 E8.21079
G1 X111.475 Y90.244 E8.24291
G1 X112.336 Y89.412 E8.27503
G1 X113.137 Y88.523 E8.30716
G1 X113.874 Y87.580 E8.33928
G1 X114.543 Y86.587 E8.37139
G1 X115.141 Y85.551 E8.40351
G1 X115.666 Y84.475 E8.43564
G1 X116.114 Y83.365 E8.46776
G1 X116.484 Y82.227 E8.49988
G1 X116.774 Y81.065 E8.53200
G1 X116.982 Y79.887 E8.56412
G1 X117.107 Y78.696 E8.59624
G1 X117.141 Y77.708 E8.62276
G1 X120.505 Y78.413 F9600.000
G1 X119.873 Y77.781 E8.64677 F3000.000
G1 X119.535 Y77.781 E8.65584
G1 X120.105 Y78.351 E8.67748
G1 X119.788 Y78.372 E8.68602
G1 X119.197 Y77.781 E8.70845
G1 X118.859 Y77.781 E8.71752
G1 X119.515 Y78.437 E8.74243
G1 X119.273 Y78.533 E8.74943
G1 X118.521 Y77.781 E8.77797
G1 X118.182 Y77.781 E8.78705
G1 X119.063 Y78.661 E8.82045
G1 X118.879 Y78.816 E8.82689
G1 X117.844 Y77.781 E8.86616
G1 X117.506 Y77.781 E8.87523
G1 X118.720 Y78.994 E8.92129
G1 X118.579 Y79.192 E8.92779
G1 X117.266 Y77.879 E8.97762
G1 X117.255 Y78.206 E8.98639
G1 X118.468 Y79.419 E9.03245
G1 X118.392 Y79.681 E9.03976
G1 X117.243 Y78.532 E9.08335
G1 X117.219 Y78.846 E9.09180
G1 X118.353 Y79.980 E9.13482
G1 X118.371 Y80.336 E9.14439
G1 X117.187 Y79.152 E9.18932
G1 X117.155 Y79.458 E9.19757
G1 X118.555 Y80.858 E9.25070
G1 X119.140 Y81.444 F9600.000
G1 X122.719 Y85.022 E9.38652 F3000.000
G1 X122.719 Y85.360 E9.39559
G1 X117.123 Y79.764 E9.60798
G1 X117.078 Y80.057 E9.61594
G1 X122.719 Y85.698 E9.83003
G1 X122.719 Y86.037 E9.83910
G1 X117.027 Y80.345 E10.05511
G1 X116.977 Y80.632 E10.06295
G1 X122.719 Y86.375 E10.28088
G1 X122.719 Y86.713 E10.28995
G1 X116.926 Y80.920 E10.50981
G1 X116.866 Y81.198 E10.51745
G1 X122.719 Y87.051 E10.73958
G1 X122.719 Y87.389 E10.74865
G1 X116.799 Y81.469 E10.97333
G1 X116.731 Y81.739 E10.98082
G1 X122.719 Y87.727 E11.20807
G1 X122.719 Y88.065 E11.21714
G1 X116.664 Y82.010 E11.44695
G1 X116.593 Y82.277 E11.45437
G1 X122.719 Y88.403 E11.68686
G1 X122.719 Y88.741 E11.69593
G1 X116.510 Y82.532 E11.93156
G1 X116.427 Y82.788 E11.93876
G1 X122.719 Y89.079 E12.17754
G1 X122.719 Y89.417 E12.18661
G1 X116.345 Y83.043 E12.42853
G1 X116.262 Y83.298 E12.43573
G1 X122.719 Y89.755 E12.68080
G1 X122.719 Y90.094 E12.68987
G1 X116.169 Y83.543 E12.93847
G1 X116.072 Y83.784 E12.94544
G1 X122.719 Y90.432 E13.19772
G1 X122.719 Y90.770 E13.20679
G1 X115.974 Y84.025 E13.46277
G1 X115.877 Y84.266 E13.46974
G1 X122.719 Y91.108 E13.72941
G1 X122.719 Y91.446 E13.73848
G1 X115.779 Y84.506 E14.00186
G1 X115.668 Y84.733 E14.00864
G1 X122.719 Y91.784 E14.27623
G1 X122.719 Y92.122 E14.28530
G1 X115.558 Y84.961 E14.55709
G1 X115.447 Y85.188 E14.56388
G1 X122.719 Y92.460 E14.83987
G1 X122.719 Y92.798 E14.84895
G1 X115.336 Y85.415 E15.12915
G1 X115.222 Y85.639 E15.13590
G1 X122.719 Y93.136 E15.42043
G1 X122.719 Y93.474 E15.42950
G1 X115.098 Y85.853 E15.71873
G1 X114.974 Y86.068 E15.72537
G1 X122.719 Y93.813 E16.01930
G1 X122.719 Y94.151 E16.02837
G1 X114.851 Y86.282 E16.32699
G1 X114.727 Y86.496 E16.33363
G1 X122.719 Y94.489 E16.63695
G1 X122.719 Y94.827 E16.64603
G1 X114.599 Y86.706 E16.95421
G1 X114.462 Y86.908 E16.96075
G1 X122.719 Y95.165 E17.27410
G1 X122.719 Y95.503 E17.28317
G1 X114.326 Y87.110 E17.60169
G1 X114.190 Y87.312 E17.60823
G1 X122.719 Y95.841 E17.93192
G1 X122.719 Y96.179 E17.94099
G1 X114.054 Y87.514 E18.26985
G1 X113.913 Y87.711 E18.27635
G1 X122.719 Y96.517 E18.61056
G1 X122.719 Y96.855 E18.61963
G1 X113.765 Y87.901 E18.95946
G1 X113.616 Y88.091 E18.96593
G1 X122.719 Y97.193 E19.31139
G1 X122.719 Y97.532 E19.32046
G1 X113.468 Y88.281 E19.67155
G1 X113.320 Y88.470 E19.67801
G1 X122.719 Y97.870 E20.03473
G1 X122.719 Y98.208 E20.04380
G1 X113.167 Y88.656 E20.40631
G1 X113.007 Y88.834 E20.41274
G1 X122.719 Y98.546 E20.78133
G1 X122.719 Y98.884 E20.79040
G1 X112.847 Y89.012 E21.16507
G1 X112.687 Y89.189 E21.17149
G1 X122.719 Y99.222 E21.55224
G1 X122.719 Y99.560 E21.56131
G1 X112.526 Y89.367 E21.94814
G1 X112.362 Y89.542 E21.95456
G1 X122.719 Y99.898 E22.34761
G1 X122.719 Y100.236 E22.35668
G1 X112.190 Y89.708 E22.75626
G1 X112.018 Y89.874 E22.76268
G1 X122.719 Y100.574 E23.16878
G1 X122.719 Y100.912 E23.17785
G1 X111.846 Y90.040 E23.59049
G1 X111.674 Y90.206 E23.59690
G1 X122.719 Y101.251 E24.01606
G1 X122.719 Y101.589 E24.02513
G1 X111.499 Y90.369 E24.45094
G1 X111.316 Y90.523 E24.45738
G1 X122.719 Y101.927 E24.89016
G1 X122.719 Y102.265 E24.89923
G1 X111.132 Y90.677 E25.33898
G1 X110.948 Y90.832 E25.34542
G1 X122.719 Y102.603 E25.79216
G1 X122.719 Y102.941 E25.80123
G1 X117.281 Y97.503 E26.00761
G1 X117.281 Y97.841 E26.01669
G1 X122.719 Y103.279 E26.22307
G1 X122.719 Y103.617 E26.23214
G1 X117.281 Y98.179 E26.43853
G1 X117.281 Y98.517 E26.44760
G1 X122.719 Y103.955 E26.65399
G1 X122.719 Y104.293 E26.66306
G1 X117.281 Y98.855 E26.86944
G1 X117.281 Y99.193 E26.87852
G1 X122.719 Y104.631 E27.08490
G1 X122.719 Y104.969 E27.09397
G1 X117.281 Y99.531 E27.30036
G1 X117.281 Y99.869 E27.30943
G1 X122.719 Y105.308 E27.51581
G1 X122.719 Y105.646 E27.52489
G1 X117.281 Y100.208 E27.73127
G1 X117.281 Y100.546 E27.74034
G1 X122.719 Y105.984 E27.94673
G1 X122.719 Y106.322 E27.95580
G1 X117.281 Y100.884 E28.16218
G1 X117.281 Y101.222 E28.17126
G1 X122.719 Y106.660 E28.37764
G1 X122.719 Y106.998 E28.38671
G1 X117.281 Y101.560 E28.59310
G1 X117.281 Y101.898 E28.60217
G1 X122.719 Y107.336 E28.80856
G1 X122.719 Y107.674 E28.81763
G1 X117.281 Y102.236 E29.02401
G1 X117.281 Y102.574 E29.03309
G1 X122.719 Y108.012 E29.23947
G1 X122.719 Y108.350 E29.24854
G1 X117.281 Y102.912 E29.45493
G1 X117.281 Y103.250 E29.46400
G1 X122.719 Y108.688 E29.67038
G1 X122.719 Y109.027 E29.67946
G1 X117.281 Y103.588 E29.88584
G1 X117.281 Y103.927 E29.89491
G1 X122.719 Y109.365 E30.10130
G1 X122.719 Y109.703 E30.11037
G1 X117.281 Y104.265 E30.31676
G1 X117.281 Y104.603 E30.32583
G1 X122.719 Y110.041 E30.53221
G1 X122.719 Y110.379 E30.54129
G1 X117.281 Y104.941 E30.74767
G1 X117.281 Y105.279 E30.75674
G1 X122.719 Y110.717 E30.96313
G1 X122.719 Y111.055 E30.97220
G1 X117.281 Y105.617 E31.17858
G1 X117.281 Y105.955 E31.18766
G1 X122.719 Y111.393 E31.39404
G1 X122.719 Y111.731 E31.40311
G1 X117.281 Y106.293 E31.60950
G1 X117.281 Y106.631 E31.61857
G1 X122.719 Y112.069 E31.82496
G1 X122.719 Y112.407 E31.83403
G1 X117.281 Y106.969 E32.04041
G1 X117.281 Y107.307 E32.04949
G1 X122.719 Y112.746 E32.25587
G1 X122.719 Y113.084 E32.26494
G1 X117.281 Y107.646 E32.47133
G1 X117.281 Y107.984 E32.48040
G1 X122.719 Y113.422 E32.68678
G1 X122.719 Y113.760 E32.69586
G1 X117.281 Y108.322 E32.90224
G1 X117.281 Y108.660 E32.91131
G1 X122.719 Y114.098 E33.11770
G1 X122.719 Y114.436 E33.12677
G1 X117.281 Y108.998 E33.33315
G1 X117.281 Y109.336 E33.34223
G1 X122.719 Y114.774 E33.54861
G1 X122.719 Y115.112 E33.55768
G1 X117.281 Y109.674 E33.76407
G1 X117.281 Y110.012 E33.77314
G1 X122.719 Y115.450 E33.97953
G1 X122.719 Y115.788 E33.98860
G1 X117.281 Y110.350 E34.19498
G1 X117.281 Y110.688 E34.20406
G1 X122.719 Y116.126 E34.41044
G1 X122.719 Y116.465 E34.41951
G1 X117.281 Y111.026 E34.62590
G1 X117.281 Y111.364 E34.63497
G1 X122.719 Y116.803 E34.84135
G1 X122.719 Y117.141 E34.85043
G1 X117.281 Y111.703 E35.05681
G1 X117.281 Y112.041 E35.06588
G1 X122.719 Y117.479 E35.27227
G1 X122.719 Y117.817 E35.28134
G1 X117.281 Y112.379 E35.48773
G1 X117.281 Y112.717 E35.49680
G1 X122.719 Y118.155 E35.70318
G1 X122.719 Y118.493 E35.71226
G1 X117.281 Y113.055 E35.91864
G1 X117.281 Y113.393 E35.92771
G1 X122.719 Y118.831 E36.13410
G1 X122.719 Y119.169 E36.14317
G1 X117.281 Y113.731 E36.34955
G1 X117.281 Y114.069 E36.35863
G1 X122.719 Y119.507 E36.56501
G1 X122.719 Y119.845 E36.57408
G1 X117.281 Y114.407 E36.78047
G1 X117.281 Y114.745 E36.78954
G1 X122.719 Y120.183 E36.99592
G1 X122.719 Y120.522 E37.00500
G1 X117.281 Y115.083 E37.21138
G1 X117.281 Y115.422 E37.22045
G1 X122.719 Y120.860 E37.42684
G1 X122.719 Y121.198 E37.43591
G1 X117.281 Y115.760 E37.64230
G1 X117.281 Y116.098 E37.65137
G1 X122.719 Y121.536 E37.85775
G1 X122.719 Y121.874 E37.86683
G1 X117.281 Y116.436 E38.07321
G1 X117.281 Y116.774 E38.08228
G1 X122.703 Y122.196 E38.28804
G1 X122.388 Y122.219 E38.29651
G1 X117.281 Y117.112 E38.49033
G1 X117.281 Y117.450 E38.49940
G1 X122.050 Y122.219 E38.68039
G1 X121.712 Y122.219 E38.68946
G1 X117.281 Y117.788 E38.85762
G1 X117.281 Y118.126 E38.86669
G1 X121.374 Y122.219 E39.02202
G1 X121.036 Y122.219 E39.03109
G1 X117.281 Y118.464 E39.17359
G1 X117.281 Y118.802 E39.18266
G1 X120.698 Y122.219 E39.31233
G1 X120.359 Y122.219 E39.32140
G1 X117.281 Y119.141 E39.43824
G1 X117.281 Y119.479 E39.44731
G1 X120.021 Y122.219 E39.55131
G1 X119.683 Y122.219 E39.56038
G1 X117.245 Y119.781 E39.65291
G1 X116.907 Y119.781 E39.66199
G1 X119.345 Y122.219 E39.75452
G1 X119.007 Y122.219 E39.76359
G1 X116.569 Y119.781 E39.85612
G1 X116.231 Y119.781 E39.86519
G1 X118.669 Y122.219 E39.95772
G1 X118.331 Y122.219 E39.96680
G1 X115.893 Y119.781 E40.05933
G1 X115.555 Y119.781 E40.06840
G1 X117.993 Y122.219 E40.16093
