; generated by Slic3r 1.2.9 on 2017-01-17 at 10:50:25

; external perimeters extrusion width = 0.28mm
; perimeters extrusion width = 0.27mm
; infill extrusion width = 0.25mm
; solid infill extrusion width = 0.25mm
; top infill extrusion width = 0.25mm
; support material extrusion width = 0.25mm

M190 S40 ; set bed temperature
M104 S180 T1 ; set temperature
G28 ; home all axes
G1 Z5 F5000 ; lift nozzle
M109 S180 T1 ; wait for temperature to be reached
G21 ; set units to millimeters
G90 ; use absolute coordinates
M82 ; use absolute distances for extrusion
G92 E0
T1
G92 E0
G1 Z0.338 F9600.000
G1 E-3.00000 F2400.00000
G92 E0
G1 Z0.538 F9600.000
G1 X69.646 Y72.653 F9600.000
G1 Z0.338 F9600.000
G1 E3.00000 F2400.00000
G1 X71.408 Y71.113 E3.09813 F3000.000
G1 X73.584 Y70.250 E3.19626
G1 X75.000 Y70.104 E3.25595
G1 X125.000 Y70.104 E5.35242
G1 X127.306 Y70.501 E5.45055
G1 X129.347 Y71.646 E5.54868 F3000.000
G1 X130.887 Y73.408 E5.64681
G1 X131.750 Y75.584 E5.74494
G1 X131.896 Y77.000 E5.80463
G1 X131.896 Y123.000 E7.73339
G1 X131.499 Y125.306 E7.83152
G1 X130.354 Y127.347 E7.92965
G1 X128.592 Y128.887 E8.02778
G1 X126.416 Y129.750 E8.12591
G1 X125.000 Y129.896 E8.18560
G1 X75.000 Y129.896 E10.28207
G1 X72.694 Y129.499 E10.38020
G1 X70.653 Y128.354 E10.47833
G1 X69.113 Y126.592 E10.57646
G1 X68.250 Y124.416 E10.67459
G1 X68.104 Y123.000 E10.73428
G1 X68.104 Y77.000 E12.66304
G1 X68.501 Y74.694 E12.76117
G1 X69.617 Y72.705 E12.85678
G1 X69.916 Y72.809 F9600.000
G1 X69.942 Y72.763 E12.85897 F3000.000
G1 X71.694 Y71.290 E12.95494
G1 X73.844 Y70.504 E13.05090
G1 X75.000 Y70.402 E13.09957
G1 X125.000 Y70.402 E15.19605
G1 X127.254 Y70.799 E15.29201
G1 X129.237 Y71.942 E15.38798 F3000.000
G1 X130.710 Y73.694 E15.48394
G1 X131.496 Y75.844 E15.57990
G1 X131.598 Y77.000 E15.62857
G1 X131.598 Y123.000 E17.55733
G1 X131.201 Y125.254 E17.65330
G1 X130.058 Y127.237 E17.74926
G1 X128.306 Y128.710 E17.84522
G1 X126.156 Y129.496 E17.94119
G1 X125.000 Y129.598 E17.98986
G1 X75.000 Y129.598 E20.08633
G1 X72.746 Y129.201 E20.18230
G1 X70.763 Y128.058 E20.27826
G1 X69.290 Y126.306 E20.37423
G1 X68.504 Y124.156 E20.47019
G1 X68.402 Y123.000 E20.51886
G1 X68.402 Y77.000 E22.44762
G1 X68.799 Y74.746 E22.54358
G1 X69.886 Y72.861 E22.63484
G1 X70.184 Y72.968 F9600.000
G1 X70.238 Y72.877 E22.63928 F3000.000
G1 X71.979 Y71.473 E22.73302
G1 X75.000 Y70.701 E22.86377
G1 X125.000 Y70.701 E24.96024
G1 X127.200 Y71.098 E25.05399
G1 X129.123 Y72.238 E25.14774 F3000.000
G1 X130.527 Y73.979 E25.24149
G1 X131.299 Y77.000 E25.37223
G1 X131.299 Y123.000 E27.30099
G1 X130.902 Y125.200 E27.39474
G1 X129.762 Y127.123 E27.48849
G1 X128.021 Y128.527 E27.58224
G1 X125.000 Y129.299 E27.71298
G1 X75.000 Y129.299 E29.80945
G1 X72.800 Y128.902 E29.90320
G1 X70.877 Y127.762 E29.99695
G1 X69.473 Y126.021 E30.09070
G1 X68.701 Y123.000 E30.22144
G1 X68.701 Y77.000 E32.15020
G1 X69.098 Y74.800 E32.24395
G1 X70.154 Y73.019 E32.33074
G1 F7680
G1 X70.238 Y72.877 E32.28151
G1 F7680
G1 X71.979 Y71.473 E31.61774
G1 F7680
G1 X75.000 Y70.701 E30.69204
G1 F7680
G1 X79.080 Y70.701 E29.48074
G1 E29.33074 F2400.00000
G92 E0
G1 Z0.538 F9600.000
G1 X81.467 Y120.534 F9600.000
G1 Z0.338 F9600.000
G1 E3.00000 F2400.00000
G1 X81.324 Y120.827 E3.01369 F3000.000
G1 X81.123 Y121.085 E3.02738
G1 X80.873 Y121.295 E3.04107
G1 X80.588 Y121.446 E3.05462
G1 X80.375 Y121.516 E3.06403
G1 X80.055 Y121.561 E3.07758
G1 X79.729 Y121.538 E3.09127
G1 X79.418 Y121.449 E3.10482
G1 X79.217 Y121.351 E3.11422
G1 X78.955 Y121.160 E3.12778
G1 X78.739 Y120.920 E3.14132
G1 X78.620 Y120.730 E3.15073
G1 X78.499 Y120.430 E3.16428
G1 X78.442 Y120.109 E3.17797
G1 X78.454 Y119.783 E3.19166
G1 X78.533 Y119.466 E3.20535
G1 X78.676 Y119.173 E3.21904
G1 X78.877 Y118.915 E3.23273
G1 X79.127 Y118.705 E3.24641
G1 X79.412 Y118.554 E3.25997
G1 X79.625 Y118.484 E3.26937
G1 X79.945 Y118.439 E3.28292 F3000.000
G1 X80.271 Y118.462 E3.29662
G1 X80.582 Y118.551 E3.31017
G1 X80.783 Y118.649 E3.31957
G1 X81.045 Y118.840 E3.33312
G1 X81.261 Y119.080 E3.34667
G1 X81.380 Y119.270 E3.35608
G1 X81.501 Y119.570 E3.36963
G1 X81.558 Y119.891 E3.38332
G1 X81.546 Y120.217 E3.39701
G1 X81.482 Y120.476 E3.40818
G1 X99.814 Y116.925 F9600.000
G1 X99.814 Y115.555 E3.46565 F3000.000
G1 X100.543 Y115.555 E3.49621
G1 X101.627 Y115.479 E3.54176
G1 X102.703 Y115.328 E3.58731
G1 X103.765 Y115.102 E3.63286
G1 X104.810 Y114.802 E3.67841
G1 X105.830 Y114.431 E3.72397
G1 X106.823 Y113.989 E3.76952
G1 X107.782 Y113.479 E3.81507
G1 X108.703 Y112.903 E3.86062
G1 X109.582 Y112.265 E3.90617
G1 X110.415 Y111.566 E3.95172
G1 X111.196 Y110.812 E3.99727
G1 X111.923 Y110.005 E4.04282
G1 X112.592 Y109.148 E4.08837
G1 X113.199 Y108.248 E4.13393
G1 X113.742 Y107.307 E4.17947
G1 X114.219 Y106.331 E4.22503
G1 X114.626 Y105.323 E4.27058
G1 X114.961 Y104.290 E4.31613
G1 X115.205 Y103.314 E4.35829
G1 X121.564 Y103.314 E4.62496
G1 X121.564 Y100.686 E4.73518
G1 X113.912 Y100.686 E5.05605
G1 X113.902 Y100.972 E5.06807
G1 X113.800 Y101.939 E5.10885
G1 X113.631 Y102.897 E5.14964
G1 X113.396 Y103.841 E5.19042
G1 X113.095 Y104.766 E5.23121
G1 X112.731 Y105.668 E5.27199
G1 X112.304 Y106.542 E5.31278
G1 X111.818 Y107.385 E5.35356
G1 X111.274 Y108.191 E5.39435
G1 X110.675 Y108.958 E5.43513
G1 X110.025 Y109.681 E5.47592
G1 X109.325 Y110.356 E5.51670
G1 X108.580 Y110.981 E5.55749
G1 X107.793 Y111.553 E5.59827
G1 X106.968 Y112.069 E5.63906
G1 X106.109 Y112.525 E5.67984
G1 X105.220 Y112.921 E5.72063
G1 X104.306 Y113.254 E5.76141
G1 X103.371 Y113.522 E5.80220
G1 X102.420 Y113.724 E5.84298
G1 X101.457 Y113.859 E5.88377
G1 X100.486 Y113.927 E5.92455
G1 X99.514 Y113.927 E5.96534
G1 X98.543 Y113.859 E6.00612
G1 X97.580 Y113.724 E6.04691
G1 X96.629 Y113.522 E6.08769
G1 X95.694 Y113.254 E6.12848
G1 X94.780 Y112.921 E6.16926
G1 X93.891 Y112.525 E6.21005
G1 X93.032 Y112.069 E6.25083
G1 X92.207 Y111.553 E6.29161
G1 X91.420 Y110.981 E6.33240
G1 X90.675 Y110.356 E6.37319
G1 X89.975 Y109.681 E6.41397
G1 X89.325 Y108.958 E6.45475
G1 X88.726 Y108.191 E6.49554
G1 X88.182 Y107.385 E6.53633
G1 X87.696 Y106.542 E6.57711
G1 X87.269 Y105.668 E6.61789
G1 X86.905 Y104.766 E6.65868
G1 X86.604 Y103.841 E6.69946
G1 X86.369 Y102.897 E6.74025
G1 X86.200 Y101.939 E6.78103
G1 X86.098 Y100.972 E6.82182
G1 X86.064 Y100.000 E6.86260
G1 X86.098 Y99.028 E6.90339
G1 X86.200 Y98.061 E6.94417
G1 X86.369 Y97.103 E6.98496
G1 X86.604 Y96.159 E7.02574
G1 X86.905 Y95.234 E7.06653
G1 X87.269 Y94.332 E7.10731
G1 X87.696 Y93.458 E7.14810
G1 X88.189 Y92.604 E7.18943
G1 X88.726 Y91.809 E7.22966
G1 X89.325 Y91.042 E7.27045
G1 X89.975 Y90.319 E7.31123
G1 X90.675 Y89.644 E7.35202
G1 X91.420 Y89.019 E7.39280
G1 X92.207 Y88.447 E7.43359
G1 X93.032 Y87.931 E7.47437
G1 X93.891 Y87.475 E7.51516
G1 X94.780 Y87.079 E7.55594
G1 X95.694 Y86.746 E7.59673
G1 X96.629 Y86.478 E7.63751
G1 X97.580 Y86.276 E7.67830
G1 X98.543 Y86.141 E7.71908
G1 X99.514 Y86.073 E7.75987
G1 X100.486 Y86.073 E7.80065
G1 X101.444 Y86.140 E7.84089
G1 X102.420 Y86.276 E7.88222
G1 X103.371 Y86.478 E7.92301
G1 X104.306 Y86.746 E7.96379
G1 X105.220 Y87.079 E8.00458
G1 X106.109 Y87.475 E8.04536
G1 X106.968 Y87.931 E8.08615
G1 X107.793 Y88.447 E8.12693
G1 X108.580 Y89.019 E8.16772
G1 X109.325 Y89.644 E8.20850
G1 X110.025 Y90.319 E8.24928
G1 X110.675 Y91.042 E8.29007
G1 X111.274 Y91.809 E8.33085
G1 X111.818 Y92.615 E8.37164
G1 X112.304 Y93.458 E8.41242
G1 X112.731 Y94.332 E8.45321
G1 X113.095 Y95.234 E8.49399
G1 X113.396 Y96.159 E8.53478
G1 X113.631 Y97.103 E8.57556
G1 X113.800 Y98.061 E8.61635
G1 X113.902 Y99.028 E8.65713
G1 X113.912 Y99.314 E8.66915
G1 X122.936 Y99.314 E9.04752
G1 X122.936 Y104.686 E9.27273
G1 X116.266 Y104.686 E9.55238
G1 X115.915 Y105.792 E9.60105
G1 X115.472 Y106.888 E9.65064
G1 X114.953 Y107.951 E9.70020
G1 X114.362 Y108.975 E9.74977
G1 X113.701 Y109.955 E9.79933
G1 X112.973 Y110.886 E9.84890
G1 X112.183 Y111.765 E9.89846
G1 X111.332 Y112.586 E9.94803
G1 X110.427 Y113.346 E9.99759
G1 X109.470 Y114.040 E10.04716
G1 X108.468 Y114.667 E10.09672
G1 X107.424 Y115.222 E10.14629
G1 X106.344 Y115.703 E10.19585
G1 X105.233 Y116.107 E10.24542
G1 X104.097 Y116.433 E10.29498
G1 X102.941 Y116.678 E10.34455
G1 X101.770 Y116.843 E10.39411
G1 X100.591 Y116.925 E10.44368
G1 X99.874 Y116.925 E10.47373
G1 F7680
G1 X99.814 Y115.555 E10.06643
G1 F7680
G1 X100.543 Y115.555 E9.85007
G1 F7680
G1 X101.627 Y115.479 E9.52755
G1 F7680
G1 X102.703 Y115.328 E9.20503
G1 F7680
G1 X103.765 Y115.102 E8.88252
G1 F7680
G1 X104.810 Y114.802 E8.56000
G1 F7680
G1 X105.830 Y114.431 E8.23748
G1 F7680
G1 X106.823 Y113.989 E7.91497
G1 F7680
G1 X107.689 Y113.528 E7.62373
G1 E7.47373 F2400.00000
G92 E0
G1 Z0.538 F9600.000
G1 X80.864 Y81.299 F9600.000
G1 Z0.338 F9600.000
G1 E3.00000 F2400.00000
G1 X80.588 Y81.446 E3.01313 F3000.000
G1 X80.375 Y81.516 E3.02254
G1 X80.054 Y81.561 E3.03609
G1 X79.729 Y81.538 E3.04978
G1 X79.418 Y81.449 E3.06333
G1 X79.217 Y81.351 E3.07274
G1 X78.955 Y81.160 E3.08629
G1 X78.739 Y80.920 E3.09984
G1 X78.620 Y80.730 E3.10925
G1 X78.499 Y80.430 E3.12280
G1 X78.442 Y80.109 E3.13649
G1 X78.454 Y79.783 E3.15018
G1 X78.533 Y79.466 E3.16387
G1 X78.676 Y79.173 E3.17755
G1 X78.877 Y78.915 E3.19125
G1 X79.127 Y78.705 E3.20493
G1 X79.412 Y78.554 E3.21848
G1 X79.625 Y78.484 E3.22789
G1 X79.945 Y78.439 E3.24144 F3000.000
G1 X80.271 Y78.462 E3.25513
G1 X80.582 Y78.551 E3.26868
G1 X80.783 Y78.649 E3.27809
G1 X81.045 Y78.840 E3.29164
G1 X81.261 Y79.080 E3.30519
G1 X81.380 Y79.270 E3.31460
G1 X81.501 Y79.570 E3.32815
G1 X81.558 Y79.891 E3.34184
G1 X81.546 Y80.217 E3.35553
G1 X81.467 Y80.534 E3.36922
G1 X81.324 Y80.827 E3.38290
G1 X81.123 Y81.085 E3.39659
G1 X80.912 Y81.262 E3.40818
G1 X118.442 Y80.109 F9600.000
G1 X118.454 Y79.783 E3.42187 F3000.000
G1 X118.533 Y79.466 E3.43556
G1 X118.676 Y79.172 E3.44925
G1 X118.877 Y78.915 E3.46294
G1 X119.127 Y78.705 E3.47663
G1 X119.412 Y78.554 E3.49018
G1 X119.625 Y78.484 E3.49959
G1 X119.945 Y78.439 E3.51314 F3000.000
G1 X120.271 Y78.462 E3.52683
G1 X120.582 Y78.551 E3.54038
G1 X120.783 Y78.649 E3.54978
G1 X121.045 Y78.840 E3.56334
G1 X121.261 Y79.080 E3.57688
G1 X121.380 Y79.270 E3.58629
G1 X121.501 Y79.570 E3.59984
G1 X121.558 Y79.891 E3.61353
G1 X121.546 Y80.217 E3.62722
G1 X121.467 Y80.534 E3.64091
G1 X121.324 Y80.827 E3.65460
G1 X121.123 Y81.085 E3.66829
G1 X120.873 Y81.295 E3.68197
G1 X120.588 Y81.446 E3.69553
G1 X120.375 Y81.516 E3.70493
G1 X120.054 Y81.561 E3.71848
G1 X119.729 Y81.538 E3.73218
G1 X119.418 Y81.449 E3.74573
G1 X119.217 Y81.351 E3.75513
G1 X118.955 Y81.160 E3.76868
G1 X118.739 Y80.920 E3.78223
G1 X118.620 Y80.730 E3.79164
G1 X118.499 Y80.430 E3.80519
G1 X118.453 Y80.168 E3.81636
G1 F7680
G1 X118.454 Y79.783 E3.70195
G1 F7680
G1 X118.533 Y79.466 E3.60504
G1 F7680
G1 X118.676 Y79.172 E3.50814
G1 F7680
G1 X118.877 Y78.915 E3.41119
G1 F7680
G1 X119.127 Y78.705 E3.31428
G1 F7680
G1 X119.412 Y78.554 E3.21833
G1 F7680
G1 X119.625 Y78.484 E3.15172
G1 E0.81636 F2400.00000
G92 E0
G1 Z0.538 F9600.000
G1 X119.945 Y118.439 F9600.000
G1 Z0.338 F9600.000
G1 E3.00000 F2400.00000
G1 X120.271 Y118.462 E3.01369 F3000.000
G1 X120.582 Y118.551 E3.02724
G1 X120.783 Y118.649 E3.03665
G1 X121.045 Y118.840 E3.05020
G1 X121.261 Y119.080 E3.06375
G1 X121.380 Y119.270 E3.07316
G1 X121.501 Y119.570 E3.08671
G1 X121.558 Y119.891 E3.10040
G1 X121.546 Y120.217 E3.11409
G1 X121.467 Y120.534 E3.12777
G1 X121.324 Y120.827 E3.14146
G1 X121.123 Y121.085 E3.15515
G1 X120.873 Y121.295 E3.16884
G1 X120.588 Y121.446 E3.18239
G1 X120.375 Y121.516 E3.19180
G1 X120.054 Y121.561 E3.20535
G1 X119.729 Y121.538 E3.21904
G1 X119.418 Y121.449 E3.23259
G1 X119.217 Y121.351 E3.24200
G1 X118.955 Y121.160 E3.25555
G1 X118.739 Y120.920 E3.26910
G1 X118.620 Y120.730 E3.27851
G1 X118.499 Y120.430 E3.29205
G1 X118.442 Y120.109 E3.30574
G1 X118.454 Y119.783 E3.31944
G1 X118.533 Y119.466 E3.33312
G1 X118.676 Y119.172 E3.34681
G1 X118.877 Y118.915 E3.36050
G1 X119.127 Y118.705 E3.37419
G1 X119.412 Y118.554 E3.38774
G1 X119.625 Y118.484 E3.39715
G1 X119.886 Y118.448 E3.40818 F3000.000
G1 F7680
G1 X120.271 Y118.462 E3.29377
G1 F7680
G1 X120.582 Y118.551 E3.19783
G1 F7680
G1 X120.783 Y118.649 E3.13123
G1 F7680
G1 X121.045 Y118.840 E3.03527
G1 F7680
G1 X121.261 Y119.080 E2.93933
G1 F7680
G1 X121.380 Y119.270 E2.87272
G1 F7680
G1 X121.501 Y119.570 E2.77679
G1 F7680
G1 X121.558 Y119.891 E2.67986
G1 F7680
G1 X121.546 Y120.217 E2.58293
G1 F7680
G1 X121.467 Y120.534 E2.48602
G1 F7680
G1 X121.324 Y120.827 E2.38912
G1 F7680
G1 X121.123 Y121.085 E2.29217
G1 F7680
G1 X120.873 Y121.295 E2.19526
G1 F7680
G1 X120.588 Y121.446 E2.09931
G1 F7680
G1 X120.375 Y121.516 E2.03270
G1 F7680
G1 X120.054 Y121.561 E1.93676
G1 F7680
G1 X119.729 Y121.538 E1.83983
G1 F7680
G1 X119.418 Y121.449 E1.74389
G1 F7680
G1 X119.217 Y121.351 E1.67729
G1 F7680
G1 X118.955 Y121.160 E1.58133
G1 F7680
G1 X118.739 Y120.920 E1.48540
G1 F7680
G1 X118.620 Y120.730 E1.41879
G1 F7680
G1 X118.499 Y120.430 E1.32285
G1 F7680
G1 X118.442 Y120.109 E1.22593
G1 F7680
G1 X118.454 Y119.783 E1.12899
G1 F7680
G1 X118.533 Y119.466 E1.03208
G1 F7680
G1 X118.676 Y119.172 E0.93518
G1 F7680
G1 X118.877 Y118.915 E0.83823
G1 F7680
G1 X119.127 Y118.705 E0.74133
G1 F7680
G1 X119.412 Y118.554 E0.64537
G1 F7680
G1 X119.625 Y118.484 E0.57876
G1 E0.40818 F2400.00000
G92 E0
G1 Z0.538 F9600.000
G1 X124.814 Y122.814 F9600.000
G1 Z0.338 F9600.000
G1 E3.00000 F2400.00000
G1 X75.186 Y122.814 E5.08091 F3000.000
G1 X75.186 Y77.186 E6.99411
G1 X124.814 Y77.186 E9.07502
G1 X124.814 Y122.754 E10.98570
G1 X113.181 Y110.856 F9600.000
G1 X120.715 Y118.391 E11.43250 F3000.000
G1 X120.182 Y118.280 E11.45536
G1 X112.988 Y111.086 E11.88196
G1 X112.787 Y111.309 E11.89451
G1 X119.778 Y118.299 E12.30903
G1 X119.439 Y118.383 E12.32366
G1 X112.587 Y111.531 E12.72997
G1 X112.387 Y111.753 E12.74252
G1 X119.156 Y118.522 E13.14390
G1 X118.910 Y118.699 E13.15659
G1 X112.179 Y111.968 E13.55570
G1 X111.964 Y112.176 E13.56823
G1 X118.697 Y118.909 E13.96750
G1 X118.519 Y119.153 E13.98018
G1 X111.749 Y112.383 E14.38161
G1 X111.534 Y112.591 E14.39414
G1 X118.380 Y119.437 E14.80011
G1 X118.294 Y119.773 E14.81466
G1 X111.312 Y112.791 E15.22868
G1 X111.082 Y112.984 E15.24125
G1 X118.271 Y120.173 E15.66755
G1 X118.405 Y120.730 E15.69155
G1 X110.853 Y113.177 E16.13941
G1 X110.623 Y113.370 E16.15199
G1 X119.897 Y122.644 E16.70193
G1 X120.319 Y122.644 E16.71965
G1 X119.284 Y121.609 E16.78103
G1 X119.818 Y121.720 E16.80389
G1 X120.742 Y122.644 E16.85869
G1 X121.165 Y122.644 E16.87641
G1 X120.222 Y121.701 E16.93230
G1 X120.561 Y121.617 E16.94694
G1 X121.587 Y122.644 E17.00781
G1 X122.010 Y122.644 E17.02553
G1 X120.844 Y121.478 E17.09465
G1 X121.090 Y121.302 E17.10735
G1 X122.432 Y122.644 E17.18694
G1 X122.855 Y122.644 E17.20466
G1 X121.302 Y121.091 E17.29673
G1 X121.481 Y120.847 E17.30941
G1 X123.278 Y122.644 E17.41595
G1 X123.700 Y122.644 E17.43367
G1 X121.619 Y120.563 E17.55706
G1 X121.706 Y120.227 E17.57161
G1 X124.123 Y122.644 E17.71493
G1 X124.545 Y122.644 E17.73265
G1 X121.729 Y119.827 E17.89968
G1 X121.595 Y119.271 E17.92367
G1 X124.644 Y122.320 E18.10445
G1 X124.644 Y121.897 E18.12218
G1 X113.366 Y110.619 E18.79094
G1 X113.551 Y110.382 E18.80356
G1 X124.644 Y121.474 E19.46133
G1 X124.644 Y121.052 E19.47905
G1 X113.737 Y110.145 E20.12583
G1 X113.914 Y109.900 E20.13852
G1 X124.644 Y120.629 E20.77476
G1 X124.644 Y120.207 E20.79248
G1 X114.085 Y109.647 E21.41863
G1 X114.255 Y109.395 E21.43140
G1 X124.644 Y119.784 E22.04745
G1 X124.644 Y119.361 E22.06517
G1 X114.425 Y109.143 E22.67113
G1 X114.586 Y108.881 E22.68401
G1 X124.644 Y118.939 E23.28041
G1 X124.644 Y118.516 E23.29813
G1 X114.741 Y108.613 E23.88535
G1 X114.896 Y108.345 E23.89832
G1 X124.644 Y118.093 E24.47637
G1 X124.644 Y117.671 E24.49409
G1 X115.050 Y108.078 E25.06297
G1 X115.194 Y107.798 E25.07613
G1 X124.644 Y117.248 E25.63650
G1 X124.644 Y116.826 E25.65422
G1 X115.332 Y107.514 E26.20638
G1 X115.471 Y107.230 E26.21963
G1 X124.644 Y116.403 E26.76358
G1 X124.644 Y115.980 E26.78130
G1 X115.609 Y106.946 E27.31703
G1 X115.733 Y106.647 E27.33060
G1 X124.644 Y115.558 E27.85903
G1 X124.644 Y115.135 E27.87675
