; generated by Slic3r 1.2.9 on 2016-12-21 at 10:10:22

; external perimeters extrusion width = 0.21mm
; perimeters extrusion width = 0.67mm
; infill extrusion width = 0.67mm
; solid infill extrusion width = 0.21mm
; top infill extrusion width = 0.22mm
; support material extrusion width = 0.40mm

M190 S40 ; set bed temperature
M104 S175 T1 ; set temperature
G28 ; home all axes
G1 Z5 F5000 ; lift nozzle
M109 S175 T1 ; wait for temperature to be reached
G21 ; set units to millimeters
G90 ; use absolute coordinates
M82 ; use absolute distances for extrusion
G92 E0
T1
G92 E0
G1 Z0.350 F9000.000
G1 E-3.00000 F2400.00000
G92 E0
G1 Z0.550 F9000.000
G1 X45.924 Y45.816 F9000.000
G1 Z0.350 F9000.000
G1 E3.00000 F2400.00000
G1 X46.540 Y45.262 E3.03525 F2400.000
G1 X47.058 Y44.865 E3.06300
G1 X47.457 Y44.596 E3.08350
G1 X48.022 Y44.262 E3.11143
G1 X48.769 Y43.898 E3.14675
G1 X49.375 Y43.660 E3.17447
G1 X49.831 Y43.512 E3.19489
G1 X50.635 Y43.311 E3.23014
G1 X51.108 Y43.228 E3.25056
G1 X51.758 Y43.153 E3.27839
G1 X52.413 Y43.124 E3.30628
G1 X147.587 Y43.124 E7.35562
G1 X148.067 Y43.141 E7.37604
G1 X148.728 Y43.205 E7.40430 F2400.000
G1 X149.535 Y43.348 E7.43918
G1 X150.001 Y43.464 E7.45959
G1 X150.625 Y43.660 E7.48742
G1 X151.391 Y43.969 E7.52257
G1 X151.978 Y44.262 E7.55048
G1 X152.395 Y44.503 E7.57098
G1 X152.942 Y44.865 E7.59888
G1 X153.594 Y45.374 E7.63408
G1 X154.076 Y45.816 E7.66190
G1 X154.524 Y46.289 E7.68961
G1 X154.835 Y46.660 E7.71021
G1 X155.224 Y47.185 E7.73801
G1 X155.662 Y47.886 E7.77317
G1 X155.965 Y48.469 E7.80115
G1 X156.161 Y48.909 E7.82166
G1 X156.389 Y49.516 E7.84923
G1 X156.576 Y50.147 E7.87723
G1 X156.748 Y50.958 E7.91251
G1 X156.834 Y51.608 E7.94041
G1 X156.877 Y52.500 E7.97838
G1 X156.877 Y147.500 E12.02030
G1 X156.834 Y148.391 E12.05827
G1 X156.718 Y149.215 E12.09365
G1 X156.576 Y149.853 E12.12147
G1 X156.443 Y150.318 E12.14203
G1 X156.161 Y151.090 E12.17702
G1 X155.889 Y151.688 E12.20498
G1 X155.662 Y152.114 E12.22550
G1 X155.322 Y152.670 E12.25324
G1 X154.835 Y153.340 E12.28848
G1 X154.524 Y153.711 E12.30907
G1 X154.077 Y154.183 E12.33672
G1 X153.460 Y154.738 E12.37203
G1 X152.942 Y155.135 E12.39979
G1 X152.545 Y155.403 E12.42017
G1 X151.977 Y155.738 E12.44823
G1 X151.232 Y156.101 E12.48351
G1 X150.624 Y156.340 E12.51127
G1 X150.169 Y156.488 E12.53165
G1 X149.365 Y156.689 E12.56692
G1 X148.892 Y156.772 E12.58736
G1 X148.242 Y156.847 E12.61516
G1 X147.587 Y156.876 E12.64306
G1 X52.413 Y156.876 E16.69240
G1 X51.932 Y156.859 E16.71287
G1 X51.282 Y156.797 E16.74065
G1 X50.465 Y156.652 E16.77597
G1 X49.999 Y156.536 E16.79638
G1 X49.376 Y156.340 E16.82415
G1 X48.609 Y156.030 E16.85937
G1 X48.023 Y155.738 E16.88723
G1 X47.605 Y155.497 E16.90776
G1 X47.058 Y155.135 E16.93566
G1 X46.406 Y154.626 E16.97085
G1 X46.050 Y154.305 E16.99127
G1 X45.593 Y153.841 E17.01897
G1 X45.165 Y153.340 E17.04697
G1 X44.678 Y152.670 E17.08222
G1 X44.338 Y152.114 E17.10997
G1 X44.111 Y151.688 E17.13051
G1 X43.839 Y151.091 E17.15843
G1 X43.557 Y150.318 E17.19344
G1 X43.424 Y149.852 E17.21402
G1 X43.282 Y149.214 E17.24186
G1 X43.185 Y148.565 E17.26976
G1 X43.127 Y147.739 E17.30499
G1 X43.123 Y52.500 E21.35708
G1 X43.166 Y51.608 E21.39507
G1 X43.282 Y50.786 E21.43038
G1 X43.424 Y50.148 E21.45823
G1 X43.557 Y49.682 E21.47881
G1 X43.839 Y48.909 E21.51381
G1 X44.111 Y48.312 E21.54174
G1 X44.338 Y47.886 E21.56230
G1 X44.678 Y47.330 E21.59002
G1 X45.165 Y46.660 E21.62527
G1 X45.476 Y46.289 E21.64586
G1 X45.883 Y45.860 E21.67101
G1 X46.127 Y46.027 F9000.000
G1 X46.728 Y45.486 E21.70539 F2400.000
G1 X47.230 Y45.102 E21.73228
G1 X47.612 Y44.844 E21.75190
G1 X48.160 Y44.520 E21.77896
G1 X48.887 Y44.166 E21.81341
G1 X49.475 Y43.935 E21.84027
G1 X49.912 Y43.793 E21.85982
G1 X50.696 Y43.597 E21.89421
G1 X51.149 Y43.517 E21.91375
G1 X51.778 Y43.445 E21.94072
G1 X52.413 Y43.417 E21.96774
G1 X147.587 Y43.417 E26.01708
G1 X148.047 Y43.433 E26.03664
G1 X148.687 Y43.494 E26.06403 F2400.000
G1 X149.474 Y43.634 E26.09803
G1 X149.920 Y43.745 E26.11757
G1 X150.525 Y43.935 E26.14454
G1 X151.272 Y44.237 E26.17883
G1 X151.840 Y44.520 E26.20586
G1 X152.240 Y44.751 E26.22549
G1 X152.770 Y45.101 E26.25252
G1 X153.406 Y45.598 E26.28686
G1 X153.873 Y46.027 E26.31381
G1 X154.307 Y46.485 E26.34065
G1 X154.605 Y46.840 E26.36038
G1 X154.982 Y47.348 E26.38732
G1 X155.409 Y48.032 E26.42161
G1 X155.703 Y48.597 E26.44871
G1 X155.890 Y49.019 E26.46835
G1 X156.111 Y49.607 E26.49507
G1 X156.292 Y50.218 E26.52219
G1 X156.461 Y51.009 E26.55661
G1 X156.543 Y51.639 E26.58363
G1 X156.585 Y52.500 E26.62031
G1 X156.585 Y147.500 E30.66222
G1 X156.543 Y148.361 E30.69890
G1 X156.430 Y149.164 E30.73340
G1 X156.292 Y149.782 E30.76036
G1 X156.165 Y150.227 E30.78004
G1 X155.890 Y150.981 E30.81418
G1 X155.626 Y151.560 E30.84126
G1 X155.409 Y151.968 E30.86091
G1 X155.079 Y152.507 E30.88779
G1 X154.605 Y153.160 E30.92215
G1 X154.307 Y153.515 E30.94187
G1 X153.874 Y153.972 E30.96866
G1 X153.272 Y154.514 E31.00310
G1 X152.770 Y154.898 E31.02999
G1 X152.390 Y155.155 E31.04951
G1 X151.840 Y155.480 E31.07669
G1 X151.113 Y155.834 E31.11110
G1 X150.524 Y156.065 E31.13800
G1 X150.088 Y156.207 E31.15751
G1 X149.304 Y156.403 E31.19191
G1 X148.851 Y156.483 E31.21148
G1 X148.222 Y156.555 E31.23842
G1 X147.587 Y156.583 E31.26545
G1 X52.413 Y156.583 E35.31479
G1 X51.952 Y156.567 E35.33438
G1 X51.323 Y156.507 E35.36130
G1 X50.525 Y156.366 E35.39575
G1 X50.080 Y156.255 E35.41530
G1 X49.476 Y156.066 E35.44220
G1 X48.728 Y155.763 E35.47655
G1 X48.160 Y155.480 E35.50355
G1 X47.760 Y155.249 E35.52320
G1 X47.230 Y154.899 E35.55023
G1 X46.594 Y154.402 E35.58456
G1 X46.253 Y154.094 E35.60411
G1 X45.810 Y153.645 E35.63094
G1 X45.396 Y153.160 E35.65807
G1 X44.921 Y152.507 E35.69245
G1 X44.591 Y151.968 E35.71933
G1 X44.374 Y151.560 E35.73900
G1 X44.110 Y150.981 E35.76605
G1 X43.835 Y150.227 E35.80020
G1 X43.708 Y149.782 E35.81991
G1 X43.570 Y149.163 E35.84688
G1 X43.475 Y148.535 E35.87391
G1 X43.419 Y147.729 E35.90828
G1 X43.415 Y52.500 E39.95993
G1 X43.457 Y51.639 E39.99662
G1 X43.570 Y50.837 E40.03106
G1 X43.708 Y50.218 E40.05804
G1 X43.835 Y49.773 E40.07775
G1 X44.110 Y49.019 E40.11189
G1 X44.374 Y48.440 E40.13895
G1 X44.591 Y48.032 E40.15863
G1 X44.921 Y47.493 E40.18549
G1 X45.396 Y46.840 E40.21987
G1 X45.693 Y46.485 E40.23959
G1 X46.086 Y46.070 E40.26388
G1 X46.331 Y46.237 F9000.000
G1 X46.916 Y45.710 E40.29739 F2400.000
G1 X47.401 Y45.338 E40.32341
G1 X47.767 Y45.092 E40.34217
G1 X48.297 Y44.779 E40.36836
G1 X49.006 Y44.433 E40.40193
G1 X49.575 Y44.210 E40.42793
G1 X49.993 Y44.074 E40.44661
G1 X50.757 Y43.883 E40.48013
G1 X51.189 Y43.807 E40.49881
G1 X51.799 Y43.737 E40.52490
G1 X52.413 Y43.709 E40.55106
G1 X147.587 Y43.709 E44.60039
G1 X148.026 Y43.724 E44.61908
G1 X148.647 Y43.784 E44.64560 F2400.000
G1 X149.414 Y43.920 E44.67874
G1 X149.839 Y44.026 E44.69741
G1 X150.425 Y44.210 E44.72351
G1 X151.153 Y44.504 E44.75694
G1 X151.703 Y44.779 E44.78310
G1 X152.085 Y44.999 E44.80186
G1 X152.598 Y45.338 E44.82802
G1 X153.218 Y45.822 E44.86149
G1 X153.669 Y46.237 E44.88757
G1 X154.089 Y46.680 E44.91355
G1 X154.374 Y47.020 E44.93240
G1 X154.739 Y47.512 E44.95848
G1 X155.156 Y48.178 E44.99191
G1 X155.440 Y48.725 E45.01814
G1 X155.619 Y49.128 E45.03690
G1 X155.833 Y49.697 E45.06276
G1 X156.009 Y50.289 E45.08901
G1 X156.173 Y51.060 E45.12256
G1 X156.252 Y51.669 E45.14871
G1 X156.292 Y52.500 E45.18409
G1 X156.292 Y147.500 E49.22600
G1 X156.252 Y148.330 E49.26138
G1 X156.142 Y149.113 E49.29501
G1 X156.009 Y149.712 E49.32110
G1 X155.887 Y150.137 E49.33990
G1 X155.619 Y150.872 E49.37318
G1 X155.363 Y151.432 E49.39940
G1 X155.156 Y151.822 E49.41817
G1 X154.837 Y152.343 E49.44419
G1 X154.374 Y152.980 E49.47768
G1 X154.089 Y153.320 E49.49653
G1 X153.670 Y153.762 E49.52246
G1 X153.084 Y154.290 E49.55602
G1 X152.598 Y154.662 E49.58206
G1 X152.235 Y154.907 E49.60071
G1 X151.703 Y155.222 E49.62701
G1 X150.994 Y155.567 E49.66055
G1 X150.424 Y155.791 E49.68659
G1 X150.008 Y155.926 E49.70523
G1 X149.243 Y156.117 E49.73876
G1 X148.810 Y156.193 E49.75746
G1 X148.201 Y156.263 E49.78353
G1 X147.587 Y156.291 E49.80969
G1 X52.413 Y156.291 E53.85903
G1 X51.973 Y156.275 E53.87776
G1 X51.363 Y156.218 E53.90381
G1 X50.586 Y156.080 E53.93738
G1 X50.160 Y155.974 E53.95606
G1 X49.576 Y155.791 E53.98210
G1 X48.847 Y155.496 E54.01559
G1 X48.297 Y155.222 E54.04171
G1 X47.915 Y155.001 E54.06050
G1 X47.402 Y154.662 E54.08665
G1 X46.782 Y154.178 E54.12012
G1 X46.456 Y153.884 E54.13880
G1 X46.027 Y153.449 E54.16477
G1 X45.626 Y152.980 E54.19102
G1 X45.163 Y152.343 E54.22454
G1 X44.844 Y151.822 E54.25055
G1 X44.637 Y151.432 E54.26935
G1 X44.381 Y150.872 E54.29553
G1 X44.113 Y150.137 E54.32882
G1 X43.991 Y149.711 E54.34766
G1 X43.858 Y149.112 E54.37376
G1 X43.766 Y148.504 E54.39991
G1 X43.711 Y147.719 E54.43342
G1 X43.708 Y52.500 E58.48464
G1 X43.748 Y51.669 E58.52003
G1 X43.858 Y50.888 E58.55360
G1 X43.991 Y50.289 E58.57971
G1 X44.113 Y49.863 E58.59854
G1 X44.381 Y49.128 E58.63183
G1 X44.637 Y48.569 E58.65801
G1 X44.844 Y48.178 E58.67682
G1 X45.163 Y47.657 E58.70282
G1 X45.626 Y47.020 E58.73633
G1 X45.911 Y46.680 E58.75517
G1 X46.289 Y46.280 E58.77860
G1 F7200
G1 X46.916 Y45.710 E58.51021
G1 F7200
G1 X47.401 Y45.338 E58.31654
G1 F7200
G1 X47.767 Y45.092 E58.17695
G1 F7200
G1 X48.297 Y44.779 E57.98203
G1 F7200
G1 X49.006 Y44.433 E57.73211
G1 F7200
G1 X49.575 Y44.210 E57.53862
G1 F7200
G1 X49.993 Y44.074 E57.39959
G1 F7200
G1 X50.757 Y43.883 E57.15011
G1 F7200
G1 X51.189 Y43.807 E57.01110
G1 F7200
G1 X51.799 Y43.737 E56.81688
G1 F7200
G1 X52.413 Y43.709 E56.62220
G1 F7200
G1 X54.603 Y43.709 E55.92860
G1 E55.77860 F2400.00000
G92 E0
G1 Z0.550 F9000.000
G1 X145.878 Y145.916 F9000.000
G1 Z0.350 F9000.000
G1 E3.00000 F2400.00000
G1 X146.128 Y145.707 E3.01387 F2400.000
G1 X146.413 Y145.555 E3.02761
G1 X146.626 Y145.486 E3.03714
G1 X146.946 Y145.441 E3.05087 F2400.000
G1 X147.271 Y145.464 E3.06475
G1 X147.581 Y145.553 E3.07848
G1 X147.782 Y145.651 E3.08801
G1 X148.044 Y145.841 E3.10175
G1 X148.260 Y146.081 E3.11548
G1 X148.378 Y146.271 E3.12502
G1 X148.499 Y146.570 E3.13875
G1 X148.556 Y146.891 E3.15262
G1 X148.545 Y147.217 E3.16650
G1 X148.466 Y147.533 E3.18037
G1 X148.323 Y147.826 E3.19424
G1 X148.122 Y148.084 E3.20812
G1 X147.872 Y148.293 E3.22199
G1 X147.587 Y148.445 E3.23572
G1 X147.374 Y148.514 E3.24526
G1 X147.054 Y148.559 E3.25899
G1 X146.729 Y148.536 E3.27287
G1 X146.419 Y148.447 E3.28660
G1 X146.218 Y148.349 E3.29613
G1 X145.956 Y148.159 E3.30987
G1 X145.740 Y147.919 E3.32360
G1 X145.622 Y147.729 E3.33313
G1 X145.501 Y147.430 E3.34687
G1 X145.444 Y147.109 E3.36074
G1 X145.455 Y146.783 E3.37462
G1 X145.534 Y146.467 E3.38849
G1 X145.677 Y146.174 E3.40236
G1 X145.841 Y145.964 E3.41368
G1 X132.684 Y144.934 F9000.000
G1 X118.710 Y144.934 E4.00823 F2400.000
G1 X118.613 Y144.595 E4.02322
G1 X120.867 Y143.186 E4.13632
G1 X122.974 Y141.656 E4.24714
G1 X124.969 Y139.981 E4.35796
G1 X126.843 Y138.172 E4.46877
G1 X128.586 Y136.236 E4.57959
G1 X130.189 Y134.184 E4.69040
G1 X131.687 Y131.954 E4.80468
G1 X132.337 Y130.827 E4.86006
G1 X132.684 Y130.920 E4.87532
G1 X132.684 Y144.874 E5.46901
G1 F7200
G1 X123.684 Y144.912 E2.61901
G1 E2.46901 F2400.00000
G92 E0
G1 Z0.550 F9000.000
G1 X124.100 Y136.298 F9000.000
G1 Z0.350 F9000.000
G1 E3.00000 F2400.00000
G1 X123.768 Y136.576 E3.01841 F2400.000
G1 X123.511 Y136.725 E3.03105
G1 X123.104 Y136.873 E3.04946
G1 X122.676 Y136.933 E3.06786
G1 X122.379 Y136.923 E3.08051
G1 X121.956 Y136.833 E3.09891
G1 X121.558 Y136.655 E3.11746
G1 X121.205 Y136.399 E3.13600
G1 X120.913 Y136.075 E3.15454
G1 X120.696 Y135.698 E3.17308
G1 X120.562 Y135.286 E3.19150
G1 X120.520 Y134.984 E3.20448
G1 X120.536 Y134.560 E3.22254
G1 X120.641 Y134.137 E3.24108
G1 X120.832 Y133.745 E3.25962
G1 X121.100 Y133.402 E3.27817
G1 X121.434 Y133.122 E3.29671
G1 X121.816 Y132.919 E3.31512
G1 X122.099 Y132.827 E3.32776
G1 X122.527 Y132.767 E3.34617 F2400.000
G1 X122.962 Y132.797 E3.36471
G1 X123.381 Y132.917 E3.38326
G1 X123.763 Y133.120 E3.40166
G1 X123.997 Y133.303 E3.41431
G1 X124.287 Y133.625 E3.43271
G1 X124.504 Y134.002 E3.45125
G1 X124.638 Y134.414 E3.46967
G1 X124.680 Y134.716 E3.48265
G1 X124.664 Y135.140 E3.50071
G1 X124.559 Y135.563 E3.51925
G1 X124.368 Y135.955 E3.53779
G1 X124.137 Y136.251 E3.55379
G1 F7200
G1 X123.768 Y136.576 E3.39816
G1 F7200
G1 X123.511 Y136.725 E3.30403
G1 F7200
G1 X123.104 Y136.873 E3.16706
G1 F7200
G1 X122.676 Y136.933 E3.03005
G1 F7200
G1 X122.379 Y136.923 E2.93595
G1 F7200
G1 X121.956 Y136.833 E2.79896
G1 F7200
G1 X121.558 Y136.655 E2.66093
G1 F7200
G1 X121.205 Y136.399 E2.52295
G1 F7200
G1 X120.913 Y136.075 E2.38493
G1 F7200
G1 X120.696 Y135.698 E2.24691
G1 F7200
G1 X120.562 Y135.286 E2.10983
G1 F7200
G1 X120.520 Y134.984 E2.01322
G1 F7200
G1 X120.536 Y134.560 E1.87878
G1 F7200
G1 X120.641 Y134.137 E1.74081
G1 F7200
G1 X120.832 Y133.745 E1.60281
G1 F7200
G1 X121.100 Y133.402 E1.46477
G1 F7200
G1 X121.434 Y133.122 E1.32678
G1 F7200
G1 X121.816 Y132.919 E1.18979
G1 F7200
G1 X122.099 Y132.827 E1.09566
G1 E0.55379 F2400.00000
G92 E0
G1 Z0.550 F9000.000
G1 X79.479 Y134.999 F9000.000
G1 Z0.350 F9000.000
G1 E3.00000 F2400.00000
G1 X79.404 Y135.425 E3.01841 F2400.000
G1 X79.241 Y135.829 E3.03695
G1 X78.997 Y136.190 E3.05549
G1 X78.684 Y136.493 E3.07403
G1 X78.314 Y136.724 E3.09258
G1 X77.904 Y136.873 E3.11112
G1 X77.476 Y136.933 E3.12953
G1 X77.179 Y136.923 E3.14217
G1 X76.756 Y136.833 E3.16058
G1 X76.358 Y136.655 E3.17912
G1 X76.008 Y136.401 E3.19752
G1 X75.801 Y136.187 E3.21017
G1 X75.559 Y135.829 E3.22858
G1 X75.396 Y135.425 E3.24712
G1 X75.320 Y134.995 E3.26567
G1 X75.336 Y134.560 E3.28421
G1 X75.441 Y134.137 E3.30275
G1 X75.631 Y133.748 E3.32116
G1 X75.811 Y133.502 E3.33414
G1 X76.117 Y133.207 E3.35221
G1 X76.486 Y132.976 E3.37075
G1 X76.896 Y132.827 E3.38929
G1 X77.327 Y132.767 E3.40784 F2400.000
G1 X77.762 Y132.797 E3.42638
G1 X78.181 Y132.917 E3.44492
G1 X78.563 Y133.120 E3.46333
G1 X78.795 Y133.301 E3.47583
G1 X78.999 Y133.513 E3.48834
G1 X79.241 Y133.871 E3.50675
G1 X79.404 Y134.275 E3.52529
G1 X79.479 Y134.701 E3.54370
G1 X79.479 Y134.939 E3.55379
G1 X81.387 Y144.595 F9000.000
G1 X81.290 Y144.934 E3.56877 F2400.000
G1 X67.316 Y144.934 E4.16332
G1 X67.316 Y130.920 E4.75957
G1 X67.663 Y130.827 E4.77483
G1 X68.354 Y132.025 E4.83367
G1 X69.811 Y134.184 E4.94448
G1 X71.414 Y136.236 E5.05530
G1 X73.157 Y138.172 E5.16612
G1 X75.031 Y139.981 E5.27694
G1 X77.026 Y141.656 E5.38776
G1 X79.133 Y143.186 E5.49857
G1 X81.337 Y144.563 E5.60913
G1 F7200
G1 X81.290 Y144.934 E5.49097
G1 F7200
G1 X72.664 Y144.934 E2.75913
G1 E2.60913 F2400.00000
G92 E0
G1 Z0.550 F9000.000
G1 X54.556 Y146.891 F9000.000
G1 Z0.350 F9000.000
G1 E3.00000 F2400.00000
G1 X54.545 Y147.217 E3.01387 F2400.000
G1 X54.466 Y147.533 E3.02775
G1 X54.323 Y147.826 E3.04162
G1 X54.122 Y148.084 E3.05549
G1 X53.872 Y148.293 E3.06937
G1 X53.587 Y148.445 E3.08310
G1 X53.374 Y148.514 E3.09263
G1 X53.054 Y148.559 E3.10637
G1 X52.729 Y148.536 E3.12024
G1 X52.419 Y148.447 E3.13398
G1 X52.218 Y148.349 E3.14351
G1 X51.956 Y148.159 E3.15725
G1 X51.740 Y147.919 E3.17098
G1 X51.622 Y147.729 E3.18051
G1 X51.501 Y147.430 E3.19424
G1 X51.444 Y147.109 E3.20812
G1 X51.455 Y146.783 E3.22199
G1 X51.534 Y146.467 E3.23586
G1 X51.677 Y146.173 E3.24974
G1 X51.878 Y145.916 E3.26361
G1 X52.128 Y145.707 E3.27748
G1 X52.413 Y145.555 E3.29122
G1 X52.626 Y145.486 E3.30075
G1 X52.946 Y145.441 E3.31449 F2400.000
G1 X53.271 Y145.464 E3.32836
G1 X53.581 Y145.553 E3.34210
G1 X53.782 Y145.651 E3.35162
G1 X54.044 Y145.841 E3.36536
G1 X54.260 Y146.081 E3.37910
G1 X54.378 Y146.271 E3.38863
G1 X54.499 Y146.570 E3.40236
G1 X54.546 Y146.832 E3.41368
G1 F7200
G1 X54.545 Y147.217 E3.29177
G1 F7200
G1 X54.466 Y147.533 E3.18852
G1 F7200
G1 X54.323 Y147.826 E3.08529
G1 F7200
G1 X54.122 Y148.084 E2.98200
G1 F7200
G1 X53.872 Y148.293 E2.87876
G1 F7200
G1 X53.587 Y148.445 E2.77653
G1 F7200
G1 X53.374 Y148.514 E2.70557
G1 F7200
G1 X53.054 Y148.559 E2.60335
G1 F7200
G1 X52.729 Y148.536 E2.50008
G1 F7200
G1 X52.419 Y148.447 E2.39786
G1 F7200
G1 X52.218 Y148.349 E2.32694
G1 F7200
