; generated by Slic3r 1.2.9 on 2016-12-23 at 11:00:58

; external perimeters extrusion width = 0.31mm
; perimeters extrusion width = 0.29mm
; infill extrusion width = 0.29mm
; solid infill extrusion width = 0.29mm
; top infill extrusion width = 0.29mm
; support material extrusion width = 0.29mm

M190 S40 ; set bed temperature
M104 S175 T1 ; set temperature
G28 ; home all axes
G1 Z5 F5000 ; lift nozzle
M109 S175 T1 ; wait for temperature to be reached
G21 ; set units to millimeters
G90 ; use absolute coordinates
M82 ; use absolute distances for extrusion
G92 E0
T1
G92 E0
G1 Z0.375 F9000.000
G1 E-3.00000 F2400.00000
G92 E0
G1 Z0.575 F9000.000
G1 X45.764 Y45.650 F9000.000
G1 Z0.375 F9000.000
G1 E3.00000 F2400.00000
G1 X46.391 Y45.085 E3.04866 F2400.000
G1 X46.921 Y44.678 E3.08716
G1 X47.334 Y44.399 E3.11586
G1 X47.923 Y44.053 E3.15524
G1 X48.675 Y43.687 E3.20337
G1 X49.296 Y43.443 E3.24183
G1 X49.767 Y43.289 E3.27039
G1 X50.587 Y43.085 E3.31907
G1 X51.076 Y42.999 E3.34767
G1 X51.741 Y42.923 E3.38625
G1 X52.413 Y42.893 E3.42497
G1 X147.587 Y42.893 E8.90810
G1 X148.084 Y42.910 E8.93672
G1 X148.924 Y42.999 E8.98540 F2400.000
G1 X149.583 Y43.121 E9.02404
G1 X150.075 Y43.244 E9.05322
G1 X150.704 Y43.443 E9.09123
G1 X151.485 Y43.758 E9.13974
G1 X152.086 Y44.058 E9.17846
G1 X152.518 Y44.307 E9.20716
G1 X153.078 Y44.678 E9.24589
G1 X153.743 Y45.197 E9.29446
G1 X154.236 Y45.650 E9.33306
G1 X154.697 Y46.135 E9.37161
G1 X155.017 Y46.517 E9.40033
G1 X155.416 Y47.055 E9.43891
G1 X155.863 Y47.771 E9.48749
G1 X156.173 Y48.368 E9.52627
G1 X156.376 Y48.823 E9.55497
G1 X156.609 Y49.445 E9.59323
G1 X156.801 Y50.091 E9.63208
G1 X156.976 Y50.918 E9.68079
G1 X157.064 Y51.584 E9.71949
G1 X157.109 Y52.500 E9.77231
G1 X157.109 Y147.500 E15.24539
G1 X157.064 Y148.416 E15.29820
G1 X156.946 Y149.255 E15.34704
G1 X156.800 Y149.910 E15.38569
G1 X156.663 Y150.389 E15.41441
G1 X156.376 Y151.177 E15.46272
G1 X156.097 Y151.790 E15.50151
G1 X155.863 Y152.230 E15.53023
G1 X155.513 Y152.800 E15.56873
G1 X155.017 Y153.483 E15.61740
G1 X154.696 Y153.866 E15.64619
G1 X154.238 Y154.348 E15.68450
G1 X153.609 Y154.915 E15.73330
G1 X153.078 Y155.322 E15.77181
G1 X152.667 Y155.599 E15.80036
G1 X152.087 Y155.942 E15.83920
G1 X151.326 Y156.313 E15.88797
G1 X150.868 Y156.498 E15.91644
G1 X150.234 Y156.710 E15.95493
G1 X149.413 Y156.915 E16.00370
G1 X148.924 Y157.001 E16.03228
G1 X148.258 Y157.077 E16.07090
G1 X147.587 Y157.107 E16.10960
G1 X52.413 Y157.107 E21.59272
G1 X51.907 Y157.089 E21.62191
G1 X51.249 Y157.026 E21.65997
G1 X50.416 Y156.879 E21.70867
G1 X49.935 Y156.759 E21.73725
G1 X49.298 Y156.558 E21.77575
G1 X48.515 Y156.242 E21.82440
G1 X47.914 Y155.942 E21.86305
G1 X47.482 Y155.693 E21.89179
G1 X46.921 Y155.322 E21.93053
G1 X46.258 Y154.803 E21.97908
G1 X45.889 Y154.471 E22.00766
G1 X45.421 Y153.996 E22.04609
G1 X44.983 Y153.483 E22.08495
G1 X44.486 Y152.800 E22.13360
G1 X44.138 Y152.230 E22.17208
G1 X43.903 Y151.789 E22.20084
G1 X43.624 Y151.177 E22.23960
G1 X43.337 Y150.389 E22.28791
G1 X43.199 Y149.908 E22.31673
G1 X43.054 Y149.254 E22.35535
G1 X42.955 Y148.590 E22.39405
G1 X42.896 Y147.748 E22.44266
G1 X42.891 Y52.500 E27.93002
G1 X42.936 Y51.584 E27.98286
G1 X43.054 Y50.746 E28.03159
G1 X43.199 Y50.091 E28.07024
G1 X43.337 Y49.611 E28.09904
G1 X43.624 Y48.823 E28.14736
G1 X43.903 Y48.211 E28.18610
G1 X44.138 Y47.770 E28.21488
G1 X44.486 Y47.200 E28.25335
G1 X44.983 Y46.517 E28.30200
G1 X45.304 Y46.134 E28.33082
G1 X45.722 Y45.693 E28.36580
G1 X46.020 Y45.916 F9000.000
G1 X46.629 Y45.368 E28.41298 F2400.000
G1 X47.139 Y44.977 E28.45000
G1 X47.530 Y44.713 E28.47721
G1 X48.097 Y44.379 E28.51507
G1 X48.825 Y44.025 E28.56173
G1 X49.422 Y43.790 E28.59872
G1 X49.869 Y43.645 E28.62579
G1 X50.664 Y43.446 E28.67299
G1 X51.127 Y43.365 E28.70010
G1 X51.767 Y43.291 E28.73720
G1 X52.413 Y43.262 E28.77443
G1 X147.587 Y43.262 E34.25755
G1 X148.058 Y43.279 E34.28469
G1 X148.873 Y43.365 E34.33188 F2400.000
G1 X149.507 Y43.483 E34.36904
G1 X149.973 Y43.599 E34.39676
G1 X150.578 Y43.790 E34.43325
G1 X151.335 Y44.096 E34.48029
G1 X151.913 Y44.384 E34.51752
G1 X152.322 Y44.620 E34.54473
G1 X152.861 Y44.977 E34.58197
G1 X153.505 Y45.480 E34.62906
G1 X153.980 Y45.916 E34.66617
G1 X154.422 Y46.383 E34.70325
G1 X154.726 Y46.745 E34.73047
G1 X155.109 Y47.262 E34.76756
G1 X155.543 Y47.955 E34.81466
G1 X155.841 Y48.530 E34.85195
G1 X156.033 Y48.961 E34.87916
G1 X156.257 Y49.559 E34.91595
G1 X156.442 Y50.181 E34.95331
G1 X156.612 Y50.982 E35.00053
G1 X156.696 Y51.623 E35.03774
G1 X156.739 Y52.500 E35.08833
G1 X156.739 Y147.500 E40.56141
G1 X156.696 Y148.377 E40.61201
G1 X156.582 Y149.191 E40.65935
G1 X156.442 Y149.821 E40.69651
G1 X156.311 Y150.275 E40.72374
G1 X156.033 Y151.039 E40.77058
G1 X155.764 Y151.628 E40.80788
G1 X155.543 Y152.045 E40.83511
G1 X155.207 Y152.593 E40.87213
G1 X154.726 Y153.256 E40.91931
G1 X154.421 Y153.619 E40.94660
G1 X153.981 Y154.083 E40.98345
G1 X153.371 Y154.632 E41.03075
G1 X152.861 Y155.023 E41.06779
G1 X152.471 Y155.286 E41.09486
G1 X151.913 Y155.616 E41.13219
G1 X151.176 Y155.975 E41.17947
G1 X150.741 Y156.151 E41.20647
G1 X150.132 Y156.355 E41.24348
G1 X149.336 Y156.554 E41.29075
G1 X148.873 Y156.635 E41.31785
G1 X148.232 Y156.709 E41.35498
G1 X147.587 Y156.738 E41.39219
G1 X52.413 Y156.738 E46.87532
G1 X51.932 Y156.720 E46.90302
G1 X51.300 Y156.660 E46.93959
G1 X50.493 Y156.517 E46.98681
G1 X50.037 Y156.404 E47.01390
G1 X49.424 Y156.211 E47.05092
G1 X48.665 Y155.904 E47.09808
G1 X48.088 Y155.616 E47.13525
G1 X47.678 Y155.380 E47.16249
G1 X47.139 Y155.023 E47.19975
G1 X46.495 Y154.520 E47.24681
G1 X46.146 Y154.205 E47.27391
G1 X45.696 Y153.748 E47.31086
G1 X45.274 Y153.255 E47.34822
G1 X44.793 Y152.593 E47.39539
G1 X44.458 Y152.045 E47.43239
G1 X44.235 Y151.627 E47.45966
G1 X43.967 Y151.039 E47.49692
G1 X43.689 Y150.275 E47.54377
G1 X43.558 Y149.819 E47.57109
G1 X43.418 Y149.190 E47.60823
G1 X43.322 Y148.551 E47.64544
G1 X43.265 Y147.735 E47.69257
G1 X43.261 Y52.500 E53.17918
G1 X43.304 Y51.623 E53.22979
G1 X43.418 Y50.810 E53.27704
G1 X43.558 Y50.181 E53.31420
G1 X43.689 Y49.725 E53.34151
G1 X43.967 Y48.961 E53.38835
G1 X44.235 Y48.373 E53.42561
G1 X44.458 Y47.955 E53.45289
G1 X44.793 Y47.407 E53.48988
G1 X45.274 Y46.745 E53.53705
G1 X45.579 Y46.381 E53.56437
G1 X45.979 Y45.959 E53.59788
G1 X46.277 Y46.182 F9000.000
G1 X46.866 Y45.651 E53.64357 F2400.000
G1 X47.356 Y45.276 E53.67911
G1 X47.726 Y45.026 E53.70483
G1 X48.260 Y44.711 E53.74057
G1 X48.975 Y44.362 E53.78637
G1 X49.549 Y44.137 E53.82188
G1 X49.971 Y44.000 E53.84747
G1 X50.741 Y43.808 E53.89318
G1 X51.179 Y43.731 E53.91880
G1 X51.793 Y43.660 E53.95442
G1 X52.413 Y43.632 E53.99016
G1 X147.587 Y43.632 E59.47328
G1 X148.032 Y43.648 E59.49894
G1 X148.821 Y43.731 E59.54464 F2400.000
G1 X149.430 Y43.844 E59.58031
G1 X149.861 Y43.952 E59.60589
G1 X150.451 Y44.137 E59.64155
G1 X151.185 Y44.433 E59.68712
G1 X151.739 Y44.710 E59.72285
G1 X152.126 Y44.934 E59.74857
G1 X152.644 Y45.276 E59.78432
G1 X153.267 Y45.763 E59.82993
G1 X153.723 Y46.182 E59.86556
G1 X154.148 Y46.630 E59.90115
G1 X154.435 Y46.972 E59.92688
G1 X154.803 Y47.469 E59.96249
G1 X155.223 Y48.140 E60.00811
G1 X155.509 Y48.692 E60.04390
G1 X155.691 Y49.099 E60.06963
G1 X155.906 Y49.674 E60.10495
G1 X156.084 Y50.270 E60.14081
G1 X156.249 Y51.047 E60.18654
G1 X156.329 Y51.661 E60.22226
G1 X156.370 Y52.500 E60.27063
G1 X156.370 Y147.500 E65.74371
G1 X156.329 Y148.339 E65.79208
G1 X156.218 Y149.127 E65.83793
G1 X156.083 Y149.731 E65.87360
G1 X155.960 Y150.160 E65.89934
G1 X155.691 Y150.901 E65.94472
G1 X155.432 Y151.466 E65.98052
G1 X155.223 Y151.860 E66.00625
G1 X154.901 Y152.387 E66.04180
G1 X154.435 Y153.028 E66.08749
G1 X154.147 Y153.371 E66.11329
G1 X153.724 Y153.817 E66.14866
G1 X153.134 Y154.349 E66.19448
G1 X152.644 Y154.724 E66.23003
G1 X152.276 Y154.973 E66.25562
G1 X151.740 Y155.289 E66.29146
G1 X151.025 Y155.638 E66.33724
G1 X150.615 Y155.803 E66.36276
G1 X150.030 Y156.000 E66.39829
G1 X149.259 Y156.192 E66.44408
G1 X148.821 Y156.269 E66.46969
G1 X148.207 Y156.340 E66.50534
G1 X147.587 Y156.368 E66.54106
G1 X52.413 Y156.368 E72.02418
G1 X51.958 Y156.352 E72.05040
G1 X51.352 Y156.294 E72.08548
G1 X50.570 Y156.156 E72.13121
G1 X50.139 Y156.048 E72.15682
G1 X49.550 Y155.863 E72.19236
G1 X48.815 Y155.567 E72.23804
G1 X48.261 Y155.290 E72.27372
G1 X47.874 Y155.066 E72.29947
G1 X47.356 Y154.724 E72.33523
G1 X46.733 Y154.237 E72.38082
G1 X46.402 Y153.939 E72.40643
G1 X45.970 Y153.501 E72.44190
G1 X45.565 Y153.028 E72.47777
G1 X45.099 Y152.386 E72.52345
G1 X44.777 Y151.860 E72.55898
G1 X44.567 Y151.465 E72.58475
G1 X44.309 Y150.901 E72.62052
G1 X44.040 Y150.160 E72.66590
G1 X43.916 Y149.730 E72.69172
G1 X43.782 Y149.126 E72.72737
G1 X43.690 Y148.512 E72.76310
G1 X43.634 Y147.722 E72.80874
G1 X43.630 Y52.500 E78.29461
G1 X43.671 Y51.661 E78.34300
G1 X43.782 Y50.875 E78.38876
G1 X43.916 Y50.270 E78.42443
G1 X44.040 Y49.840 E78.45024
G1 X44.309 Y49.099 E78.49562
G1 X44.567 Y48.535 E78.53138
G1 X44.778 Y48.140 E78.55717
G1 X45.099 Y47.614 E78.59268
G1 X45.565 Y46.972 E78.63837
G1 X45.853 Y46.629 E78.66419
G1 X46.235 Y46.225 E78.69622
G1 F7200
G1 X46.866 Y45.651 E78.42614
G1 F7200
G1 X47.356 Y45.276 E78.23077
G1 F7200
G1 X47.726 Y45.026 E78.08942
G1 F7200
G1 X48.260 Y44.711 E77.89295
G1 F7200
G1 X48.975 Y44.362 E77.64121
G1 F7200
G1 X49.549 Y44.137 E77.44601
G1 F7200
G1 X49.971 Y44.000 E77.30538
G1 F7200
G1 X50.741 Y43.808 E77.05410
G1 F7200
G1 X51.179 Y43.731 E76.91329
G1 F7200
G1 X51.793 Y43.660 E76.71748
G1 F7200
G1 X52.413 Y43.632 E76.52108
G1 F7200
G1 X54.544 Y43.632 E75.84622
G1 E75.69622 F2400.00000
G92 E0
G1 Z0.575 F9000.000
G1 X145.848 Y145.888 F9000.000
G1 Z0.375 F9000.000
G1 E3.00000 F2400.00000
G1 X146.105 Y145.673 E3.01928 F2400.000
G1 X146.397 Y145.517 E3.03834
G1 X146.617 Y145.446 E3.05166
G1 X146.944 Y145.400 E3.07072 F2400.000
G1 X147.278 Y145.423 E3.09001
G1 X147.596 Y145.514 E3.10906
G1 X147.804 Y145.616 E3.12238
G1 X148.071 Y145.810 E3.14144
G1 X148.293 Y146.056 E3.16049
G1 X148.415 Y146.252 E3.17382
G1 X148.539 Y146.559 E3.19287
G1 X148.597 Y146.888 E3.21216
G1 X148.586 Y147.223 E3.23144
G1 X148.505 Y147.548 E3.25073
G1 X148.358 Y147.848 E3.27001
G1 X148.152 Y148.112 E3.28930
G1 X147.895 Y148.327 E3.30858
G1 X147.603 Y148.483 E3.32764
G1 X147.383 Y148.554 E3.34096
G1 X147.056 Y148.600 E3.36002
G1 X146.722 Y148.577 E3.37931
G1 X146.404 Y148.486 E3.39836
G1 X146.196 Y148.384 E3.41168
G1 X145.929 Y148.190 E3.43074
G1 X145.707 Y147.944 E3.44979
G1 X145.585 Y147.748 E3.46312
G1 X145.461 Y147.441 E3.48217
G1 X145.403 Y147.112 E3.50146
G1 X145.414 Y146.777 E3.52075
G1 X145.495 Y146.452 E3.54003
G1 X145.642 Y146.152 E3.55931
G1 X145.811 Y145.935 E3.57514
G1 X121.358 Y133.098 F9000.000
G1 X121.152 Y133.362 E3.59444 F2400.000
G1 X120.895 Y133.577 E3.61372
G1 X120.603 Y133.733 E3.63277
G1 X120.383 Y133.804 E3.64610
G1 X120.056 Y133.850 E3.66515
G1 X119.722 Y133.827 E3.68444
G1 X119.404 Y133.736 E3.70350
G1 X119.196 Y133.634 E3.71682
G1 X118.929 Y133.440 E3.73588
G1 X118.707 Y133.194 E3.75493
G1 X118.585 Y132.998 E3.76825
G1 X118.461 Y132.691 E3.78730
G1 X118.403 Y132.362 E3.80659
G1 X118.414 Y132.027 E3.82588
G1 X118.495 Y131.702 E3.84516
G1 X118.642 Y131.402 E3.86445
G1 X118.848 Y131.138 E3.88374
G1 X119.105 Y130.923 E3.90302
G1 X119.397 Y130.767 E3.92207
G1 X119.617 Y130.696 E3.93540
G1 X119.944 Y130.650 E3.95445 F2400.000
G1 X120.278 Y130.673 E3.97374
G1 X120.596 Y130.764 E3.99280
G1 X120.804 Y130.866 E4.00612
G1 X121.071 Y131.060 E4.02518
G1 X121.295 Y131.309 E4.04446
G1 X121.463 Y131.599 E4.06374
G1 X121.565 Y131.914 E4.08282
G1 X121.597 Y132.149 E4.09650
G1 X121.586 Y132.473 E4.11519
G1 X121.505 Y132.798 E4.13446
G1 X121.384 Y133.045 E4.15029
G1 X129.404 Y113.736 F9000.000
G1 X129.196 Y113.634 E4.16361 F2400.000
G1 X128.929 Y113.440 E4.18267
G1 X128.707 Y113.194 E4.20172
G1 X128.585 Y112.998 E4.21504
G1 X128.461 Y112.691 E4.23410
G1 X128.403 Y112.362 E4.25338
G1 X128.414 Y112.027 E4.27267
G1 X128.495 Y111.702 E4.29195
G1 X128.642 Y111.402 E4.31124
G1 X128.848 Y111.138 E4.33053
G1 X129.105 Y110.923 E4.34981
G1 X129.397 Y110.767 E4.36887
G1 X129.617 Y110.696 E4.38219
G1 X129.944 Y110.650 E4.40124 F2400.000
G1 X130.278 Y110.673 E4.42053
G1 X130.596 Y110.764 E4.43959
G1 X130.804 Y110.866 E4.45291
G1 X131.071 Y111.060 E4.47197
G1 X131.295 Y111.309 E4.49125
G1 X131.463 Y111.599 E4.51053
G1 X131.565 Y111.914 E4.52961
G1 X131.597 Y112.149 E4.54329
G1 X131.586 Y112.473 E4.56198
G1 X131.505 Y112.798 E4.58125
G1 X131.358 Y113.098 E4.60054
G1 X131.152 Y113.362 E4.61983
G1 X130.895 Y113.577 E4.63911
G1 X130.603 Y113.733 E4.65817
G1 X130.383 Y113.804 E4.67149
G1 X130.056 Y113.850 E4.69054
G1 X129.722 Y113.827 E4.70983
G1 X129.462 Y113.752 E4.72543
G1 F7200
G1 X129.196 Y113.634 E4.63344
G1 F7200
G1 X128.929 Y113.440 E4.52868
G1 F7200
G1 X128.707 Y113.194 E4.42395
G1 F7200
G1 X128.585 Y112.998 E4.35072
G1 F7200
G1 X128.461 Y112.691 E4.24599
G1 F7200
G1 X128.403 Y112.362 E4.13998
G1 F7200
G1 X128.414 Y112.027 E4.03396
G1 F7200
G1 X128.495 Y111.702 E3.92797
G1 F7200
G1 X128.642 Y111.402 E3.82199
G1 F7200
G1 X128.848 Y111.138 E3.71595
G1 F7200
G1 X129.105 Y110.923 E3.60997
G1 F7200
G1 X129.397 Y110.767 E3.50522
G1 F7200
G1 X129.617 Y110.696 E3.43198
G1 E1.72543 F2400.00000
G92 E0
G1 Z0.575 F9000.000
G1 X120.698 Y93.691 F9000.000
G1 Z0.375 F9000.000
G1 E3.00000 F2400.00000
G1 X120.387 Y93.804 E3.01906 F2400.000
G1 X120.056 Y93.850 E3.03834
G1 X119.722 Y93.827 E3.05763
G1 X119.404 Y93.736 E3.07669
G1 X119.196 Y93.634 E3.09001
G1 X118.929 Y93.440 E3.10907
G1 X118.707 Y93.194 E3.12812
G1 X118.585 Y92.998 E3.14144
G1 X118.461 Y92.691 E3.16050
G1 X118.403 Y92.362 E3.17978
G1 X118.414 Y92.027 E3.19907
G1 X118.495 Y91.702 E3.21835
G1 X118.642 Y91.401 E3.23764
G1 X118.848 Y91.138 E3.25692
G1 X119.102 Y90.925 E3.27598
G1 X119.302 Y90.809 E3.28930
G1 X119.613 Y90.696 E3.30836
G1 X119.944 Y90.650 E3.32764 F2400.000
G1 X120.278 Y90.673 E3.34693
G1 X120.600 Y90.765 E3.36621
G1 X120.886 Y90.917 E3.38490
G1 X121.074 Y91.063 E3.39857
G1 X121.293 Y91.306 E3.41742
G1 X121.415 Y91.502 E3.43074
G1 X121.539 Y91.809 E3.44979
G1 X121.597 Y92.138 E3.46908
G1 X121.586 Y92.473 E3.48837
G1 X121.505 Y92.798 E3.50765
G1 X121.358 Y93.099 E3.52694
G1 X121.152 Y93.362 E3.54622
G1 X120.898 Y93.575 E3.56528
G1 X120.750 Y93.661 E3.57514
G1 X108.004 Y105.121 F9000.000
G1 X108.217 Y105.357 E3.59344 F2400.000
G1 X108.729 Y106.023 E3.64184
G1 X109.095 Y106.567 E3.67964
G1 X109.470 Y107.215 E3.72276
G1 X109.798 Y107.888 E3.76589
G1 X110.078 Y108.582 E3.80902
G1 X110.310 Y109.294 E3.85215
G1 X110.491 Y110.020 E3.89527
G1 X110.621 Y110.757 E3.93840
G1 X110.699 Y111.502 E3.98153
G1 X110.725 Y112.250 E4.02466
G1 X110.699 Y112.998 E4.06779
G1 X110.621 Y113.743 E4.11092
G1 X110.491 Y114.480 E4.15405
G1 X110.309 Y115.207 E4.19722
G1 X110.044 Y116.004 E4.24562
G1 X109.798 Y116.612 E4.28341
G1 X109.470 Y117.285 E4.32655
G1 X109.095 Y117.933 E4.36968
G1 X108.677 Y118.554 E4.41280
G1 X108.216 Y119.144 E4.45593
G1 X107.715 Y119.700 E4.49906
G1 X107.177 Y120.220 E4.54218
G1 X106.603 Y120.701 E4.58531
G1 X105.997 Y121.142 E4.62844
G1 X105.363 Y121.538 E4.67157
G1 X104.702 Y121.890 E4.71470
G1 X104.018 Y122.194 E4.75782
G1 X103.314 Y122.450 E4.80095
G1 X102.595 Y122.657 E4.84408
G1 X101.862 Y122.812 E4.88721
G1 X101.121 Y122.916 E4.93034
G1 X100.374 Y122.969 E4.97347
G1 X99.626 Y122.969 E5.01659
G1 X98.971 Y122.923 E5.05439
G1 X98.138 Y122.812 E5.10279
G1 X97.405 Y122.657 E5.14597
G1 X96.686 Y122.450 E5.18909
G1 X95.982 Y122.194 E5.23222
G1 X95.298 Y121.890 E5.27535
G1 X94.637 Y121.538 E5.31848
G1 X94.003 Y121.142 E5.36161
G1 X93.397 Y120.701 E5.40474
G1 X92.823 Y120.220 E5.44786
G1 X92.285 Y119.700 E5.49099
G1 X91.784 Y119.144 E5.53412
G1 X91.323 Y118.554 E5.57725
G1 X90.905 Y117.933 E5.62037
G1 X90.530 Y117.285 E5.66350
G1 X90.202 Y116.612 E5.70663
G1 X89.922 Y115.918 E5.74976
G1 X89.690 Y115.206 E5.79289
G1 X89.509 Y114.480 E5.83601
G1 X89.379 Y113.743 E5.87914
G1 X89.301 Y112.998 E5.92227
G1 X89.275 Y112.250 E5.96540
G1 X89.301 Y111.502 E6.00852
