; generated by Slic3r 1.2.9 on 2016-12-26 at 10:39:11

; external perimeters extrusion width = 0.30mm
; perimeters extrusion width = 0.30mm
; infill extrusion width = 0.28mm
; solid infill extrusion width = 0.28mm
; top infill extrusion width = 0.28mm
; support material extrusion width = 0.28mm

M190 S40 ; set bed temperature
M104 S175 T1 ; set temperature
G28 ; home all axes
G1 Z5 F5000 ; lift nozzle
M109 S175 T1 ; wait for temperature to be reached
G21 ; set units to millimeters
G90 ; use absolute coordinates
M82 ; use absolute distances for extrusion
G92 E0
T1
G92 E0
G1 Z0.375 F9000.000
G1 E-3.00000 F2400.00000
G92 E0
G1 Z0.575 F9000.000
G1 X64.424 Y92.176 F9000.000
G1 Z0.375 F9000.000
G1 E3.00000 F2400.00000
G1 X64.983 Y91.806 E3.03861 F2400.000
G1 X65.413 Y91.558 E3.06718
G1 X66.012 Y91.259 E3.10578
G1 X66.546 Y91.034 E3.13917
G1 X93.513 Y80.837 E4.80010
G1 X93.985 Y80.684 E4.82869
G1 X95.347 Y80.312 E4.91002
G1 X96.731 Y80.035 E4.99138
G1 X97.639 Y79.908 E5.04416
G1 X99.046 Y79.792 E5.12552
G1 X99.542 Y79.774 E5.15410
G1 X100.954 Y79.792 E5.23545
G1 X102.361 Y79.908 E5.31681 F2400.000
G1 X103.757 Y80.121 E5.39816
G1 X105.134 Y80.432 E5.47950
G1 X106.487 Y80.837 E5.56085
G1 X133.454 Y91.034 E7.22178
G1 X133.988 Y91.259 E7.25517
G1 X134.587 Y91.558 E7.29375
G1 X135.016 Y91.806 E7.32233
G1 X135.576 Y92.176 E7.36096
G1 X136.244 Y92.698 E7.40980
G1 X136.611 Y93.029 E7.43829
G1 X137.080 Y93.506 E7.47683
G1 X137.517 Y94.017 E7.51560
G1 X138.013 Y94.700 E7.56420
G1 X138.363 Y95.271 E7.60276
G1 X138.596 Y95.710 E7.63141
G1 X138.876 Y96.323 E7.67023
G1 X139.163 Y97.111 E7.71857
G1 X139.301 Y97.592 E7.74735
G1 X139.446 Y98.246 E7.78597
G1 X139.564 Y99.085 E7.83479
G1 X139.604 Y99.751 E7.87325
G1 X139.604 Y100.249 E7.90190
G1 X139.546 Y101.089 E7.95044
G1 X139.476 Y101.582 E7.97912
G1 X139.343 Y102.239 E8.01774
G1 X139.109 Y103.055 E8.06664
G1 X138.876 Y103.677 E8.10491
G1 X138.673 Y104.133 E8.13368
G1 X138.363 Y104.729 E8.17239
G1 X137.915 Y105.445 E8.22102
G1 X137.517 Y105.983 E8.25954
G1 X137.080 Y106.494 E8.29830
G1 X136.611 Y106.971 E8.33685
G1 X136.110 Y107.414 E8.37539
G1 X135.576 Y107.824 E8.41418
G1 X135.017 Y108.194 E8.45280
G1 X134.433 Y108.524 E8.49144
G1 X133.828 Y108.812 E8.53002
G1 X106.487 Y119.163 E10.21428
G1 X105.134 Y119.568 E10.29563
G1 X103.757 Y119.879 E10.37696
G1 X102.361 Y120.092 E10.45833
G1 X100.954 Y120.208 E10.53968
G1 X99.542 Y120.226 E10.62103
G1 X98.132 Y120.144 E10.70238
G1 X96.732 Y119.965 E10.78374
G1 X96.243 Y119.879 E10.81233
G1 X94.866 Y119.568 E10.89366
G1 X93.985 Y119.316 E10.94645
G1 X92.652 Y118.849 E11.02779
G1 X66.546 Y108.966 E12.63595
G1 X66.012 Y108.741 E12.66935
G1 X65.567 Y108.524 E12.69787
G1 X64.984 Y108.194 E12.73651
G1 X64.283 Y107.721 E12.78517
G1 X63.756 Y107.302 E12.82397
G1 X63.263 Y106.850 E12.86251
G1 X62.803 Y106.364 E12.90106
G1 X62.483 Y105.983 E12.92977
G1 X62.085 Y105.445 E12.96829
G1 X61.637 Y104.730 E13.01691
G1 X61.334 Y104.148 E13.05470
G1 X61.124 Y103.677 E13.08438
G1 X60.891 Y103.054 E13.12270
G1 X60.699 Y102.408 E13.16153
G1 X60.524 Y101.582 E13.21019
G1 X60.454 Y101.089 E13.23886
G1 X60.402 Y100.423 E13.27738
G1 X60.402 Y99.577 E13.32611
G1 X60.454 Y98.911 E13.36462
G1 X60.524 Y98.418 E13.39330
G1 X60.699 Y97.591 E13.44196
G1 X60.891 Y96.946 E13.48078
G1 X61.124 Y96.323 E13.51910
G1 X61.327 Y95.867 E13.54784
G1 X61.637 Y95.270 E13.58657
G1 X62.085 Y94.555 E13.63519
G1 X62.483 Y94.017 E13.67371
G1 X62.803 Y93.636 E13.70243
G1 X63.389 Y93.029 E13.75101
G1 X63.890 Y92.586 E13.78956
G1 X64.376 Y92.211 E13.82490
G1 X64.642 Y92.475 F9000.000
G1 X65.179 Y92.120 E13.86203 F2400.000
G1 X65.586 Y91.885 E13.88912
G1 X66.163 Y91.597 E13.92623
G1 X66.677 Y91.380 E13.95841
G1 X93.639 Y81.185 E15.61907
G1 X94.087 Y81.039 E15.64616
G1 X95.423 Y80.673 E15.72601
G1 X96.783 Y80.401 E15.80588
G1 X97.690 Y80.273 E15.85867
G1 X99.072 Y80.160 E15.93854
G1 X99.542 Y80.144 E15.96563
G1 X100.928 Y80.160 E16.04549
G1 X102.310 Y80.273 E16.12537 F2400.000
G1 X103.680 Y80.483 E16.20524
G1 X105.033 Y80.787 E16.28509
G1 X106.361 Y81.185 E16.36496
G1 X133.323 Y91.380 E18.02561
G1 X133.837 Y91.597 E18.05779
G1 X134.413 Y91.884 E18.09489
G1 X134.821 Y92.120 E18.12199
G1 X135.358 Y92.475 E18.15912
G1 X136.006 Y92.981 E18.20647
G1 X136.354 Y93.295 E18.23348
G1 X136.806 Y93.753 E18.27054
G1 X137.226 Y94.245 E18.30781
G1 X137.707 Y94.907 E18.35493
G1 X138.043 Y95.455 E18.39201
G1 X138.264 Y95.872 E18.41917
G1 X138.533 Y96.461 E18.45649
G1 X138.811 Y97.226 E18.50336
G1 X138.942 Y97.681 E18.53066
G1 X139.082 Y98.310 E18.56779
G1 X139.196 Y99.124 E18.61512
G1 X139.235 Y99.764 E18.65210
G1 X139.235 Y100.236 E18.67925
G1 X139.178 Y101.051 E18.72632
G1 X139.112 Y101.518 E18.75350
G1 X138.984 Y102.150 E18.79064
G1 X138.757 Y102.941 E18.83804
G1 X138.533 Y103.539 E18.87485
G1 X138.341 Y103.971 E18.90213
G1 X138.043 Y104.545 E18.93934
G1 X137.609 Y105.239 E18.98649
G1 X137.226 Y105.755 E19.02353
G1 X136.806 Y106.247 E19.06080
G1 X136.354 Y106.705 E19.09786
G1 X135.872 Y107.131 E19.13492
G1 X135.358 Y107.525 E19.17222
G1 X134.821 Y107.880 E19.20935
G1 X134.259 Y108.197 E19.24651
G1 X133.678 Y108.474 E19.28361
G1 X106.361 Y118.815 E20.96638
G1 X105.033 Y119.213 E21.04624
G1 X103.680 Y119.517 E21.12609
G1 X103.217 Y119.599 E21.15320
G1 X101.842 Y119.776 E21.23307
G1 X100.458 Y119.856 E21.31294
G1 X99.072 Y119.840 E21.39280
G1 X98.158 Y119.776 E21.44558
G1 X96.783 Y119.599 E21.52545
G1 X96.320 Y119.517 E21.55256
G1 X94.967 Y119.213 E21.63240
G1 X94.087 Y118.961 E21.68519
G1 X92.779 Y118.502 E21.76505
G1 X66.677 Y108.620 E23.37293
G1 X66.163 Y108.403 E23.40511
G1 X65.741 Y108.197 E23.43215
G1 X65.179 Y107.880 E23.46930
G1 X64.500 Y107.423 E23.51649
G1 X63.994 Y107.019 E23.55379
G1 X63.520 Y106.584 E23.59085
G1 X63.078 Y106.117 E23.62791
G1 X62.774 Y105.755 E23.65513
G1 X62.391 Y105.239 E23.69218
G1 X61.957 Y104.545 E23.73931
G1 X61.666 Y103.986 E23.77561
G1 X61.467 Y103.539 E23.80380
G1 X61.242 Y102.940 E23.84065
G1 X61.058 Y102.319 E23.87798
G1 X60.888 Y101.518 E23.92515
G1 X60.822 Y101.051 E23.95234
G1 X60.771 Y100.410 E23.98937
G1 X60.771 Y99.590 E24.03662
G1 X60.822 Y98.949 E24.07365
G1 X60.888 Y98.482 E24.10083
G1 X61.058 Y97.681 E24.14802
G1 X61.242 Y97.060 E24.18533
G1 X61.467 Y96.461 E24.22219
G1 X61.659 Y96.029 E24.24943
G1 X61.957 Y95.455 E24.28668
G1 X62.391 Y94.761 E24.33381
G1 X62.774 Y94.245 E24.37085
G1 X63.078 Y93.883 E24.39807
G1 X63.646 Y93.295 E24.44518
G1 X64.128 Y92.869 E24.48224
G1 X64.593 Y92.510 E24.51609
G1 X64.859 Y92.774 F9000.000
G1 X65.375 Y92.433 E24.55173 F2400.000
G1 X65.760 Y92.211 E24.57734
G1 X66.313 Y91.934 E24.61296
G1 X66.808 Y91.725 E24.64393
G1 X93.766 Y81.532 E26.30431
G1 X94.189 Y81.395 E26.32992
G1 X95.500 Y81.035 E26.40829
G1 X96.834 Y80.767 E26.48668
G1 X97.742 Y80.639 E26.53946
G1 X99.098 Y80.529 E26.61784
G1 X99.542 Y80.513 E26.64345
G1 X100.902 Y80.529 E26.72183
G1 X102.258 Y80.639 E26.80022 F2400.000
G1 X103.604 Y80.844 E26.87860
G1 X104.931 Y81.142 E26.95697
G1 X106.234 Y81.532 E27.03535
G1 X133.192 Y91.725 E28.69573
G1 X133.687 Y91.934 E28.72670
G1 X134.085 Y92.129 E28.75224
G1 X134.773 Y92.526 E28.79798
G1 X135.283 Y92.876 E28.83362
G1 X135.635 Y93.152 E28.85938
G1 X136.098 Y93.561 E28.89496
G1 X136.648 Y94.131 E28.94063
G1 X136.935 Y94.472 E28.96631
G1 X137.303 Y94.968 E29.00187
G1 X137.723 Y95.640 E29.04754
G1 X138.009 Y96.191 E29.08329
G1 X138.191 Y96.599 E29.10904
G1 X138.406 Y97.174 E29.14440
G1 X138.626 Y97.940 E29.19032
G1 X138.749 Y98.546 E29.22595
G1 X138.810 Y98.988 E29.25163
G1 X138.866 Y99.777 E29.29723
G1 X138.866 Y100.223 E29.32289
G1 X138.829 Y100.839 E29.35844
G1 X138.718 Y101.626 E29.40422
G1 X138.584 Y102.230 E29.43988
G1 X138.460 Y102.660 E29.46567
G1 X138.191 Y103.401 E29.51107
G1 X137.932 Y103.966 E29.54690
G1 X137.723 Y104.360 E29.57258
G1 X137.400 Y104.887 E29.60820
G1 X137.042 Y105.390 E29.64376
G1 X136.648 Y105.870 E29.67953
G1 X136.211 Y106.330 E29.71606
G1 X135.635 Y106.848 E29.76074
G1 X135.141 Y107.226 E29.79655
G1 X134.625 Y107.567 E29.83219
G1 X134.086 Y107.871 E29.86786
G1 X133.528 Y108.137 E29.90347
G1 X106.234 Y118.468 E31.58476
G1 X104.931 Y118.858 E31.66314
G1 X103.604 Y119.156 E31.74151
G1 X103.166 Y119.233 E31.76713
G1 X101.816 Y119.407 E31.84551
G1 X100.458 Y119.487 E31.92389
G1 X99.098 Y119.471 E32.00227
G1 X98.184 Y119.407 E32.05505
G1 X96.834 Y119.233 E32.13343
G1 X96.396 Y119.156 E32.15906
G1 X95.069 Y118.858 E32.23742
G1 X93.766 Y118.468 E32.31580
G1 X92.905 Y118.155 E32.36858
G1 X66.808 Y108.275 E33.97619
G1 X66.313 Y108.066 E34.00715
G1 X65.914 Y107.871 E34.03271
G1 X65.375 Y107.567 E34.06837
G1 X64.859 Y107.226 E34.10402
G1 X64.365 Y106.848 E34.13984
G1 X63.777 Y106.318 E34.18546
G1 X63.352 Y105.870 E34.22104
G1 X63.065 Y105.528 E34.24677
G1 X62.697 Y105.032 E34.28233
G1 X62.365 Y104.511 E34.31793
G1 X61.991 Y103.809 E34.36375
G1 X61.810 Y103.401 E34.38949
G1 X61.594 Y102.826 E34.42487
G1 X61.374 Y102.060 E34.47075
G1 X61.252 Y101.454 E34.50639
G1 X61.190 Y101.012 E34.53208
G1 X61.140 Y100.397 E34.56764
G1 X61.134 Y99.777 E34.60334
G1 X61.171 Y99.161 E34.63890
G1 X61.252 Y98.546 E34.67465
G1 X61.416 Y97.770 E34.72034
G1 X61.540 Y97.340 E34.74611
G1 X61.744 Y96.761 E34.78150
G1 X62.068 Y96.034 E34.82736
G1 X62.277 Y95.640 E34.85305
G1 X62.600 Y95.113 E34.88866
G1 X62.958 Y94.610 E34.92422
G1 X63.352 Y94.130 E34.95999
G1 X63.902 Y93.561 E35.00562
G1 X64.365 Y93.152 E35.04120
G1 X64.810 Y92.809 E35.07356
G1 F7200
G1 X65.375 Y92.433 E34.85869
G1 F7200
G1 X65.760 Y92.211 E34.71795
G1 F7200
G1 X66.313 Y91.934 E34.52211
G1 F7200
G1 X66.808 Y91.725 E34.35190
G1 F7200
G1 X73.095 Y89.348 E32.22356
G1 E32.07356 F2400.00000
G92 E0
G1 Z0.575 F9000.000
G1 X104.018 Y109.944 F9000.000
G1 Z0.375 F9000.000
G1 E3.00000 F2400.00000
G1 X103.314 Y110.200 E3.04313 F2400.000
G1 X102.595 Y110.407 E3.08626
G1 X101.862 Y110.562 E3.12938
G1 X101.121 Y110.666 E3.17251
G1 X100.374 Y110.719 E3.21564
G1 X99.626 Y110.719 E3.25877
G1 X98.879 Y110.666 E3.30190
G1 X98.138 Y110.562 E3.34503
G1 X97.405 Y110.407 E3.38815
G1 X96.686 Y110.200 E3.43128
G1 X95.982 Y109.944 E3.47441
G1 X95.298 Y109.640 E3.51754
G1 X94.637 Y109.288 E3.56067
G1 X94.003 Y108.892 E3.60379
G1 X93.397 Y108.452 E3.64692
G1 X92.823 Y107.970 E3.69005
G1 X92.285 Y107.450 E3.73318
G1 X91.784 Y106.894 E3.77631
G1 X91.323 Y106.304 E3.81943
G1 X90.905 Y105.683 E3.86256
G1 X90.530 Y105.035 E3.90573
G1 X90.176 Y104.298 E3.95281
G1 X89.922 Y103.668 E3.99194
G1 X89.690 Y102.956 E4.03507
G1 X89.509 Y102.229 E4.07823
G1 X89.372 Y101.424 E4.12531
G1 X89.301 Y100.748 E4.16444
G1 X89.275 Y100.000 E4.20757
G1 X89.301 Y99.252 E4.25070
G1 X89.379 Y98.507 E4.29383
G1 X89.509 Y97.770 E4.33695
G1 X89.690 Y97.044 E4.38008
G1 X89.922 Y96.332 E4.42321
G1 X90.202 Y95.637 E4.46638
G1 X90.565 Y94.905 E4.51345
G1 X90.905 Y94.317 E4.55258
G1 X91.323 Y93.696 E4.59571
G1 X91.784 Y93.106 E4.63884
G1 X92.285 Y92.550 E4.68197
G1 X92.823 Y92.030 E4.72510
G1 X93.397 Y91.548 E4.76822
G1 X94.026 Y91.091 E4.81305
G1 X94.638 Y90.712 E4.85450
G1 X95.298 Y90.360 E4.89761
G1 X95.982 Y90.056 E4.94074
G1 X96.686 Y89.800 E4.98387
G1 X97.405 Y89.593 E5.02700
G1 X98.138 Y89.438 E5.07013
G1 X98.810 Y89.343 E5.10926
G1 X99.625 Y89.281 E5.15633
G1 X100.374 Y89.281 E5.19950 F2400.000
G1 X101.121 Y89.334 E5.24263
G1 X101.862 Y89.438 E5.28576
G1 X102.595 Y89.593 E5.32889
G1 X103.314 Y89.800 E5.37201
G1 X104.018 Y90.056 E5.41514
G1 X104.702 Y90.360 E5.45827
G1 X105.301 Y90.679 E5.49740
G1 X105.997 Y91.108 E5.54448
G1 X106.603 Y91.548 E5.58765
G1 X107.177 Y92.030 E5.63077
G1 X107.665 Y92.501 E5.66990
G1 X108.216 Y93.105 E5.71698
G1 X108.677 Y93.696 E5.76015
G1 X109.095 Y94.317 E5.80328
G1 X109.470 Y94.965 E5.84640
G1 X109.798 Y95.638 E5.88953
G1 X110.078 Y96.332 E5.93266
G1 X110.310 Y97.044 E5.97579
G1 X110.491 Y97.770 E6.01892
G1 X110.621 Y98.507 E6.06204
G1 X110.699 Y99.252 E6.10517
G1 X110.725 Y100.000 E6.14830
G1 X110.699 Y100.748 E6.19143
G1 X110.621 Y101.493 E6.23456
G1 X110.491 Y102.230 E6.27769
G1 X110.310 Y102.956 E6.32081
G1 X110.078 Y103.668 E6.36394
G1 X109.798 Y104.362 E6.40707
G1 X109.470 Y105.035 E6.45020
G1 X109.095 Y105.683 E6.49333
G1 X108.677 Y106.304 E6.53645
G1 X108.216 Y106.894 E6.57958
G1 X107.715 Y107.450 E6.62271
G1 X107.177 Y107.970 E6.66584
G1 X106.603 Y108.452 E6.70897
G1 X105.997 Y108.892 E6.75209
G1 X105.363 Y109.288 E6.79522
G1 X104.702 Y109.640 E6.83835
G1 X104.073 Y109.920 E6.87802
G1 F7200
G1 X103.314 Y110.200 E6.62201
G1 F7200
G1 X102.595 Y110.407 E6.38495
G1 F7200
G1 X101.862 Y110.562 E6.14789
G1 F7200
G1 X101.121 Y110.666 E5.91083
G1 F7200
G1 X100.374 Y110.719 E5.67377
G1 F7200
G1 X99.626 Y110.719 E5.43672
G1 F7200
G1 X98.879 Y110.666 E5.19966
G1 F7200
G1 X98.138 Y110.562 E4.96260
G1 F7200
G1 X97.405 Y110.407 E4.72554
G1 F7200
G1 X96.686 Y110.200 E4.48848
G1 F7200
G1 X95.982 Y109.944 E4.25143
G1 F7200
G1 X95.338 Y109.657 E4.02802
G1 E3.87802 F2400.00000
G92 E0
G1 Z0.575 F9000.000
G1 X128.461 Y100.441 F9000.000
G1 Z0.375 F9000.000
G1 E3.00000 F2400.00000
G1 X128.403 Y100.112 E3.01929 F2400.000
G1 X128.414 Y99.777 E3.03857
G1 X128.495 Y99.452 E3.05786
G1 X128.642 Y99.151 E3.07714
G1 X128.848 Y98.888 E3.09643
G1 X129.102 Y98.675 E3.11548
G1 X129.302 Y98.559 E3.12880
G1 X129.613 Y98.446 E3.14787
G1 X129.944 Y98.400 E3.16715 F2400.000
G1 X130.278 Y98.423 E3.18644
G1 X130.600 Y98.515 E3.20572
G1 X130.892 Y98.671 E3.22478
G1 X131.074 Y98.813 E3.23810
G1 X131.293 Y99.056 E3.25692
G1 X131.415 Y99.252 E3.27025
G1 X131.539 Y99.559 E3.28930
G1 X131.597 Y99.888 E3.30859
G1 X131.586 Y100.223 E3.32787
G1 X131.505 Y100.548 E3.34716
G1 X131.358 Y100.849 E3.36644
G1 X131.152 Y101.112 E3.38573
G1 X130.898 Y101.325 E3.40479
G1 X130.698 Y101.441 E3.41810
G1 X130.387 Y101.554 E3.43717
G1 X130.056 Y101.600 E3.45645
G1 X129.722 Y101.577 E3.47574
G1 X129.400 Y101.485 E3.49502
G1 X129.108 Y101.329 E3.51408
G1 X128.926 Y101.187 E3.52740
G1 X128.707 Y100.944 E3.54623
G1 X128.585 Y100.748 E3.55955
G1 X128.483 Y100.497 E3.57515
G1 F7200
G1 X128.403 Y100.112 E3.45049
G1 F7200
G1 X128.414 Y99.777 E3.34448
G1 F7200
G1 X128.495 Y99.452 E3.23849
G1 F7200
G1 X128.642 Y99.151 E3.13248
G1 F7200
G1 X128.848 Y98.888 E3.02647
G1 F7200
G1 X129.102 Y98.675 E2.92172
G1 F7200
G1 X129.302 Y98.559 E2.84851
G1 F7200
G1 X129.613 Y98.446 E2.74374
G1 E0.57515 F2400.00000
G92 E0
G1 Z0.575 F9000.000
G1 X71.597 Y99.888 F9000.000
G1 Z0.375 F9000.000
G1 E3.00000 F2400.00000
G1 X71.586 Y100.223 E3.01929 F2400.000
G1 X71.505 Y100.548 E3.03857
G1 X71.358 Y100.849 E3.05786
G1 X71.152 Y101.112 E3.07714
G1 X70.898 Y101.325 E3.09620
G1 X70.698 Y101.441 E3.10952
G1 X70.387 Y101.554 E3.12858
G1 X70.056 Y101.600 E3.14786
G1 X69.722 Y101.577 E3.16715
G1 X69.400 Y101.485 E3.18643
G1 X69.108 Y101.329 E3.20549
G1 X68.926 Y101.187 E3.21881
G1 X68.707 Y100.944 E3.23764
G1 X68.585 Y100.748 E3.25096
G1 X68.461 Y100.441 E3.27002
G1 X68.403 Y100.112 E3.28930
G1 X68.414 Y99.777 E3.30859
G1 X68.495 Y99.452 E3.32787
G1 X68.642 Y99.151 E3.34716
G1 X68.848 Y98.888 E3.36644
G1 X69.102 Y98.675 E3.38550
G1 X69.302 Y98.559 E3.39882
G1 X69.613 Y98.446 E3.41788
G1 X69.944 Y98.400 E3.43716 F2400.000
G1 X70.278 Y98.423 E3.45644
G1 X70.587 Y98.511 E3.47494
G1 X70.803 Y98.615 E3.48879
G1 X71.071 Y98.810 E3.50788
G1 X71.293 Y99.056 E3.52694
G1 X71.415 Y99.252 E3.54026
G1 X71.539 Y99.559 E3.55931
G1 X71.587 Y99.829 E3.57514
G1 X87.310 Y97.725 F9000.000
G1 X87.382 Y97.318 E3.59896 F2400.000
G1 X87.600 Y96.444 E3.65083
G1 X87.878 Y95.588 E3.70270
G1 X88.215 Y94.753 E3.75457
G1 X88.610 Y93.944 E3.80645
G1 X89.060 Y93.164 E3.85832
G1 X89.564 Y92.418 E3.91020
G1 X90.066 Y91.775 E3.95716
G1 X90.721 Y91.039 E4.01397
G1 X91.368 Y90.414 E4.06580
G1 X92.058 Y89.835 E4.11767
G1 X92.786 Y89.306 E4.16955
G1 X93.550 Y88.828 E4.22142
G1 X94.345 Y88.406 E4.27330
G1 X95.168 Y88.039 E4.32517
G1 X96.014 Y87.732 E4.37704
G1 X96.879 Y87.483 E4.42891
G1 X97.760 Y87.296 E4.48079
G1 X98.652 Y87.171 E4.53266
G1 X99.549 Y87.108 E4.58449
G1 X100.535 Y87.114 E4.64130
G1 X101.348 Y87.171 E4.68827
G1 X102.240 Y87.296 E4.74014
G1 X103.121 Y87.483 E4.79201
G1 X103.986 Y87.732 E4.84389
