; generated by Slic3r 1.2.9 on 2016-12-26 at 11:08:29

; external perimeters extrusion width = 0.30mm
; perimeters extrusion width = 0.30mm
; infill extrusion width = 0.28mm
; solid infill extrusion width = 0.28mm
; top infill extrusion width = 0.28mm
; support material extrusion width = 0.28mm

M190 S40 ; set bed temperature
M104 S175 T1 ; set temperature
G28 ; home all axes
G1 Z5 F5000 ; lift nozzle
M109 S175 T1 ; wait for temperature to be reached
G21 ; set units to millimeters
G90 ; use absolute coordinates
M82 ; use absolute distances for extrusion
G92 E0
T1
G92 E0
G1 Z0.375 F9000.000
G1 E-3.00000 F2400.00000
G92 E0
G1 Z0.575 F9000.000
G1 X71.436 Y72.576 F9000.000
G1 Z0.375 F9000.000
G1 E3.00000 F2400.00000
G1 X73.205 Y70.989 E3.13690 F2400.000
G1 X75.398 Y70.074 E3.27381
G1 X77.000 Y69.891 E3.36671
G1 X123.000 Y69.891 E6.01683
G1 X125.343 Y70.289 E6.15373
G1 X127.424 Y71.436 E6.29064 F2400.000
G1 X129.011 Y73.205 E6.42754
G1 X129.926 Y75.398 E6.56444
G1 X130.109 Y77.000 E6.65734
G1 X130.109 Y123.000 E9.30747
G1 X129.711 Y125.343 E9.44437
G1 X128.564 Y127.424 E9.58127
G1 X126.795 Y129.011 E9.71818
G1 X124.602 Y129.926 E9.85508
G1 X123.000 Y130.109 E9.94798
G1 X77.000 Y130.109 E12.59810
G1 X74.657 Y129.711 E12.73501
G1 X72.576 Y128.564 E12.87191
G1 X70.989 Y126.795 E13.00881
G1 X70.074 Y124.602 E13.14571
G1 X69.891 Y123.000 E13.23862
G1 X69.891 Y77.000 E15.88874
G1 X70.289 Y74.657 E16.02564
G1 X71.407 Y72.629 E16.15909
G1 X71.770 Y72.767 F9000.000
G1 X71.802 Y72.711 E16.16279 F2400.000
G1 X73.559 Y71.206 E16.29607
G1 X75.721 Y70.383 E16.42934
G1 X77.000 Y70.261 E16.50334
G1 X123.000 Y70.261 E19.15347
G1 X125.279 Y70.658 E19.28674
G1 X127.289 Y71.802 E19.42001 F2400.000
G1 X128.794 Y73.559 E19.55328
G1 X129.617 Y75.721 E19.68655
G1 X129.739 Y77.000 E19.76056
G1 X129.739 Y123.000 E22.41068
G1 X129.342 Y125.279 E22.54395
G1 X128.198 Y127.289 E22.67722
G1 X126.441 Y128.794 E22.81049
G1 X124.279 Y129.617 E22.94376
G1 X123.000 Y129.739 E23.01777
G1 X77.000 Y129.739 E25.66789
G1 X74.721 Y129.342 E25.80116
G1 X72.711 Y128.198 E25.93444
G1 X71.206 Y126.441 E26.06771
G1 X70.383 Y124.279 E26.20098
G1 X70.261 Y123.000 E26.27498
G1 X70.261 Y77.000 E28.92511
G1 X70.658 Y74.721 E29.05838
G1 X71.741 Y72.819 E29.18449
G1 X72.102 Y72.962 F9000.000
G1 X72.168 Y72.849 E29.19201 F2400.000
G1 X73.912 Y71.429 E29.32154
G1 X77.000 Y70.630 E29.50532
G1 X123.000 Y70.630 E32.15545
G1 X125.213 Y71.027 E32.28498
G1 X127.151 Y72.168 E32.41452 F2400.000
G1 X128.571 Y73.912 E32.54406
G1 X129.370 Y77.000 E32.72784
G1 X129.370 Y123.000 E35.37796
G1 X128.973 Y125.213 E35.50750
G1 X127.832 Y127.151 E35.63704
G1 X126.088 Y128.571 E35.76657
G1 X123.000 Y129.370 E35.95035
G1 X77.000 Y129.370 E38.60048
G1 X74.787 Y128.973 E38.73001
G1 X72.849 Y127.832 E38.85955
G1 X71.429 Y126.088 E38.98909
G1 X70.630 Y123.000 E39.17287
G1 X70.630 Y77.000 E41.82299
G1 X71.027 Y74.787 E41.95253
G1 X72.072 Y73.014 E42.07109
G1 F7200
G1 X72.168 Y72.849 E42.01075
G1 F7200
G1 X73.912 Y71.429 E41.29873
G1 F7200
G1 X77.000 Y70.630 E40.28857
G1 F7200
G1 X80.371 Y70.630 E39.22109
G1 E39.07109 F2400.00000
G92 E0
G1 Z0.575 F9000.000
G1 X81.505 Y120.548 F9000.000
G1 Z0.375 F9000.000
G1 E3.00000 F2400.00000
G1 X81.358 Y120.848 E3.01928 F2400.000
G1 X81.152 Y121.112 E3.03857
G1 X80.895 Y121.327 E3.05786
G1 X80.603 Y121.483 E3.07691
G1 X80.383 Y121.554 E3.09024
G1 X80.056 Y121.600 E3.10929
G1 X79.722 Y121.577 E3.12858
G1 X79.404 Y121.486 E3.14763
G1 X79.196 Y121.384 E3.16095
G1 X78.929 Y121.190 E3.18001
G1 X78.707 Y120.944 E3.19907
G1 X78.585 Y120.748 E3.21239
G1 X78.461 Y120.441 E3.23144
G1 X78.403 Y120.112 E3.25073
G1 X78.414 Y119.777 E3.27002
G1 X78.495 Y119.452 E3.28930
G1 X78.642 Y119.152 E3.30858
G1 X78.848 Y118.888 E3.32788
G1 X79.105 Y118.673 E3.34716
G1 X79.397 Y118.517 E3.36621
G1 X79.617 Y118.446 E3.37954
G1 X79.944 Y118.400 E3.39859 F2400.000
G1 X80.278 Y118.423 E3.41788
G1 X80.596 Y118.514 E3.43694
G1 X80.804 Y118.616 E3.45026
G1 X81.071 Y118.810 E3.46932
G1 X81.293 Y119.056 E3.48837
G1 X81.415 Y119.252 E3.50169
G1 X81.539 Y119.559 E3.52075
G1 X81.597 Y119.888 E3.54003
G1 X81.586 Y120.223 E3.55932
G1 X81.519 Y120.489 E3.57515
G1 X99.775 Y115.216 F9000.000
G1 X99.775 Y113.767 E3.65865 F2400.000
G1 X100.481 Y113.767 E3.69931
G1 X101.440 Y113.699 E3.75470
G1 X102.392 Y113.566 E3.81009
G1 X103.332 Y113.366 E3.86548
G1 X104.257 Y113.101 E3.92087
G1 X105.160 Y112.772 E3.97627
G1 X106.039 Y112.381 E4.03166
G1 X106.887 Y111.929 E4.08705
G1 X107.703 Y111.420 E4.14244
G1 X108.479 Y110.856 E4.19770
G1 X109.217 Y110.237 E4.25323
G1 X109.909 Y109.569 E4.30862
G1 X110.552 Y108.854 E4.36401
G1 X111.144 Y108.097 E4.41940
G1 X111.682 Y107.300 E4.47479
G1 X112.163 Y106.467 E4.53018
G1 X112.584 Y105.603 E4.58557
G1 X112.944 Y104.711 E4.64097
G1 X113.241 Y103.797 E4.69636
G1 X113.371 Y103.275 E4.72734
G1 X119.775 Y103.275 E5.09626
G1 X119.775 Y100.725 E5.24317
G1 X111.204 Y100.725 E5.73697
G1 X111.116 Y101.562 E5.78547
G1 X110.980 Y102.334 E5.83061
G1 X110.790 Y103.094 E5.87574
G1 X110.548 Y103.839 E5.92088
G1 X110.255 Y104.566 E5.96602
G1 X109.911 Y105.270 E6.01116
G1 X109.519 Y105.948 E6.05630
G1 X109.081 Y106.598 E6.10144
G1 X108.599 Y107.215 E6.14658
G1 X108.075 Y107.798 E6.19171
G1 X107.511 Y108.342 E6.23685
G1 X106.911 Y108.846 E6.28199
G1 X106.277 Y109.306 E6.32713
G1 X105.613 Y109.721 E6.37227
G1 X104.921 Y110.089 E6.41741
G1 X104.205 Y110.408 E6.46255
G1 X103.469 Y110.676 E6.50768
G1 X102.716 Y110.892 E6.55282
G1 X101.949 Y111.055 E6.59796
G1 X101.173 Y111.164 E6.64310
G1 X100.392 Y111.218 E6.68824
G1 X99.608 Y111.218 E6.73338
G1 X98.827 Y111.164 E6.77852
G1 X98.051 Y111.055 E6.82366
G1 X97.287 Y110.892 E6.86866
G1 X96.531 Y110.676 E6.91393
G1 X95.795 Y110.408 E6.95907
G1 X95.079 Y110.089 E7.00421
G1 X94.387 Y109.721 E7.04935
G1 X93.723 Y109.306 E7.09449
G1 X93.089 Y108.846 E7.13963
G1 X92.489 Y108.342 E7.18477
G1 X91.925 Y107.798 E7.22991
G1 X91.401 Y107.215 E7.27504
G1 X90.919 Y106.598 E7.32018
G1 X90.481 Y105.948 E7.36532
G1 X90.089 Y105.270 E7.41046
G1 X89.744 Y104.564 E7.45573
G1 X89.452 Y103.839 E7.50074
G1 X89.210 Y103.094 E7.54588
G1 X89.020 Y102.334 E7.59101
G1 X88.884 Y101.562 E7.63615
G1 X88.802 Y100.783 E7.68129
G1 X88.775 Y100.000 E7.72643
G1 X88.802 Y99.217 E7.77157
G1 X88.884 Y98.438 E7.81671
G1 X89.020 Y97.666 E7.86185
G1 X89.210 Y96.906 E7.90698
G1 X89.452 Y96.161 E7.95212
G1 X89.745 Y95.434 E7.99726
G1 X90.089 Y94.730 E8.04240
G1 X90.481 Y94.052 E8.08754
G1 X90.919 Y93.402 E8.13268
G1 X91.401 Y92.785 E8.17782
G1 X91.925 Y92.202 E8.22296
G1 X92.489 Y91.658 E8.26809
G1 X93.089 Y91.154 E8.31323
G1 X93.723 Y90.694 E8.35837
G1 X94.387 Y90.279 E8.40351
G1 X95.079 Y89.911 E8.44865
G1 X95.795 Y89.592 E8.49379
G1 X96.529 Y89.325 E8.53879
G1 X97.284 Y89.108 E8.58406
G1 X98.051 Y88.945 E8.62920
G1 X98.827 Y88.836 E8.67434
G1 X99.608 Y88.782 E8.71948
G1 X100.392 Y88.782 E8.76462
G1 X101.173 Y88.836 E8.80976
G1 X101.949 Y88.945 E8.85490
G1 X102.716 Y89.108 E8.90003
G1 X103.469 Y89.324 E8.94518
G1 X104.205 Y89.592 E8.99031
G1 X104.921 Y89.911 E9.03545
G1 X105.613 Y90.279 E9.08059
G1 X106.277 Y90.694 E9.12573
G1 X106.911 Y91.154 E9.17087
G1 X107.511 Y91.658 E9.21601
G1 X108.075 Y92.202 E9.26114
G1 X108.599 Y92.785 E9.30628
G1 X109.081 Y93.402 E9.35142
G1 X109.519 Y94.052 E9.39656
G1 X109.911 Y94.730 E9.44170
G1 X110.255 Y95.434 E9.48684
G1 X110.548 Y96.161 E9.53198
G1 X110.790 Y96.906 E9.57712
G1 X110.980 Y97.666 E9.62225
G1 X111.116 Y98.438 E9.66739
G1 X111.204 Y99.275 E9.71589
G1 X121.225 Y99.275 E10.29322
G1 X121.225 Y104.725 E10.60721
G1 X114.464 Y104.725 E10.99673
G1 X114.307 Y105.207 E11.02595
G1 X113.909 Y106.193 E11.08717
G1 X113.443 Y107.148 E11.14840
G1 X112.912 Y108.068 E11.20962
G1 X112.317 Y108.949 E11.27084
G1 X111.663 Y109.787 E11.33207
G1 X110.952 Y110.576 E11.39329
G1 X110.188 Y111.315 E11.45452
G1 X109.374 Y111.998 E11.51574
G1 X108.514 Y112.622 E11.57697
G1 X107.613 Y113.185 E11.63819
G1 X106.674 Y113.684 E11.69941
G1 X105.703 Y114.117 E11.76064
G1 X104.705 Y114.480 E11.82186
G1 X103.683 Y114.773 E11.88308
G1 X102.644 Y114.994 E11.94430
G1 X101.591 Y115.142 E12.00553
G1 X100.531 Y115.216 E12.06675
G1 X99.835 Y115.216 E12.10687
G1 F7200
G1 X99.775 Y113.767 E11.64750
G1 F7200
G1 X100.481 Y113.767 E11.42402
G1 F7200
G1 X101.440 Y113.699 E11.11955
G1 F7200
G1 X102.392 Y113.566 E10.81509
G1 F7200
G1 X103.332 Y113.366 E10.51061
G1 F7200
G1 X104.257 Y113.101 E10.20615
G1 F7200
G1 X105.160 Y112.772 E9.90169
G1 F7200
G1 X106.039 Y112.381 E9.59722
G1 F7200
G1 X106.887 Y111.929 E9.29276
G1 F7200
G1 X106.984 Y111.869 E9.25687
G1 E9.10687 F2400.00000
G92 E0
G1 Z0.575 F9000.000
G1 X80.895 Y81.327 F9000.000
G1 Z0.375 F9000.000
G1 E3.00000 F2400.00000
G1 X80.603 Y81.483 E3.01906 F2400.000
G1 X80.383 Y81.554 E3.03238
G1 X80.056 Y81.600 E3.05144
G1 X79.722 Y81.577 E3.07072
G1 X79.404 Y81.486 E3.08978
G1 X79.196 Y81.384 E3.10310
G1 X78.929 Y81.190 E3.12216
G1 X78.707 Y80.944 E3.14121
G1 X78.585 Y80.748 E3.15454
G1 X78.461 Y80.441 E3.17359
G1 X78.403 Y80.112 E3.19288
G1 X78.414 Y79.777 E3.21216
G1 X78.495 Y79.452 E3.23145
G1 X78.642 Y79.152 E3.25073
G1 X78.848 Y78.888 E3.27002
G1 X79.105 Y78.673 E3.28930
G1 X79.397 Y78.517 E3.30836
G1 X79.617 Y78.446 E3.32168
G1 X79.944 Y78.400 E3.34074 F2400.000
G1 X80.278 Y78.423 E3.36003
G1 X80.596 Y78.514 E3.37908
G1 X80.804 Y78.616 E3.39240
G1 X81.071 Y78.810 E3.41146
G1 X81.293 Y79.056 E3.43051
G1 X81.415 Y79.252 E3.44384
G1 X81.539 Y79.559 E3.46289
G1 X81.597 Y79.888 E3.48218
G1 X81.586 Y80.223 E3.50147
G1 X81.505 Y80.548 E3.52075
G1 X81.358 Y80.848 E3.54003
G1 X81.152 Y81.112 E3.55932
G1 X80.941 Y81.289 E3.57515
G1 X118.403 Y80.112 F9000.000
G1 X118.414 Y79.777 E3.59444 F2400.000
G1 X118.495 Y79.452 E3.61372
G1 X118.642 Y79.152 E3.63300
G1 X118.848 Y78.888 E3.65229
G1 X119.105 Y78.673 E3.67157
G1 X119.397 Y78.517 E3.69068
G1 X119.679 Y78.428 E3.70772
G1 X119.948 Y78.400 E3.72329 F2400.000
G1 X120.278 Y78.423 E3.74234
G1 X120.596 Y78.514 E3.76139
G1 X120.804 Y78.616 E3.77471
G1 X121.071 Y78.810 E3.79377
G1 X121.293 Y79.056 E3.81283
G1 X121.415 Y79.252 E3.82615
G1 X121.539 Y79.559 E3.84520
G1 X121.597 Y79.888 E3.86449
G1 X121.586 Y80.223 E3.88378
G1 X121.505 Y80.548 E3.90306
G1 X121.358 Y80.848 E3.92234
G1 X121.152 Y81.112 E3.94163
G1 X120.895 Y81.327 E3.96092
G1 X120.603 Y81.483 E3.97997
G1 X120.383 Y81.554 E3.99330
G1 X120.056 Y81.600 E4.01235
G1 X119.722 Y81.577 E4.03164
G1 X119.404 Y81.486 E4.05070
G1 X119.196 Y81.384 E4.06402
G1 X118.929 Y81.190 E4.08308
G1 X118.707 Y80.944 E4.10213
G1 X118.585 Y80.748 E4.11545
G1 X118.461 Y80.441 E4.13451
G1 X118.413 Y80.171 E4.15034
G1 F7200
G1 X118.414 Y79.777 E4.02567
G1 F7200
G1 X118.495 Y79.452 E3.91968
G1 F7200
G1 X118.642 Y79.152 E3.81370
G1 F7200
G1 X118.848 Y78.888 E3.70766
G1 F7200
G1 X119.105 Y78.673 E3.60167
G1 F7200
G1 X119.397 Y78.517 E3.49663
G1 F7200
G1 X119.679 Y78.428 E3.40300
G1 E1.15034 F2400.00000
G92 E0
G1 Z0.575 F9000.000
G1 X119.944 Y118.400 F9000.000
G1 Z0.375 F9000.000
G1 E3.00000 F2400.00000
G1 X120.278 Y118.423 E3.01929 F2400.000
G1 X120.596 Y118.514 E3.03834
G1 X120.804 Y118.616 E3.05166
G1 X121.071 Y118.810 E3.07072
G1 X121.293 Y119.056 E3.08978
G1 X121.415 Y119.252 E3.10310
G1 X121.539 Y119.559 E3.12215
G1 X121.597 Y119.888 E3.14144
G1 X121.586 Y120.223 E3.16073
G1 X121.505 Y120.548 E3.18001
G1 X121.358 Y120.848 E3.19929
G1 X121.152 Y121.112 E3.21858
G1 X120.895 Y121.327 E3.23787
G1 X120.603 Y121.483 E3.25692
G1 X120.383 Y121.554 E3.27025
G1 X120.056 Y121.600 E3.28930
G1 X119.722 Y121.577 E3.30859
G1 X119.404 Y121.486 E3.32764
G1 X119.196 Y121.384 E3.34096
G1 X118.929 Y121.190 E3.36003
G1 X118.707 Y120.944 E3.37908
G1 X118.585 Y120.748 E3.39240
G1 X118.461 Y120.441 E3.41146
G1 X118.403 Y120.112 E3.43074
G1 X118.414 Y119.777 E3.45003
G1 X118.495 Y119.452 E3.46931
G1 X118.642 Y119.152 E3.48859
G1 X118.848 Y118.888 E3.50789
G1 X119.105 Y118.673 E3.52717
G1 X119.397 Y118.517 E3.54623
G1 X119.617 Y118.446 E3.55955
G1 X119.885 Y118.408 E3.57515 F2400.000
G1 F7200
G1 X120.278 Y118.423 E3.45048
G1 F7200
G1 X120.596 Y118.514 E3.34575
G1 F7200
G1 X120.804 Y118.616 E3.27253
G1 F7200
G1 X121.071 Y118.810 E3.16776
G1 F7200
G1 X121.293 Y119.056 E3.06304
G1 F7200
G1 X121.415 Y119.252 E2.98980
G1 F7200
G1 X121.539 Y119.559 E2.88507
G1 F7200
G1 X121.597 Y119.888 E2.77906
G1 F7200
G1 X121.586 Y120.223 E2.67304
G1 F7200
G1 X121.505 Y120.548 E2.56705
G1 F7200
G1 X121.358 Y120.848 E2.46107
G1 F7200
G1 X121.152 Y121.112 E2.35503
G1 F7200
G1 X120.895 Y121.327 E2.24905
G1 F7200
G1 X120.603 Y121.483 E2.14430
G1 F7200
G1 X120.383 Y121.554 E2.07106
G1 F7200
G1 X120.056 Y121.600 E1.96632
G1 F7200
G1 X119.722 Y121.577 E1.86031
G1 F7200
G1 X119.404 Y121.486 E1.75557
G1 F7200
G1 X119.196 Y121.384 E1.68235
G1 F7200
G1 X118.929 Y121.190 E1.57759
G1 F7200
G1 X118.707 Y120.944 E1.47286
G1 F7200
G1 X118.585 Y120.748 E1.39963
G1 F7200
G1 X118.461 Y120.441 E1.29490
G1 F7200
G1 X118.403 Y120.112 E1.18888
G1 F7200
G1 X118.414 Y119.777 E1.08287
G1 F7200
G1 X118.495 Y119.452 E0.97688
G1 F7200
G1 X118.642 Y119.152 E0.87089
G1 F7200
G1 X118.848 Y118.888 E0.76485
G1 F7200
G1 X118.944 Y118.807 E0.72515
G1 E0.57515 F2400.00000
G92 E0
G1 Z0.575 F9000.000
G1 X122.775 Y122.775 F9000.000
G1 Z0.375 F9000.000
G1 E3.00000 F2400.00000
G1 X77.225 Y122.775 E5.62420 F2400.000
G1 X77.225 Y77.225 E8.24840
G1 X122.775 Y77.225 E10.87260
G1 X122.775 Y122.715 E13.49334
G1 X121.733 Y119.369 F9000.000
G1 X122.559 Y120.195 E13.56104 F2400.000
G1 X122.559 Y120.720 E13.59147
G1 X121.808 Y119.969 E13.65304
G1 X121.740 Y120.427 E13.67984
G1 X122.559 Y121.246 E13.74695
G1 X122.559 Y121.771 E13.77738
G1 X121.591 Y120.803 E13.85672
G1 X121.381 Y121.118 E13.87866
G1 X122.559 Y122.297 E13.97520
G1 X122.297 Y122.559 E13.99672
G1 X121.118 Y121.381 E14.09327
G1 X120.802 Y121.590 E14.11523
G1 X121.771 Y122.559 E14.19461
G1 X121.246 Y122.559 E14.22505
G1 X120.431 Y121.744 E14.29181
G1 X119.978 Y121.817 E14.31838
G1 X120.720 Y122.559 E14.37921
G1 X120.195 Y122.559 E14.40964
G1 X119.358 Y121.723 E14.47817
G1 F7200
G1 X120.195 Y122.559 E14.10350
G1 F7200
G1 X120.720 Y122.559 E13.93712
G1 F7200
G1 X119.978 Y121.817 E13.60457
G1 F7200
G1 X120.431 Y121.744 E13.45932
G1 F7200
G1 X121.246 Y122.559 E13.09430
G1 F7200
G1 X121.771 Y122.559 E12.92793
G1 F7200
G1 X120.802 Y121.590 E12.49390
G1 F7200
G1 X121.118 Y121.381 E12.37387
G1 F7200
G1 X122.297 Y122.559 E11.84599
G1 F7200
G1 X122.559 Y122.297 E11.72835
G1 F7200
G1 X122.336 Y122.073 E11.62817
G1 E11.47817 F2400.00000
G92 E0
G1 Z0.575 F9000.000
G1 X119.559 Y101.433 F9000.000
G1 Z0.375 F9000.000
G1 E3.00000 F2400.00000
G1 X119.067 Y100.941 E3.04033 F2400.000
G1 X118.542 Y100.941 E3.07076
G1 X119.559 Y101.958 E3.15412
G1 X119.559 Y102.484 E3.18455
G1 X118.016 Y100.941 E3.31095
G1 X117.491 Y100.941 E3.34139
G1 X119.559 Y103.009 E3.51082
G1 X119.084 Y103.059 E3.53850
G1 X116.965 Y100.941 E3.71205
G1 X116.440 Y100.941 E3.74248
G1 X118.559 Y103.059 E3.91603
G1 X118.033 Y103.059 E3.94646
G1 X115.915 Y100.941 E4.12000
G1 X115.389 Y100.941 E4.15044
G1 X117.508 Y103.059 E4.32398
G1 X116.982 Y103.059 E4.35441
G1 X114.864 Y100.941 E4.52796
G1 X114.338 Y100.941 E4.55839
G1 X116.457 Y103.059 E4.73193
G1 X115.932 Y103.059 E4.76237
G1 X113.813 Y100.941 E4.93591
G1 X113.288 Y100.941 E4.96634
G1 X115.406 Y103.059 E5.13989
G1 X114.881 Y103.059 E5.17032
G1 X112.762 Y100.941 E5.34386
G1 X112.237 Y100.941 E5.37430
G1 X114.355 Y103.059 E5.54784
G1 X113.830 Y103.059 E5.57827
G1 X111.711 Y100.941 E5.75182
G1 X111.371 Y101.126 E5.77426
G1 X113.305 Y103.059 E5.93267
G1 X113.132 Y103.412 E5.95542
G1 X111.316 Y101.596 E6.10416
G1 X111.237 Y102.043 E6.13043
G1 X113.025 Y103.830 E6.27685
G1 X112.896 Y104.227 E6.30100
G1 X111.149 Y102.480 E6.44415
G1 X111.044 Y102.900 E6.46925
G1 X112.767 Y104.624 E6.61043
G1 X112.620 Y105.001 E6.63392
G1 X110.926 Y103.308 E6.77265
G1 X110.797 Y103.704 E6.79680
G1 X112.469 Y105.376 E6.93370
G1 X112.307 Y105.739 E6.95675
G1 X110.655 Y104.087 E7.09206
G1 X110.504 Y104.462 E7.11544
G1 X112.135 Y106.092 E7.24902
G1 X111.960 Y106.443 E7.27172
G1 X110.340 Y104.823 E7.40445
