; generated by Slic3r 1.2.9 on 2017-01-10 at 10:28:29

; external perimeters extrusion width = 0.28mm
; perimeters extrusion width = 0.27mm
; infill extrusion width = 0.25mm
; solid infill extrusion width = 0.25mm
; top infill extrusion width = 0.25mm
; support material extrusion width = 0.25mm

M190 S40 ; set bed temperature
M104 S175 T1 ; set temperature
G28 ; home all axes
G1 Z5 F5000 ; lift nozzle
M109 S175 T1 ; wait for temperature to be reached
G21 ; set units to millimeters
G90 ; use absolute coordinates
M82 ; use absolute distances for extrusion
G92 E0
T1
G92 E0
G1 Z0.338 F9000.000
G1 E-3.00000 F2400.00000
G92 E0
G1 Z0.538 F9000.000
G1 X24.546 Y18.116 F9000.000
G1 Z0.338 F9000.000
G1 E3.00000 F2400.00000
G1 X26.311 Y16.554 E3.11002 F2400.000
G1 X28.495 Y15.666 E3.22003
G1 X30.000 Y15.502 E3.29066
G1 X170.000 Y15.502 E9.82379
G1 X172.324 Y15.899 E9.93381
G1 X174.384 Y17.046 E10.04383 F2400.000
G1 X175.946 Y18.811 E10.15384
G1 X176.834 Y20.995 E10.26386
G1 X176.998 Y22.500 E10.33449
G1 X176.998 Y177.500 E17.56760
G1 X176.601 Y179.824 E17.67762
G1 X175.454 Y181.884 E17.78763
G1 X173.689 Y183.446 E17.89765
G1 X171.505 Y184.334 E18.00767
G1 X170.000 Y184.498 E18.07830
G1 X30.000 Y184.498 E24.61143
G1 X27.676 Y184.101 E24.72144
G1 X25.616 Y182.954 E24.83146
G1 X24.054 Y181.189 E24.94148
G1 X23.166 Y179.005 E25.05150
G1 X23.002 Y177.500 E25.12212
G1 X23.002 Y22.500 E32.35523
G1 X23.399 Y20.176 E32.46525
G1 X24.517 Y18.168 E32.57247
G1 X24.847 Y18.288 F9000.000
G1 X24.876 Y18.238 E32.57518 F2400.000
G1 X26.630 Y16.750 E32.68253
G1 X28.785 Y15.946 E32.78988
G1 X30.000 Y15.835 E32.84680
G1 X170.000 Y15.835 E39.37993
G1 X172.266 Y16.232 E39.48728
G1 X174.262 Y17.376 E39.59463 F2400.000
G1 X175.750 Y19.130 E39.70198
G1 X176.554 Y21.285 E39.80934
G1 X176.665 Y22.500 E39.86626
G1 X176.665 Y177.500 E47.09936
G1 X176.268 Y179.766 E47.20672
G1 X175.124 Y181.762 E47.31407
G1 X173.370 Y183.250 E47.42142
G1 X171.215 Y184.054 E47.52877
G1 X170.000 Y184.165 E47.58569
G1 X30.000 Y184.165 E54.11882
G1 X27.734 Y183.768 E54.22617
G1 X25.738 Y182.624 E54.33352
G1 X24.250 Y180.870 E54.44088
G1 X23.446 Y178.715 E54.54823
G1 X23.335 Y177.500 E54.60515
G1 X23.335 Y22.500 E61.83826
G1 X23.732 Y20.234 E61.94561
G1 X24.817 Y18.340 E62.04745
G1 X25.145 Y18.465 F9000.000
G1 X25.205 Y18.364 E62.05294 F2400.000
G1 X26.947 Y16.952 E62.15756
G1 X30.000 Y16.167 E62.30467
G1 X170.000 Y16.167 E68.83780
G1 X172.206 Y16.564 E68.94241
G1 X174.136 Y17.705 E69.04703 F2400.000
G1 X175.548 Y19.447 E69.15165
G1 X176.333 Y22.500 E69.29876
G1 X176.333 Y177.500 E76.53187
G1 X175.936 Y179.706 E76.63649
G1 X174.795 Y181.636 E76.74110
G1 X173.053 Y183.048 E76.84572
G1 X170.000 Y183.833 E76.99283
G1 X30.000 Y183.833 E83.52596
G1 X27.794 Y183.436 E83.63058
G1 X25.864 Y182.295 E83.73520
G1 X24.452 Y180.553 E83.83981
G1 X23.667 Y177.500 E83.98692
G1 X23.667 Y22.500 E91.22003
G1 X24.064 Y20.294 E91.32465
G1 X25.115 Y18.517 E91.42098
G1 F7200
G1 X25.205 Y18.364 E91.36472
G1 F7200
G1 X26.947 Y16.952 E90.65479
G1 F7200
G1 X30.000 Y16.167 E89.65653
G1 F7200
G1 X33.428 Y16.167 E88.57098
G1 E88.42098 F2400.00000
G92 E0
G1 Z0.538 F9000.000
G1 X47.270 Y138.945 F9000.000
G1 Z0.338 F9000.000
G1 E3.00000 F2400.00000
G1 X47.491 Y139.000 E3.01060 F2400.000
G1 X47.789 Y139.133 E3.02585
G1 X48.053 Y139.325 E3.04108
G1 X48.211 Y139.488 E3.05168
G1 X48.394 Y139.758 E3.06691
G1 X48.517 Y140.065 E3.08233
G1 X48.574 Y140.386 E3.09756
G1 X48.574 Y140.614 E3.10817
G1 X48.517 Y140.935 E3.12340
G1 X48.394 Y141.242 E3.13882
G1 X48.209 Y141.515 E3.15421
G1 X47.972 Y141.744 E3.16962
G1 X47.692 Y141.919 E3.18502
G1 X47.382 Y142.032 E3.20042
G1 X47.055 Y142.077 E3.21581
G1 X46.730 Y142.055 E3.23104
G1 X46.509 Y142.000 E3.24164
G1 X46.211 Y141.867 E3.25688
G1 X45.944 Y141.673 E3.27229
G1 X45.723 Y141.428 E3.28770
G1 X45.558 Y141.142 E3.30310
G1 X45.456 Y140.828 E3.31848
G1 X45.421 Y140.500 E3.33389
G1 X45.455 Y140.175 E3.34913
G1 X45.518 Y139.957 E3.35971
G1 X45.661 Y139.663 E3.37498
G1 X45.862 Y139.406 E3.39019
G1 X46.031 Y139.254 E3.40081
G1 X46.308 Y139.081 E3.41605
G1 X46.618 Y138.968 E3.43145
G1 X46.945 Y138.923 E3.44684 F2400.000
G1 X47.211 Y138.941 E3.45926
G1 X36.575 Y140.396 F9000.000
G1 X36.563 Y140.719 E3.47439 F2400.000
G1 X36.484 Y141.036 E3.48961
G1 X36.392 Y141.244 E3.50025
G1 X36.209 Y141.515 E3.51548
G1 X35.972 Y141.744 E3.53089
G1 X35.692 Y141.919 E3.54629
G1 X35.382 Y142.032 E3.56168
G1 X35.055 Y142.077 E3.57708
G1 X34.730 Y142.055 E3.59230
G1 X34.509 Y142.000 E3.60290
G1 X34.211 Y141.867 E3.61815
G1 X33.947 Y141.675 E3.63338
G1 X33.789 Y141.512 E3.64398
G1 X33.606 Y141.242 E3.65921
G1 X33.482 Y140.935 E3.67464
G1 X33.425 Y140.604 E3.69029
G1 X33.437 Y140.281 E3.70542
G1 X33.516 Y139.964 E3.72064
G1 X33.608 Y139.756 E3.73128
G1 X33.791 Y139.485 E3.74651
G1 X34.028 Y139.256 E3.76192
G1 X34.308 Y139.081 E3.77732
G1 X34.618 Y138.968 E3.79271
G1 X34.945 Y138.923 E3.80811 F2400.000
G1 X35.270 Y138.945 E3.82333
G1 X35.491 Y139.000 E3.83393
G1 X35.789 Y139.133 E3.84918
G1 X36.053 Y139.325 E3.86441
G1 X36.211 Y139.488 E3.87502
G1 X36.394 Y139.758 E3.89024
G1 X36.518 Y140.065 E3.90568
G1 X36.565 Y140.336 E3.91853
G1 X48.515 Y125.823 F9000.000
G1 X48.403 Y125.707 E3.92604 F2400.000
G1 X48.277 Y125.521 E3.93649
G1 X48.213 Y125.377 E3.94385
G1 X48.170 Y125.226 E3.95120
G1 X48.146 Y124.996 E3.96196
G1 X48.188 Y124.695 E3.97615
G1 X48.313 Y124.418 E3.99032
G1 X48.407 Y124.288 E3.99786
G1 X48.571 Y124.131 E4.00843
G1 X48.763 Y124.010 E4.01903
G1 X48.916 Y123.948 E4.02672
G1 X49.201 Y123.899 E4.04023
G1 X50.799 Y123.899 E4.11479 F2400.000
G1 X51.088 Y123.949 E4.12847
G1 X51.302 Y124.045 E4.13941
G1 X51.485 Y124.177 E4.14998
G1 X51.597 Y124.293 E4.15749
G1 X51.725 Y124.482 E4.16812
G1 X51.812 Y124.700 E4.17908
G1 X51.851 Y124.923 E4.18965
G1 X51.843 Y125.153 E4.20041
G1 X51.787 Y125.378 E4.21119
G1 X51.686 Y125.585 E4.22196
G1 X51.544 Y125.766 E4.23271
G1 X51.364 Y125.917 E4.24364
G1 X51.095 Y126.049 E4.25766
G1 X50.866 Y126.097 E4.26858
G1 X49.201 Y126.102 E4.34625
G1 X48.912 Y126.051 E4.35994
G1 X48.698 Y125.955 E4.37088
G1 X48.563 Y125.858 E4.37865
G1 F7200
G1 X48.403 Y125.707 E4.30889
G1 F7200
G1 X48.277 Y125.521 E4.23797
G1 F7200
G1 X48.213 Y125.377 E4.18800
G1 F7200
G1 X48.170 Y125.226 E4.13811
G1 F7200
G1 X48.146 Y124.996 E4.06510
G1 F7200
G1 X48.188 Y124.695 E3.96883
G1 F7200
G1 X48.313 Y124.418 E3.87264
G1 F7200
G1 X48.407 Y124.288 E3.82153
G1 F7200
G1 X48.571 Y124.131 E3.74977
G1 F7200
G1 X48.763 Y124.010 E3.67785
G1 F7200
G1 X48.916 Y123.948 E3.62565
G1 F7200
G1 X49.201 Y123.899 E3.53401
G1 E1.37865 F2400.00000
G92 E0
G1 Z0.538 F9000.000
G1 X49.009 Y123.040 F9000.000
G1 Z0.338 F9000.000
G1 E3.00000 F2400.00000
G1 X48.538 Y122.941 E3.02243 F2400.000
G1 X48.098 Y122.745 E3.04490
G1 X47.709 Y122.462 E3.06739
G1 X47.389 Y122.107 E3.08970
G1 X47.217 Y121.831 E3.10485
G1 X47.086 Y121.538 E3.11985
G1 X46.997 Y121.229 E3.13484
G1 X46.953 Y120.911 E3.14984
G1 X46.953 Y120.589 E3.16483
G1 X46.997 Y120.271 E3.17982
G1 X47.086 Y119.962 E3.19481
G1 X47.218 Y119.666 E3.20998
G1 X47.483 Y119.272 E3.23212
G1 X47.709 Y119.039 E3.24728
G1 X47.962 Y118.841 E3.26227
G1 X48.240 Y118.680 E3.27726
G1 X48.538 Y118.560 E3.29226
G1 X48.850 Y118.482 E3.30725
G1 X49.166 Y118.449 E3.32208
G1 X50.837 Y118.449 E3.40007 F2400.000
G1 X51.307 Y118.515 E3.42221
G1 X51.756 Y118.678 E3.44452
G1 X52.041 Y118.842 E3.45984
G1 X52.398 Y119.141 E3.48158
G1 X52.613 Y119.396 E3.49713
G1 X52.785 Y119.672 E3.51230
G1 X52.964 Y120.115 E3.53461
G1 X53.048 Y120.589 E3.55708
G1 X53.031 Y121.071 E3.57956
G1 X52.916 Y121.534 E3.60186
G1 X52.782 Y121.834 E3.61719
G1 X52.515 Y122.231 E3.63950
G1 X52.171 Y122.563 E3.66180
G1 X51.901 Y122.745 E3.67697
G1 X51.609 Y122.887 E3.69213
G1 X51.154 Y123.017 E3.71425
G1 X50.833 Y123.052 E3.72928
G1 X49.069 Y123.041 E3.81163
G1 F7200
G1 X48.538 Y122.941 E3.64074
G1 F7200
G1 X48.098 Y122.745 E3.48826
G1 F7200
G1 X47.709 Y122.462 E3.33564
G1 F7200
G1 X47.389 Y122.107 E3.18430
G1 F7200
G1 X47.217 Y121.831 E3.08145
G1 F7200
G1 X47.086 Y121.538 E2.97967
G1 F7200
G1 X46.997 Y121.229 E2.87794
G1 F7200
G1 X46.953 Y120.911 E2.77621
G1 F7200
G1 X46.953 Y120.589 E2.67445
G1 F7200
G1 X46.997 Y120.271 E2.57272
G1 F7200
G1 X47.086 Y119.962 E2.47099
G1 F7200
G1 X47.218 Y119.666 E2.36810
G1 F7200
G1 X47.483 Y119.272 E2.21785
G1 F7200
G1 X47.709 Y119.039 E2.11499
G1 F7200
G1 X47.962 Y118.841 E2.01324
G1 F7200
G1 X48.240 Y118.680 E1.91149
G1 F7200
G1 X48.538 Y118.560 E1.80974
G1 F7200
G1 X48.850 Y118.482 E1.70802
G1 F7200
G1 X49.166 Y118.449 E1.60739
G1 E0.81163 F2400.00000
G92 E0
G1 Z0.538 F9000.000
G1 X49.205 Y117.602 F9000.000
G1 Z0.338 F9000.000
G1 E3.00000 F2400.00000
G1 X48.979 Y117.570 E3.01061 F2400.000
G1 X48.698 Y117.456 E3.02479
G1 X48.461 Y117.271 E3.03882
G1 X48.353 Y117.142 E3.04667
G1 X48.243 Y116.952 E3.05694
G1 X48.188 Y116.797 E3.06461
G1 X48.150 Y116.580 E3.07487
G1 X48.150 Y116.419 E3.08238
G1 X48.189 Y116.196 E3.09298
G1 X48.274 Y115.985 E3.10357
G1 X48.361 Y115.846 E3.11126
G1 X48.570 Y115.630 E3.12526
G1 X48.830 Y115.479 E3.13928
G1 X48.987 Y115.429 E3.14696
G1 X49.204 Y115.398 E3.15722
G1 X50.796 Y115.398 E3.23147 F2400.000
G1 X51.021 Y115.430 E3.24208
G1 X51.299 Y115.542 E3.25609
G1 X51.488 Y115.680 E3.26702
G1 X51.643 Y115.851 E3.27778
G1 X51.757 Y116.048 E3.28840
G1 X51.812 Y116.203 E3.29608
G1 X51.851 Y116.423 E3.30650
G1 X51.843 Y116.654 E3.31727
G1 X51.787 Y116.877 E3.32803
G1 X51.686 Y117.085 E3.33880
G1 X51.544 Y117.267 E3.34956
G1 X51.367 Y117.415 E3.36033
G1 X51.160 Y117.525 E3.37126
G1 X50.869 Y117.598 E3.38526
G1 X49.265 Y117.602 E3.46014
G1 X36.339 Y110.836 F9000.000
G1 X36.136 Y111.097 E3.47554 F2400.000
G1 X35.883 Y111.309 E3.49094
G1 X35.595 Y111.462 E3.50617
G1 X35.378 Y111.532 E3.51678
G1 X35.055 Y111.578 E3.53201
G1 X34.726 Y111.555 E3.54741
G1 X34.412 Y111.465 E3.56265
G1 X34.208 Y111.365 E3.57325
G1 X33.944 Y111.173 E3.58849
G1 X33.723 Y110.928 E3.60389
G1 X33.558 Y110.642 E3.61928
G1 X33.457 Y110.331 E3.63453
G1 X33.425 Y110.101 E3.64540
G1 X33.437 Y109.780 E3.66037
G1 X33.517 Y109.460 E3.67576
G1 X33.661 Y109.164 E3.69116
G1 X33.864 Y108.903 E3.70656
G1 X34.117 Y108.691 E3.72196
G1 X34.405 Y108.538 E3.73719
G1 X34.622 Y108.468 E3.74780
G1 X34.945 Y108.422 E3.76304 F2400.000
G1 X35.274 Y108.445 E3.77843
G1 X35.582 Y108.533 E3.79340
G1 X35.792 Y108.635 E3.80426
G1 X36.056 Y108.827 E3.81951
G1 X36.277 Y109.072 E3.83491
G1 X36.442 Y109.358 E3.85031
G1 X36.543 Y109.669 E3.86556
G1 X36.575 Y109.899 E3.87642
G1 X36.563 Y110.220 E3.89139
G1 X36.483 Y110.540 E3.90678
G1 X36.365 Y110.783 E3.91938
G1 F7200
G1 X36.136 Y111.097 E3.79620
G1 F7200
G1 X35.883 Y111.309 E3.69171
G1 F7200
G1 X35.595 Y111.462 E3.58833
G1 F7200
G1 X35.378 Y111.532 E3.51636
G1 F7200
G1 X35.055 Y111.578 E3.41298
G1 F7200
G1 X34.726 Y111.555 E3.30847
G1 F7200
G1 X34.412 Y111.465 E3.20510
G1 F7200
G1 X34.208 Y111.365 E3.13313
G1 F7200
G1 X33.944 Y111.173 E3.02975
G1 F7200
G1 X33.723 Y110.928 E2.92525
G1 F7200
G1 X33.558 Y110.642 E2.82076
G1 F7200
G1 X33.457 Y110.331 E2.71728
G1 F7200
G1 X33.425 Y110.101 E2.64356
G1 F7200
G1 X33.437 Y109.780 E2.54197
G1 F7200
G1 X33.517 Y109.460 E2.43752
G1 F7200
G1 X33.661 Y109.164 E2.33303
G1 F7200
G1 X33.864 Y108.903 E2.22850
G1 F7200
G1 X34.117 Y108.691 E2.12401
G1 F7200
G1 X34.405 Y108.538 E2.02063
G1 F7200
G1 X34.622 Y108.468 E1.94866
G1 E0.91938 F2400.00000
G92 E0
G1 Z0.538 F9000.000
G1 X35.055 Y66.578 F9000.000
G1 Z0.338 F9000.000
G1 E3.00000 F2400.00000
G1 X34.726 Y66.555 E3.01540 F2400.000
G1 X34.412 Y66.465 E3.03063
G1 X34.208 Y66.365 E3.04124
G1 X33.944 Y66.173 E3.05647
G1 X33.723 Y65.928 E3.07187
G1 X33.558 Y65.642 E3.08727
G1 X33.457 Y65.331 E3.10252
G1 X33.425 Y65.101 E3.11338
G1 X33.437 Y64.780 E3.12835
G1 X33.517 Y64.460 E3.14375
G1 X33.661 Y64.164 E3.15914
G1 X33.864 Y63.903 E3.17455
G1 X34.117 Y63.691 E3.18995
G1 X34.405 Y63.538 E3.20518
G1 X34.622 Y63.468 E3.21579
G1 X34.945 Y63.422 E3.23102 F2400.000
G1 X35.274 Y63.445 E3.24642
G1 X35.591 Y63.536 E3.26182
G1 X35.883 Y63.691 E3.27722
G1 X36.136 Y63.903 E3.29262
G1 X36.339 Y64.164 E3.30803
G1 X36.483 Y64.460 E3.32342
G1 X36.562 Y64.777 E3.33866
G1 X36.578 Y65.004 E3.34926
G1 X36.544 Y65.325 E3.36434
G1 X36.480 Y65.549 E3.37521
G1 X36.339 Y65.837 E3.39017
G1 X36.136 Y66.097 E3.40557
G1 X35.883 Y66.309 E3.42097
G1 X35.595 Y66.462 E3.43620
G1 X35.378 Y66.532 E3.44681
G1 X35.114 Y66.569 E3.45924
G1 F7200
G1 X34.726 Y66.555 E3.33609
G1 F7200
G1 X34.412 Y66.465 E3.23272
G1 F7200
G1 X34.208 Y66.365 E3.16075
G1 F7200
G1 X33.944 Y66.173 E3.05737
G1 F7200
G1 X33.723 Y65.928 E2.95287
G1 F7200
G1 X33.558 Y65.642 E2.84838
G1 F7200
G1 X33.457 Y65.331 E2.74490
G1 F7200
G1 X33.425 Y65.101 E2.67118
G1 F7200
G1 X33.437 Y64.780 E2.56960
G1 F7200
G1 X33.517 Y64.460 E2.46514
G1 F7200
G1 X33.661 Y64.164 E2.36065
G1 F7200
G1 X33.864 Y63.903 E2.25612
G1 F7200
G1 X34.117 Y63.691 E2.15163
G1 F7200
G1 X34.405 Y63.538 E2.04826
G1 F7200
G1 X34.622 Y63.468 E1.97628
G1 E0.45924 F2400.00000
G92 E0
G1 Z0.538 F9000.000
G1 X35.055 Y36.078 F9000.000
G1 Z0.338 F9000.000
G1 E3.00000 F2400.00000
G1 X34.726 Y36.055 E3.01540 F2400.000
G1 X34.412 Y35.965 E3.03063
G1 X34.208 Y35.865 E3.04124
G1 X33.944 Y35.673 E3.05647
G1 X33.723 Y35.428 E3.07187
G1 X33.558 Y35.142 E3.08727
G1 X33.457 Y34.832 E3.10251
G1 X33.425 Y34.607 E3.11311
G1 X33.437 Y34.280 E3.12835
G1 X33.517 Y33.960 E3.14375
G1 X33.661 Y33.664 E3.15915
G1 X33.864 Y33.403 E3.17455
G1 X34.117 Y33.191 E3.18995
G1 X34.405 Y33.038 E3.20518
G1 X34.622 Y32.968 E3.21579
G1 X34.945 Y32.922 E3.23102 F2400.000
G1 X35.274 Y32.945 E3.24642
G1 X35.591 Y33.036 E3.26182
G1 X35.883 Y33.191 E3.27722
G1 X36.136 Y33.403 E3.29262
G1 X36.339 Y33.664 E3.30803
G1 X36.483 Y33.960 E3.32342
G1 X36.562 Y34.277 E3.33866
G1 X36.578 Y34.500 E3.34911
G1 X36.561 Y34.729 E3.35981
G1 X36.483 Y35.040 E3.37478
G1 X36.339 Y35.336 E3.39017
G1 X36.136 Y35.597 E3.40557
G1 X35.883 Y35.809 E3.42097
G1 X35.595 Y35.962 E3.43620
G1 X35.378 Y36.032 E3.44681
G1 X35.114 Y36.069 E3.45925
G1 X45.455 Y34.825 F9000.000
G1 X45.421 Y34.500 E3.47448 F2400.000
G1 X45.455 Y34.175 E3.48972
G1 X45.518 Y33.957 E3.50032
G1 X45.661 Y33.664 E3.51555
G1 X45.864 Y33.403 E3.53096
G1 X46.117 Y33.191 E3.54635
G1 X46.405 Y33.038 E3.56159
G1 X46.622 Y32.968 E3.57220
G1 X46.945 Y32.922 E3.58743 F2400.000
G1 X47.274 Y32.945 E3.60283
G1 X47.588 Y33.035 E3.61806
G1 X47.792 Y33.135 E3.62867
G1 X48.056 Y33.327 E3.64391
G1 X48.275 Y33.569 E3.65914
G1 X48.395 Y33.762 E3.66974
G1 X48.517 Y34.065 E3.68498
G1 X48.575 Y34.390 E3.70038
G1 X48.563 Y34.720 E3.71578
G1 X48.483 Y35.040 E3.73118
G1 X48.339 Y35.336 E3.74658
G1 X48.136 Y35.597 E3.76198
G1 X47.883 Y35.809 E3.77738
G1 X47.595 Y35.962 E3.79261
G1 X47.378 Y36.032 E3.80322
G1 X47.055 Y36.078 E3.81845
G1 X46.726 Y36.055 E3.83386
G1 X46.409 Y35.964 E3.84925
G1 X46.117 Y35.809 E3.86466
G1 X45.864 Y35.597 E3.88005
G1 X45.661 Y35.336 E3.89546
G1 X45.518 Y35.043 E3.91069
G1 X45.472 Y34.882 E3.91849
G1 F7200
G1 X45.421 Y34.500 E3.79636
G1 F7200
G1 X45.455 Y34.175 E3.69298
G1 F7200
G1 X45.518 Y33.957 E3.62100
G1 F7200
G1 X45.661 Y33.664 E3.51765
G1 F7200
G1 X45.864 Y33.403 E3.41312
G1 F7200
G1 X46.117 Y33.191 E3.30863
G1 F7200
G1 X46.405 Y33.038 E3.20525
G1 F7200
G1 X46.622 Y32.968 E3.13326
G1 E0.91849 F2400.00000
G92 E0
G1 Z0.538 F9000.000
G1 X151.425 Y34.610 F9000.000
G1 Z0.338 F9000.000
G1 E3.00000 F2400.00000
G1 X151.436 Y34.280 E3.01541 F2400.000
G1 X151.517 Y33.960 E3.03082
G1 X151.661 Y33.664 E3.04621
G1 X151.862 Y33.406 E3.06143
G1 X152.031 Y33.254 E3.07202
G1 X152.308 Y33.081 E3.08727
G1 X152.618 Y32.968 E3.10267
G1 X152.941 Y32.923 E3.11792 F2400.000
G1 X153.169 Y32.931 E3.12854
G1 X153.488 Y32.999 E3.14376
G1 X153.790 Y33.133 E3.15918
G1 X154.054 Y33.325 E3.17440
G1 X154.211 Y33.488 E3.18499
G1 X154.394 Y33.759 E3.20022
G1 X154.518 Y34.065 E3.21563
G1 X154.575 Y34.390 E3.23103
G1 X154.564 Y34.720 E3.24644
G1 X154.483 Y35.040 E3.26185
G1 X154.339 Y35.336 E3.27724
G1 X154.138 Y35.594 E3.29247
G1 X153.969 Y35.746 E3.30306
G1 X153.692 Y35.919 E3.31830
G1 X153.382 Y36.032 E3.33370
