; generated by Slic3r 1.2.9 on 2017-01-27 at 15:20:43

; external perimeters extrusion width = 0.28mm
; perimeters extrusion width = 0.27mm
; infill extrusion width = 0.27mm
; solid infill extrusion width = 0.25mm
; top infill extrusion width = 0.25mm
; support material extrusion width = 0.25mm

M190 S40 ; set bed temperature
M104 S180 T1 ; set temperature
G28 ; home all axes
G1 Z5 F5000 ; lift nozzle
M109 S180 T1 ; wait for temperature to be reached
G21 ; set units to millimeters
G90 ; use absolute coordinates
M82 ; use absolute distances for extrusion
G92 E0
T1
G92 E0
G1 Z0.292 F9600.000
G1 E-3.00000 F2400.00000
G92 E0
G1 Z0.492 F9600.000
G1 X77.265 Y60.697 F9600.000
G1 Z0.292 F9600.000
G1 E3.00000 F2400.00000
G1 X79.023 Y59.183 E3.07306 F3000.000
G1 X81.188 Y58.351 E3.14612
G1 X82.500 Y58.223 E3.18763
G1 X117.500 Y58.223 E4.28991
G1 X119.786 Y58.620 E4.36297
G1 X121.803 Y59.765 E4.43603 F3000.000
G1 X123.317 Y61.523 E4.50909
G1 X124.149 Y63.688 E4.58215
G1 X124.277 Y65.000 E4.62365
G1 X124.277 Y135.000 E6.82821
G1 X123.880 Y137.286 E6.90127
G1 X122.735 Y139.303 E6.97433
G1 X120.977 Y140.817 E7.04739
G1 X118.812 Y141.649 E7.12045
G1 X117.500 Y141.777 E7.16196
G1 X82.500 Y141.777 E8.26424
G1 X80.214 Y141.380 E8.33730
G1 X78.197 Y140.235 E8.41036
G1 X76.683 Y138.477 E8.48342
G1 X75.851 Y136.312 E8.55648
G1 X75.723 Y135.000 E8.59799
G1 X75.723 Y65.000 E10.80255
G1 X76.120 Y62.714 E10.87561
G1 X77.235 Y60.749 E10.94678
G1 X77.499 Y60.832 F9600.000
G1 X77.521 Y60.793 E10.94821 F3000.000
G1 X79.270 Y59.339 E11.01985
G1 X82.500 Y58.482 E11.12508
G1 X117.500 Y58.482 E12.22736
G1 X119.740 Y58.879 E12.29900
G1 X121.707 Y60.021 E12.37064 F3000.000
G1 X123.161 Y61.770 E12.44228
G1 X124.018 Y65.000 E12.54751
G1 X124.018 Y135.000 E14.75208
G1 X123.621 Y137.240 E14.82372
G1 X122.479 Y139.207 E14.89536
G1 X120.730 Y140.661 E14.96700
G1 X117.500 Y141.518 E15.07223
G1 X82.500 Y141.518 E16.17451
G1 X80.260 Y141.121 E16.24615
G1 X78.293 Y139.979 E16.31779
G1 X76.839 Y138.230 E16.38943
G1 X75.982 Y135.000 E16.49466
G1 X75.982 Y65.000 E18.69922
G1 X76.379 Y62.760 E18.77086
G1 X77.468 Y60.884 E18.83918
G1 X77.731 Y60.971 F9600.000
G1 X77.778 Y60.892 E18.84207 F3000.000
G1 X79.517 Y59.498 E18.91227
G1 X82.500 Y58.741 E19.00919
G1 X117.500 Y58.741 E20.11147
G1 X119.693 Y59.138 E20.18167
G1 X121.608 Y60.278 E20.25186 F3000.000
G1 X123.002 Y62.017 E20.32205
G1 X123.759 Y65.000 E20.41898
G1 X123.759 Y135.000 E22.62354
G1 X123.362 Y137.193 E22.69373
G1 X122.222 Y139.108 E22.76392
G1 X120.483 Y140.502 E22.83411
G1 X117.500 Y141.259 E22.93104
G1 X82.500 Y141.259 E24.03332
G1 X80.307 Y140.862 E24.10351
G1 X78.392 Y139.722 E24.17370
G1 X76.998 Y137.983 E24.24389
G1 X76.241 Y135.000 E24.34082
G1 X76.241 Y65.000 E26.54538
G1 X76.638 Y62.807 E26.61557
G1 X77.700 Y61.022 E26.68098
G1 F7680
G1 X77.778 Y60.892 E26.63590
G1 F7680
G1 X79.517 Y59.498 E25.97424
G1 F7680
G1 X82.500 Y58.741 E25.06055
G1 F7680
G1 X86.642 Y58.741 E23.83098
G1 E23.68098 F2400.00000
G92 E0
G1 Z0.492 F9600.000
G1 X115.533 Y131.393 F9600.000
G1 Z0.292 F9600.000
G1 E3.00000 F2400.00000
G1 X115.522 Y131.714 E3.01012 F3000.000
G1 X115.444 Y132.026 E3.02024
G1 X115.303 Y132.314 E3.03035
G1 X115.105 Y132.568 E3.04047
G1 X114.859 Y132.774 E3.05059
G1 X114.578 Y132.924 E3.06062
G1 X114.369 Y132.992 E3.06755
G1 X114.054 Y133.036 E3.07758
G1 X113.733 Y133.013 E3.08770
G1 X113.427 Y132.926 E3.09772
G1 X113.229 Y132.829 E3.10465
G1 X112.972 Y132.642 E3.11468
G1 X112.759 Y132.405 E3.12471
G1 X112.642 Y132.219 E3.13164
G1 X112.523 Y131.924 E3.14167
G1 X112.467 Y131.607 E3.15178
G1 X112.478 Y131.286 E3.16190
G1 X112.556 Y130.974 E3.17202
G1 X112.697 Y130.686 E3.18214
G1 X112.895 Y130.432 E3.19226
G1 X113.141 Y130.226 E3.20237
G1 X113.422 Y130.076 E3.21240
G1 X113.631 Y130.008 E3.21933
G1 X113.946 Y129.964 E3.22936 F3000.000
G1 X114.267 Y129.987 E3.23948
G1 X114.573 Y130.074 E3.24951
G1 X114.771 Y130.171 E3.25644
G1 X115.028 Y130.358 E3.26647
G1 X115.241 Y130.595 E3.27649
G1 X115.358 Y130.781 E3.28342
G1 X115.477 Y131.076 E3.29345
G1 X115.523 Y131.334 E3.30168
G1 F7680
G1 X115.522 Y131.714 E3.18881
G1 F7680
G1 X115.444 Y132.026 E3.09344
G1 F7680
G1 X115.303 Y132.314 E2.99808
G1 F7680
G1 X115.105 Y132.568 E2.90268
G1 F7680
G1 X114.859 Y132.774 E2.80732
G1 F7680
G1 X114.578 Y132.924 E2.71278
G1 F7680
G1 X114.369 Y132.992 E2.64745
G1 F7680
G1 X114.054 Y133.036 E2.55293
G1 F7680
G1 X113.733 Y133.013 E2.45754
G1 F7680
G1 X113.427 Y132.926 E2.36301
G1 F7680
G1 X113.229 Y132.829 E2.29770
G1 F7680
G1 X112.972 Y132.642 E2.20315
G1 F7680
G1 X112.759 Y132.405 E2.10863
G1 F7680
G1 X112.642 Y132.219 E2.04331
G1 F7680
G1 X112.523 Y131.924 E1.94879
G1 F7680
G1 X112.467 Y131.607 E1.85341
G1 F7680
G1 X112.478 Y131.286 E1.75802
G1 F7680
G1 X112.556 Y130.974 E1.66265
G1 F7680
G1 X112.697 Y130.686 E1.56729
G1 F7680
G1 X112.895 Y130.432 E1.47189
G1 F7680
G1 X113.141 Y130.226 E1.37653
G1 F7680
G1 X113.422 Y130.076 E1.28199
G1 F7680
G1 X113.631 Y130.008 E1.21666
G1 E0.30168 F2400.00000
G92 E0
G1 Z0.492 F9600.000
G1 X87.536 Y131.503 F9600.000
G1 Z0.292 F9600.000
G1 E3.00000 F2400.00000
G1 X87.503 Y131.817 E3.00995 F3000.000
G1 X87.440 Y132.035 E3.01710
G1 X87.303 Y132.314 E3.02690
G1 X87.105 Y132.568 E3.03701
G1 X86.859 Y132.774 E3.04713
G1 X86.578 Y132.924 E3.05716
G1 X86.369 Y132.992 E3.06409
G1 X86.054 Y133.036 E3.07412
G1 X85.733 Y133.013 E3.08424
G1 X85.424 Y132.925 E3.09435
G1 X85.141 Y132.774 E3.10447
G1 X84.897 Y132.569 E3.11450
G1 X84.755 Y132.401 E3.12143
G1 X84.596 Y132.125 E3.13146
G1 X84.497 Y131.820 E3.14158
G1 X84.463 Y131.500 E3.15169
G1 X84.497 Y131.180 E3.16181
G1 X84.596 Y130.875 E3.17193
G1 X84.755 Y130.599 E3.18196
G1 X84.897 Y130.431 E3.18889
G1 X85.141 Y130.226 E3.19891
G1 X85.422 Y130.076 E3.20894
G1 X85.631 Y130.008 E3.21587
G1 X85.946 Y129.964 E3.22590 F3000.000
G1 X86.267 Y129.987 E3.23602
G1 X86.576 Y130.075 E3.24614
G1 X86.859 Y130.226 E3.25626
G1 X87.105 Y130.432 E3.26637
G1 X87.303 Y130.686 E3.27649
G1 X87.444 Y130.974 E3.28661
G1 X87.521 Y131.283 E3.29664
G1 X87.532 Y131.443 E3.30168
G1 X87.839 Y119.161 F9600.000
G1 X87.839 Y79.839 E4.54007 F3000.000
G1 X112.161 Y79.839 E5.30605
G1 X112.161 Y119.161 E6.54444
G1 X87.899 Y119.161 E7.30853
G1 X86.054 Y70.036 F9600.000
G1 X85.733 Y70.013 E7.31865 F3000.000
G1 X85.424 Y69.925 E7.32877
G1 X85.143 Y69.775 E7.33880
G1 X84.970 Y69.640 E7.34572
G1 X84.757 Y69.403 E7.35575
G1 X84.596 Y69.125 E7.36587
G1 X84.497 Y68.820 E7.37599
G1 X84.463 Y68.500 E7.38611
G1 X84.497 Y68.180 E7.39623
G1 X84.595 Y67.877 E7.40626
G1 X84.703 Y67.677 E7.41342
G1 X84.895 Y67.432 E7.42321
G1 X85.141 Y67.226 E7.43333
G1 X85.422 Y67.076 E7.44336
G1 X85.631 Y67.008 E7.45028
G1 X85.946 Y66.964 E7.46031 F3000.000
G1 X86.267 Y66.987 E7.47043
G1 X86.576 Y67.075 E7.48055
G1 X86.859 Y67.226 E7.49067
G1 X87.105 Y67.432 E7.50079
G1 X87.303 Y67.686 E7.51090
G1 X87.444 Y67.974 E7.52102
G1 X87.521 Y68.283 E7.53105
G1 X87.536 Y68.500 E7.53790
G1 X87.520 Y68.724 E7.54496
G1 X87.444 Y69.026 E7.55476
G1 X87.303 Y69.314 E7.56487
G1 X87.105 Y69.568 E7.57499
G1 X86.859 Y69.774 E7.58511
G1 X86.578 Y69.924 E7.59514
G1 X86.369 Y69.992 E7.60207
G1 X86.113 Y70.027 E7.61021
G1 X112.467 Y68.607 F9600.000
G1 X112.478 Y68.286 E7.62032 F3000.000
G1 X112.556 Y67.974 E7.63044
G1 X112.697 Y67.686 E7.64056
G1 X112.895 Y67.432 E7.65068
G1 X113.138 Y67.228 E7.66071
G1 X113.329 Y67.118 E7.66763
G1 X113.628 Y67.009 E7.67767
G1 X113.946 Y66.964 E7.68778 F3000.000
G1 X114.267 Y66.987 E7.69790
G1 X114.576 Y67.075 E7.70802
G1 X114.857 Y67.225 E7.71805
G1 X115.030 Y67.360 E7.72498
G1 X115.241 Y67.595 E7.73491
G1 X115.358 Y67.781 E7.74184
G1 X115.477 Y68.076 E7.75187
G1 X115.533 Y68.393 E7.76199
G1 X115.522 Y68.714 E7.77211
G1 X115.444 Y69.026 E7.78223
G1 X115.303 Y69.314 E7.79234
G1 X115.105 Y69.568 E7.80246
G1 X114.862 Y69.772 E7.81249
G1 X114.671 Y69.882 E7.81942
G1 X114.372 Y69.991 E7.82945
G1 X114.054 Y70.036 E7.83957
G1 X113.733 Y70.013 E7.84969
G1 X113.424 Y69.925 E7.85980
G1 X113.143 Y69.775 E7.86983
G1 X112.970 Y69.640 E7.87676
G1 X112.759 Y69.405 E7.88670
G1 X112.642 Y69.219 E7.89363
G1 X112.523 Y68.924 E7.90366
G1 X112.477 Y68.666 E7.91188
G1 F7680
G1 X112.478 Y68.286 E7.79902
G1 F7680
G1 X112.556 Y67.974 E7.70365
G1 F7680
G1 X112.697 Y67.686 E7.60827
G1 F7680
G1 X112.895 Y67.432 E7.51289
G1 F7680
G1 X113.138 Y67.228 E7.41836
G1 F7680
G1 X113.329 Y67.118 E7.35306
G1 F7680
G1 X113.628 Y67.009 E7.25850
G1 E4.91188 F2400.00000
G92 E0
G1 Z0.492 F9600.000
G1 X117.339 Y65.161 F9600.000
G1 Z0.292 F9600.000
G1 E3.00000 F2400.00000
G1 X117.339 Y134.839 E5.19443 F3000.000
G1 X82.661 Y134.839 E6.28658
G1 X82.661 Y65.161 E8.48101
G1 X117.279 Y65.161 E9.57126
G1 X117.194 Y65.456 F9600.000
G1 X117.044 Y65.306 E9.57795 F3000.000
G1 X116.677 Y65.306 E9.58953
G1 X117.194 Y65.823 E9.61259
G1 X117.194 Y66.190 E9.62417
G1 X116.310 Y65.306 E9.66360
G1 X115.943 Y65.306 E9.67518
G1 X117.194 Y66.557 E9.73099
G1 X117.194 Y66.924 E9.74257
G1 X115.576 Y65.306 E9.81475
G1 X115.209 Y65.306 E9.82633
G1 X117.194 Y67.291 E9.91489
G1 X117.194 Y67.658 E9.92646
G1 X114.842 Y65.306 E10.03139
G1 X114.476 Y65.306 E10.04297
G1 X117.194 Y68.024 E10.16427
G1 X117.194 Y68.391 E10.17585
G1 X114.109 Y65.306 E10.31353
G1 X113.742 Y65.306 E10.32511
G1 X117.194 Y68.758 E10.47916
G1 X117.194 Y69.125 E10.49073
G1 X113.375 Y65.306 E10.66116
G1 X113.008 Y65.306 E10.67274
G1 X114.621 Y66.919 E10.74471
G1 X114.165 Y66.830 E10.75938
G1 X112.641 Y65.306 E10.82737
G1 X112.274 Y65.306 E10.83895
G1 X113.812 Y66.844 E10.90757
G1 X113.514 Y66.913 E10.91722
G1 X111.907 Y65.306 E10.98891
G1 X111.540 Y65.306 E11.00048
G1 X113.252 Y67.018 E11.07687
G1 X113.028 Y67.161 E11.08526
G1 X111.173 Y65.306 E11.16801
G1 X110.806 Y65.306 E11.17959
G1 X112.828 Y67.328 E11.26982
G1 X112.663 Y67.529 E11.27804
G1 X110.439 Y65.306 E11.37726
G1 X110.072 Y65.306 E11.38883
G1 X112.522 Y67.756 E11.49814
G1 X112.409 Y68.010 E11.50692
G1 X109.705 Y65.306 E11.62758
G1 X109.338 Y65.306 E11.63916
G1 X112.336 Y68.304 E11.77292
G1 X112.322 Y68.656 E11.78406
G1 X108.971 Y65.306 E11.93356
G1 X108.605 Y65.306 E11.94514
G1 X112.419 Y69.121 E12.11537
G1 X113.379 Y70.081 F9600.000
G1 X117.194 Y73.895 E12.28558 F3000.000
G1 X117.194 Y74.262 E12.29716
G1 X108.238 Y65.306 E12.69682
G1 X107.871 Y65.306 E12.70839
G1 X117.194 Y74.629 E13.12442
G1 X117.194 Y74.996 E13.13600
G1 X107.504 Y65.306 E13.56840
G1 X107.137 Y65.306 E13.57998
G1 X117.194 Y75.363 E14.02875
G1 X117.194 Y75.730 E14.04033
G1 X106.770 Y65.306 E14.50548
G1 X106.403 Y65.306 E14.51706
G1 X117.194 Y76.097 E14.99858
G1 X117.194 Y76.464 E15.01016
G1 X106.036 Y65.306 E15.50806
G1 X105.669 Y65.306 E15.51963
G1 X117.194 Y76.831 E16.03390
G1 X117.194 Y77.198 E16.04548
G1 X105.302 Y65.306 E16.57612
G1 X104.935 Y65.306 E16.58770
G1 X117.194 Y77.565 E17.13472
G1 X117.194 Y77.932 E17.14630
G1 X104.568 Y65.306 E17.70969
G1 X104.201 Y65.306 E17.72127
G1 X117.194 Y78.299 E18.30103
G1 X117.194 Y78.666 E18.31261
G1 X103.834 Y65.306 E18.90875
G1 X103.467 Y65.306 E18.92032
G1 X117.194 Y79.033 E19.53284
G1 X117.194 Y79.400 E19.54441
G1 X103.100 Y65.306 E20.17330
G1 X102.734 Y65.306 E20.18488
G1 X117.194 Y79.766 E20.83014
G1 X117.194 Y80.133 E20.84171
G1 X102.367 Y65.306 E21.50335
G1 X102.000 Y65.306 E21.51492
G1 X117.194 Y80.500 E22.19293
G1 X117.194 Y80.867 E22.20451
G1 X101.633 Y65.306 E22.89889
G1 X101.266 Y65.306 E22.91046
G1 X117.194 Y81.234 E23.62122
G1 X117.194 Y81.601 E23.63280
G1 X100.899 Y65.306 E24.35992
G1 X100.532 Y65.306 E24.37150
G1 X117.194 Y81.968 E25.11500
G1 X117.194 Y82.335 E25.12658
G1 X100.165 Y65.306 E25.88645
G1 X99.798 Y65.306 E25.89803
G1 X117.194 Y82.702 E26.67428
G1 X117.194 Y83.069 E26.68586
G1 X99.431 Y65.306 E27.47848
G1 X99.064 Y65.306 E27.49006
G1 X117.194 Y83.436 E28.29905
G1 X117.194 Y83.803 E28.31063
G1 X98.697 Y65.306 E29.13600
G1 X98.330 Y65.306 E29.14757
G1 X117.194 Y84.170 E29.98932
G1 X117.194 Y84.537 E30.00089
G1 X97.963 Y65.306 E30.85901
G1 X97.596 Y65.306 E30.87059
G1 X111.984 Y79.694 E31.51261
G1 X111.617 Y79.694 E31.52419
G1 X97.229 Y65.306 E32.16621
G1 X96.863 Y65.306 E32.17779
G1 X111.250 Y79.694 E32.81981
G1 X110.883 Y79.694 E32.83139
G1 X96.496 Y65.306 E33.47341
G1 X96.129 Y65.306 E33.48499
G1 X110.517 Y79.694 E34.12701
G1 X110.150 Y79.694 E34.13859
G1 X95.762 Y65.306 E34.78061
G1 X95.395 Y65.306 E34.79219
G1 X109.783 Y79.694 E35.43421
G1 X109.416 Y79.694 E35.44579
G1 X95.028 Y65.306 E36.08781
G1 X94.661 Y65.306 E36.09939
G1 X109.049 Y79.694 E36.74141
G1 X108.682 Y79.694 E36.75298
G1 X94.294 Y65.306 E37.39501
G1 X93.927 Y65.306 E37.40658
G1 X108.315 Y79.694 E38.04861
G1 X107.948 Y79.694 E38.06018
G1 X93.560 Y65.306 E38.70221
G1 X93.193 Y65.306 E38.71378
G1 X107.581 Y79.694 E39.35581
G1 X107.214 Y79.694 E39.36738
G1 X92.826 Y65.306 E40.00940
G1 X92.459 Y65.306 E40.02098
G1 X106.847 Y79.694 E40.66300
G1 X106.480 Y79.694 E40.67458
G1 X92.092 Y65.306 E41.31660
G1 X91.725 Y65.306 E41.32818
G1 X106.113 Y79.694 E41.97020
G1 X105.746 Y79.694 E41.98178
G1 X91.358 Y65.306 E42.62380
G1 X90.991 Y65.306 E42.63538
G1 X105.379 Y79.694 E43.27740
G1 X105.012 Y79.694 E43.28898
G1 X90.625 Y65.306 E43.93100
G1 X90.258 Y65.306 E43.94258
G1 X104.646 Y79.694 E44.58460
G1 X104.279 Y79.694 E44.59618
G1 X89.891 Y65.306 E45.23820
G1 X89.524 Y65.306 E45.24978
G1 X103.912 Y79.694 E45.89180
G1 X103.545 Y79.694 E45.90338
G1 X89.157 Y65.306 E46.54540
G1 X88.790 Y65.306 E46.55698
G1 X103.178 Y79.694 E47.19900
G1 X102.811 Y79.694 E47.21058
G1 X88.423 Y65.306 E47.85260
G1 X88.056 Y65.306 E47.86418
G1 X102.444 Y79.694 E48.50620
G1 X102.077 Y79.694 E48.51778
G1 X87.689 Y65.306 E49.15980
G1 X87.322 Y65.306 E49.17138
G1 X101.710 Y79.694 E49.81340
G1 X101.343 Y79.694 E49.82498
G1 X86.955 Y65.306 E50.46700
G1 X86.588 Y65.306 E50.47858
G1 X100.976 Y79.694 E51.12060
G1 X100.609 Y79.694 E51.13218
G1 X86.221 Y65.306 E51.77420
G1 X85.854 Y65.306 E51.78578
G1 X100.242 Y79.694 E52.42780
G1 X99.875 Y79.694 E52.43937
G1 X85.487 Y65.306 E53.08140
G1 X85.120 Y65.306 E53.09297
G1 X86.817 Y67.003 E53.16867
G1 X86.286 Y66.838 E53.18621
G1 X84.754 Y65.306 E53.25459
G1 X84.387 Y65.306 E53.26617
G1 X85.910 Y66.830 E53.33416
G1 X85.596 Y66.882 E53.34422
G1 X84.020 Y65.306 E53.41456
G1 X83.653 Y65.306 E53.42613
G1 X85.330 Y66.983 E53.50096
G1 X85.090 Y67.110 E53.50952
G1 X83.286 Y65.306 E53.59004
G1 X82.919 Y65.306 E53.60161
G1 X84.889 Y67.277 E53.68954
G1 X84.712 Y67.466 E53.69773
G1 X82.806 Y65.560 E53.78278
G1 X82.806 Y65.927 E53.79436
G1 X84.559 Y67.680 E53.87256
G1 X84.441 Y67.929 E53.88126
G1 X82.806 Y66.294 E53.95421
G1 X82.806 Y66.661 E53.96579
G1 X84.353 Y68.208 E54.03484
G1 X84.318 Y68.540 E54.04537
G1 X82.806 Y67.028 E54.11286
G1 X82.806 Y67.395 E54.12444
G1 X84.368 Y68.957 E54.19414
G1 X82.806 Y68.863 F9600.000
G1 X93.637 Y79.694 E54.67746 F3000.000
G1 X93.270 Y79.694 E54.68904
G1 X82.806 Y69.230 E55.15599
G1 X82.806 Y69.596 E55.16756
G1 X92.904 Y79.694 E55.61814
G1 X92.537 Y79.694 E55.62971
G1 X82.806 Y69.963 E56.06391
G1 X82.806 Y70.330 E56.07549
G1 X92.170 Y79.694 E56.49332
G1 X91.803 Y79.694 E56.50489
G1 X82.806 Y70.697 E56.90635
G1 X82.806 Y71.064 E56.91792
G1 X91.436 Y79.694 E57.30300
G1 X91.069 Y79.694 E57.31458
G1 X82.806 Y71.431 E57.68328
G1 X82.806 Y71.798 E57.69486
G1 X90.702 Y79.694 E58.04719
G1 X90.335 Y79.694 E58.05877
G1 X82.806 Y72.165 E58.39473
G1 X82.806 Y72.532 E58.40631
G1 X89.968 Y79.694 E58.72589
G1 X89.601 Y79.694 E58.73747
G1 X82.806 Y72.899 E59.04068
G1 X82.806 Y73.266 E59.05226
G1 X89.234 Y79.694 E59.33909
G1 X88.867 Y79.694 E59.35067
G1 X82.806 Y73.633 E59.62113
G1 X82.806 Y74.000 E59.63271
G1 X88.500 Y79.694 E59.88680
G1 X88.133 Y79.694 E59.89838
G1 X82.806 Y74.367 E60.13609
G1 X82.806 Y74.734 E60.14767
G1 X87.766 Y79.694 E60.36901
G1 X87.694 Y79.988 F9600.000
G1 X82.806 Y75.101 E60.58712 F3000.000
G1 X82.806 Y75.467 E60.59870
G1 X87.694 Y80.355 E60.81681
G1 X87.694 Y80.722 E60.82839
G1 X82.806 Y75.834 E61.04650
G1 X82.806 Y76.201 E61.05808
G1 X87.694 Y81.089 E61.27619
G1 X87.694 Y81.456 E61.28776
G1 X82.806 Y76.568 E61.50587
G1 X82.806 Y76.935 E61.51745
G1 X87.694 Y81.823 E61.73556
