; generated by Slic3r 1.2.9 on 2017-02-02 at 10:46:55

; external perimeters extrusion width = 0.28mm
; perimeters extrusion width = 0.27mm
; infill extrusion width = 0.27mm
; solid infill extrusion width = 0.25mm
; top infill extrusion width = 0.25mm
; support material extrusion width = 0.25mm

M190 S40 ; set bed temperature
M104 S180 T1 ; set temperature
G28 ; home all axes
G1 Z5 F5000 ; lift nozzle
M109 S180 T1 ; wait for temperature to be reached
G21 ; set units to millimeters
G90 ; use absolute coordinates
M82 ; use absolute distances for extrusion
G92 E0
T1
G92 E0
G1 Z0.292 F9600.000
G1 E-3.00000 F2400.00000
G92 E0
G1 Z0.492 F9600.000
G1 X61.319 Y36.173 F9600.000
G1 Z0.292 F9600.000
G1 E3.00000 F2400.00000
G1 X62.937 Y34.511 E3.07306 F3000.000
G1 X65.021 Y33.492 E3.14612
G1 X66.912 Y33.223 E3.20627
G1 X133.088 Y33.223 E5.29042
G1 X135.374 Y33.620 E5.36348
G1 X137.392 Y34.765 E5.43654 F3000.000
G1 X138.905 Y36.523 E5.50960
G1 X139.737 Y38.688 E5.58266
G1 X139.839 Y40.596 E5.64281
G1 X129.251 Y160.596 E9.43674
G1 X128.654 Y162.837 E9.50980
G1 X127.337 Y164.747 E9.58286
G1 X125.452 Y166.100 E9.65592
G1 X122.500 Y166.777 E9.75132
G1 X77.500 Y166.777 E11.16854
G1 X75.214 Y166.380 E11.24160
G1 X73.197 Y165.235 E11.31466
G1 X71.683 Y163.477 E11.38772
G1 X70.749 Y160.596 E11.48312
G1 X60.161 Y40.596 E15.27705
G1 X60.356 Y38.284 E15.35011
G1 X61.294 Y36.228 E15.42128
G1 X61.563 Y36.288 F9600.000
G1 X61.583 Y36.247 E15.42271 F3000.000
G1 X63.197 Y34.644 E15.49435
G1 X65.264 Y33.694 E15.56599
G1 X66.912 Y33.482 E15.61832
G1 X133.088 Y33.482 E17.70247
G1 X135.328 Y33.879 E17.77411
G1 X137.295 Y35.021 E17.84575 F3000.000
G1 X138.750 Y36.770 E17.91739
G1 X139.515 Y38.912 E17.98903
G1 X139.581 Y40.573 E18.04136
G1 X128.993 Y160.573 E21.83529
G1 X128.400 Y162.769 E21.90693
G1 X127.090 Y164.628 E21.97857
G1 X125.220 Y165.923 E22.05021
G1 X122.500 Y166.518 E22.13789
G1 X77.500 Y166.518 E23.55511
G1 X75.260 Y166.121 E23.62675
G1 X73.293 Y164.979 E23.69839
G1 X71.839 Y163.230 E23.77003
G1 X71.007 Y160.573 E23.85770
G1 X60.419 Y40.573 E27.65163
G1 X60.618 Y38.307 E27.72327
G1 X61.538 Y36.343 E27.79159
G1 X61.807 Y36.406 F9600.000
G1 X61.847 Y36.323 E27.79448 F3000.000
G1 X63.456 Y34.781 E27.86467
G1 X65.504 Y33.901 E27.93486
G1 X66.912 Y33.741 E27.97948
G1 X133.088 Y33.741 E30.06363
G1 X135.281 Y34.138 E30.13382
G1 X137.196 Y35.278 E30.20401 F3000.000
G1 X138.591 Y37.017 E30.27420
G1 X139.287 Y39.134 E30.34439
G1 X139.323 Y40.550 E30.38901
G1 X128.735 Y160.550 E34.18294
G1 X128.147 Y162.700 E34.25313
G1 X126.843 Y164.507 E34.32332
G1 X124.988 Y165.743 E34.39351
G1 X122.500 Y166.259 E34.47354
G1 X77.500 Y166.259 E35.89076
G1 X75.307 Y165.862 E35.96095
G1 X73.392 Y164.722 E36.03114
G1 X71.998 Y162.983 E36.10133
G1 X71.265 Y160.550 E36.18135
G1 X60.677 Y40.550 E39.97528
G1 X60.880 Y38.331 E40.04548
G1 X61.781 Y36.460 E40.11088
G1 F7680
G1 X61.847 Y36.323 E40.06580
G1 F7680
G1 X63.456 Y34.781 E39.40415
G1 F7680
G1 X65.504 Y33.901 E38.74250
G1 F7680
G1 X66.912 Y33.741 E38.32191
G1 F7680
G1 X70.486 Y33.741 E37.26088
G1 E37.11088 F2400.00000
G92 E0
G1 Z0.492 F9600.000
G1 X86.806 Y155.104 F9600.000
G1 Z0.292 F9600.000
G1 E3.00000 F2400.00000
G1 X87.076 Y155.300 E3.01052 F3000.000
G1 X87.236 Y155.466 E3.01779
G1 X87.423 Y155.743 E3.02830
G1 X87.549 Y156.055 E3.03892
G1 X87.608 Y156.388 E3.04954
G1 X87.596 Y156.722 E3.06007
G1 X87.547 Y156.951 E3.06745
G1 X87.423 Y157.257 E3.07785
G1 X87.235 Y157.536 E3.08845
G1 X86.992 Y157.771 E3.09908
G1 X86.706 Y157.948 E3.10968
G1 X86.390 Y158.064 E3.12029
G1 X86.056 Y158.111 E3.13090
G1 X85.723 Y158.087 E3.14142
G1 X85.499 Y158.032 E3.14868
G1 X85.194 Y157.896 E3.15920
G1 X84.924 Y157.700 E3.16972
G1 X84.764 Y157.534 E3.17699
G1 X84.577 Y157.257 E3.18750
G1 X84.451 Y156.945 E3.19811
G1 X84.392 Y156.612 E3.20874
G1 X84.404 Y156.278 E3.21927
G1 X84.453 Y156.049 E3.22665
G1 X84.577 Y155.743 E3.23705
G1 X84.765 Y155.464 E3.24765
G1 X85.008 Y155.229 E3.25827
G1 X85.294 Y155.052 E3.26887
G1 X85.610 Y154.936 E3.27948
G1 X85.944 Y154.889 E3.29010 F3000.000
G1 X86.277 Y154.912 E3.30062
G1 X86.501 Y154.968 E3.30788
G1 X86.751 Y155.079 E3.31650
G1 X112.404 Y156.275 F9600.000
G1 X112.485 Y155.951 E3.32702 F3000.000
G1 X112.578 Y155.741 E3.33428
G1 X112.765 Y155.464 E3.34480
G1 X113.008 Y155.229 E3.35542
G1 X113.294 Y155.052 E3.36602
G1 X113.610 Y154.936 E3.37663
G1 X113.944 Y154.889 E3.38725 F3000.000
G1 X114.277 Y154.912 E3.39777
G1 X114.501 Y154.968 E3.40503
G1 X114.806 Y155.104 E3.41554
G1 X115.076 Y155.300 E3.42607
G1 X115.236 Y155.466 E3.43334
G1 X115.423 Y155.743 E3.44385
G1 X115.549 Y156.055 E3.45446
G1 X115.608 Y156.388 E3.46509
G1 X115.596 Y156.722 E3.47561
G1 X115.547 Y156.951 E3.48299
G1 X115.423 Y157.257 E3.49339
G1 X115.235 Y157.536 E3.50399
G1 X114.992 Y157.771 E3.51462
G1 X114.706 Y157.948 E3.52522
G1 X114.390 Y158.064 E3.53583
G1 X114.056 Y158.111 E3.54644
G1 X113.723 Y158.087 E3.55697
G1 X113.499 Y158.032 E3.56422
G1 X113.194 Y157.896 E3.57474
G1 X112.922 Y157.698 E3.58535
G1 X112.696 Y157.447 E3.59598
G1 X112.529 Y157.158 E3.60649
G1 X112.449 Y156.938 E3.61387
G1 X112.392 Y156.608 E3.62440
G1 X112.402 Y156.335 E3.63301
G1 X112.161 Y144.161 F9600.000
G1 X87.839 Y144.161 E4.39899 F3000.000
G1 X87.839 Y104.839 E5.63738
G1 X112.161 Y104.839 E6.40336
G1 X112.161 Y144.101 E7.63986
G1 F7680
G1 X102.561 Y144.125 E4.78986
G1 E4.63986 F2400.00000
G92 E0
G1 Z0.492 F9600.000
G1 X86.706 Y94.948 F9600.000
G1 Z0.292 F9600.000
G1 E3.00000 F2400.00000
G1 X86.390 Y95.064 E3.01061 F3000.000
G1 X86.056 Y95.111 E3.02122
G1 X85.723 Y95.088 E3.03175
G1 X85.499 Y95.032 E3.03900
G1 X85.194 Y94.896 E3.04952
G1 X84.924 Y94.700 E3.06004
G1 X84.764 Y94.534 E3.06731
G1 X84.577 Y94.257 E3.07782
G1 X84.451 Y93.945 E3.08843
G1 X84.392 Y93.612 E3.09906
G1 X84.404 Y93.278 E3.10959
G1 X84.453 Y93.049 E3.11697
G1 X84.577 Y92.743 E3.12737
G1 X84.765 Y92.464 E3.13797
G1 X85.008 Y92.229 E3.14860
G1 X85.294 Y92.052 E3.15920
G1 X85.610 Y91.936 E3.16981
G1 X85.944 Y91.889 E3.18042 F3000.000
G1 X86.277 Y91.912 E3.19094
G1 X86.501 Y91.968 E3.19820
G1 X86.806 Y92.104 E3.20872
G1 X87.076 Y92.300 E3.21924
G1 X87.236 Y92.466 E3.22651
G1 X87.423 Y92.743 E3.23702
G1 X87.549 Y93.055 E3.24763
G1 X87.608 Y93.388 E3.25826
G1 X87.596 Y93.725 E3.26887
G1 X87.515 Y94.049 E3.27939
G1 X87.422 Y94.259 E3.28665
G1 X87.235 Y94.536 E3.29717
G1 X86.992 Y94.771 E3.30779
G1 X86.757 Y94.917 E3.31650
G1 X112.392 Y93.612 F9600.000
G1 X112.404 Y93.278 E3.32703 F3000.000
G1 X112.453 Y93.049 E3.33441
G1 X112.577 Y92.743 E3.34481
G1 X112.765 Y92.464 E3.35541
G1 X113.008 Y92.229 E3.36604
G1 X113.294 Y92.052 E3.37664
G1 X113.610 Y91.936 E3.38725
G1 X113.944 Y91.889 E3.39786 F3000.000
G1 X114.277 Y91.912 E3.40838
G1 X114.501 Y91.968 E3.41564
G1 X114.806 Y92.104 E3.42616
G1 X115.076 Y92.300 E3.43668
G1 X115.236 Y92.466 E3.44395
G1 X115.423 Y92.743 E3.45446
G1 X115.549 Y93.055 E3.46507
G1 X115.608 Y93.388 E3.47570
G1 X115.596 Y93.725 E3.48631
G1 X115.515 Y94.049 E3.49683
G1 X115.422 Y94.259 E3.50410
G1 X115.235 Y94.536 E3.51461
G1 X114.992 Y94.771 E3.52523
G1 X114.706 Y94.948 E3.53584
G1 X114.390 Y95.064 E3.54645
G1 X114.056 Y95.111 E3.55706
G1 X113.723 Y95.087 E3.56758
G1 X113.499 Y95.032 E3.57484
G1 X113.194 Y94.896 E3.58535
G1 X112.924 Y94.700 E3.59588
G1 X112.764 Y94.534 E3.60315
G1 X112.577 Y94.257 E3.61366
G1 X112.451 Y93.945 E3.62427
G1 X112.403 Y93.671 E3.63301
G1 X106.331 Y82.964 F9600.000
G1 X105.550 Y83.380 E3.66085 F3000.000
G1 X104.743 Y83.739 E3.68868
G1 X103.912 Y84.041 E3.71651
G1 X103.063 Y84.285 E3.74434
G1 X102.199 Y84.469 E3.77217
G1 X101.323 Y84.592 E3.80001
G1 X100.442 Y84.653 E3.82784
G1 X99.558 Y84.653 E3.85566
G1 X98.677 Y84.592 E3.88350
G1 X97.801 Y84.469 E3.91133
G1 X96.937 Y84.285 E3.93916
G1 X96.088 Y84.041 E3.96700
G1 X95.257 Y83.739 E3.99482
G1 X94.450 Y83.380 E4.02266
G1 X93.670 Y82.964 E4.05049
G1 X92.920 Y82.496 E4.07832
G1 X92.205 Y81.977 E4.10616
G1 X91.528 Y81.409 E4.13399
G1 X90.893 Y80.795 E4.16182
G1 X90.301 Y80.138 E4.18964
G1 X89.757 Y79.442 E4.21749
G1 X89.263 Y78.709 E4.24531
G1 X88.821 Y77.944 E4.27315
G1 X88.434 Y77.149 E4.30098
G1 X88.103 Y76.330 E4.32881
G1 X87.829 Y75.489 E4.35665
G1 X87.616 Y74.632 E4.38446
G1 X87.462 Y73.762 E4.41229
G1 X87.370 Y72.883 E4.44013
G1 X87.339 Y72.000 E4.46796
G1 X87.370 Y71.117 E4.49580
G1 X87.462 Y70.237 E4.52364
G1 X87.624 Y69.336 E4.55247
G1 X87.829 Y68.511 E4.57927
G1 X88.103 Y67.670 E4.60711
G1 X88.434 Y66.851 E4.63495
G1 X88.821 Y66.056 E4.66277
G1 X89.263 Y65.291 E4.69061
G1 X89.757 Y64.558 E4.71844
G1 X90.301 Y63.862 E4.74628
G1 X90.893 Y63.205 E4.77411
G1 X91.528 Y62.591 E4.80193
G1 X92.205 Y62.023 E4.82977
G1 X92.920 Y61.504 E4.85761
G1 X93.670 Y61.036 E4.88543
G1 X94.450 Y60.620 E4.91327
G1 X95.257 Y60.261 E4.94110
G1 X96.088 Y59.959 E4.96893
G1 X96.937 Y59.715 E4.99677
G1 X97.801 Y59.531 E5.02459
G1 X98.677 Y59.408 E5.05243
G1 X99.558 Y59.347 E5.08026
G1 X100.442 Y59.347 E5.10809 F3000.000
G1 X101.323 Y59.408 E5.13592
G1 X102.199 Y59.531 E5.16375
G1 X103.063 Y59.715 E5.19158
G1 X103.912 Y59.959 E5.21942
G1 X104.743 Y60.261 E5.24725
G1 X105.550 Y60.620 E5.27508
G1 X106.331 Y61.036 E5.30292
G1 X107.080 Y61.504 E5.33074
G1 X107.795 Y62.023 E5.35858
G1 X108.472 Y62.591 E5.38641
G1 X109.107 Y63.205 E5.41424
G1 X109.699 Y63.862 E5.44207
G1 X110.243 Y64.558 E5.46991
G1 X110.737 Y65.291 E5.49773
G1 X111.179 Y66.056 E5.52558
G1 X111.566 Y66.851 E5.55340
G1 X111.897 Y67.670 E5.58124
G1 X112.171 Y68.511 E5.60907
G1 X112.384 Y69.368 E5.63689
G1 X112.538 Y70.238 E5.66472
G1 X112.631 Y71.149 E5.69356
G1 X112.661 Y72.000 E5.72038
G1 X112.630 Y72.883 E5.74822
G1 X112.538 Y73.762 E5.77606
G1 X112.384 Y74.632 E5.80388
G1 X112.171 Y75.489 E5.83170
G1 X111.897 Y76.330 E5.85953
G1 X111.566 Y77.149 E5.88737
G1 X111.179 Y77.944 E5.91519
G1 X110.737 Y78.709 E5.94304
G1 X110.243 Y79.442 E5.97086
G1 X109.699 Y80.138 E5.99870
G1 X109.107 Y80.795 E6.02653
G1 X108.472 Y81.409 E6.05436
G1 X107.795 Y81.977 E6.08219
G1 X107.080 Y82.496 E6.11003
G1 X106.381 Y82.933 E6.13596
G1 F7680
G1 X105.550 Y83.380 E5.85578
G1 F7680
G1 X104.743 Y83.739 E5.59341
G1 F7680
G1 X103.912 Y84.041 E5.33110
G1 F7680
G1 X103.063 Y84.285 E5.06869
G1 F7680
G1 X102.199 Y84.469 E4.80637
G1 F7680
G1 X101.323 Y84.592 E4.54398
G1 F7680
G1 X100.442 Y84.653 E4.28161
G1 F7680
G1 X99.558 Y84.653 E4.01933
G1 F7680
G1 X98.677 Y84.592 E3.75697
G1 F7680
G1 X97.801 Y84.469 E3.49457
G1 F7680
G1 X97.114 Y84.323 E3.28596
G1 E3.13596 F2400.00000
G92 E0
G1 Z0.492 F9600.000
G1 X78.446 Y51.211 F9600.000
G1 Z0.292 F9600.000
G1 E3.00000 F2400.00000
G1 X78.174 Y51.381 E3.01012 F3000.000
G1 X77.872 Y51.491 E3.02023
G1 X77.554 Y51.536 E3.03034
G1 X77.236 Y51.514 E3.04037
G1 X77.023 Y51.461 E3.04729
G1 X76.732 Y51.331 E3.05733
G1 X76.474 Y51.144 E3.06736
G1 X76.321 Y50.986 E3.07428
G1 X76.143 Y50.722 E3.08431
G1 X76.023 Y50.424 E3.09444
G1 X75.967 Y50.110 E3.10446
G1 X75.967 Y49.890 E3.11140
G1 X76.023 Y49.576 E3.12142
G1 X76.143 Y49.278 E3.13156
G1 X76.323 Y49.012 E3.14167
G1 X76.554 Y48.789 E3.15179
G1 X76.826 Y48.619 E3.16191
G1 X77.128 Y48.509 E3.17202
G1 X77.446 Y48.464 E3.18214 F3000.000
G1 X77.764 Y48.486 E3.19216
G1 X77.977 Y48.539 E3.19908
G1 X78.268 Y48.669 E3.20912
G1 X78.526 Y48.856 E3.21915
G1 X78.679 Y49.014 E3.22608
G1 X78.857 Y49.278 E3.23610
G1 X78.977 Y49.576 E3.24623
G1 X79.033 Y49.893 E3.25635
G1 X79.022 Y50.211 E3.26637
G1 X78.975 Y50.430 E3.27342
G1 X78.857 Y50.722 E3.28335
G1 X78.677 Y50.988 E3.29346
G1 X78.489 Y51.170 E3.30169
G1 X120.967 Y50.110 F9600.000
G1 X120.967 Y49.890 E3.30863 F3000.000
G1 X121.023 Y49.576 E3.31865
G1 X121.143 Y49.278 E3.32878
G1 X121.323 Y49.012 E3.33890
G1 X121.554 Y48.789 E3.34902
G1 X121.826 Y48.619 E3.35914
G1 X122.128 Y48.509 E3.36925
G1 X122.446 Y48.464 E3.37936 F3000.000
G1 X122.764 Y48.486 E3.38939
G1 X122.977 Y48.539 E3.39631
G1 X123.268 Y48.669 E3.40635
G1 X123.526 Y48.856 E3.41638
G1 X123.679 Y49.014 E3.42331
G1 X123.857 Y49.278 E3.43333
G1 X123.977 Y49.576 E3.44346
G1 X124.033 Y49.890 E3.45349
G1 X124.033 Y50.110 E3.46042
G1 X123.977 Y50.424 E3.47044
G1 X123.857 Y50.722 E3.48058
G1 X123.677 Y50.988 E3.49069
G1 X123.446 Y51.211 E3.50081
G1 X123.174 Y51.381 E3.51093
G1 X122.872 Y51.491 E3.52104
G1 X122.554 Y51.536 E3.53116
G1 X122.236 Y51.514 E3.54118
G1 X122.023 Y51.461 E3.54811
G1 X121.732 Y51.331 E3.55814
G1 X121.474 Y51.144 E3.56817
G1 X121.321 Y50.986 E3.57510
G1 X121.143 Y50.722 E3.58512
G1 X121.023 Y50.424 E3.59525
G1 X120.978 Y50.169 E3.60339
G1 F7680
G1 X120.967 Y49.890 E3.52042
G1 F7680
G1 X121.023 Y49.576 E3.42592
G1 F7680
G1 X121.143 Y49.278 E3.33041
G1 F7680
G1 X121.323 Y49.012 E3.23510
G1 F7680
G1 X121.554 Y48.789 E3.13965
G1 F7680
G1 X121.826 Y48.619 E3.04430
G1 F7680
G1 X122.128 Y48.509 E2.94895
G1 E0.60339 F2400.00000
G92 E0
G1 Z0.492 F9600.000
G1 X132.913 Y40.161 F9600.000
G1 Z0.292 F9600.000
G1 E3.00000 F2400.00000
G1 X122.353 Y159.839 E6.78376 F3000.000
G1 X77.647 Y159.839 E8.19170
G1 X67.087 Y40.161 E11.97546
G1 X132.853 Y40.161 E14.04665
G1 X132.746 Y40.454 F9600.000
G1 X132.597 Y40.306 E14.05326 F3000.000
G1 X132.231 Y40.306 E14.06481
G1 X132.716 Y40.791 E14.08642
G1 X132.686 Y41.128 E14.09707
G1 X131.864 Y40.306 E14.13369
G1 X131.498 Y40.306 E14.14524
G1 X132.656 Y41.465 E14.19687
G1 X132.627 Y41.801 E14.20752
G1 X131.131 Y40.306 E14.27415
G1 X130.765 Y40.306 E14.28570
G1 X132.597 Y42.138 E14.36734
G1 X132.567 Y42.475 E14.37799
G1 X130.399 Y40.306 E14.47463
G1 X130.032 Y40.306 E14.48618
G1 X132.538 Y42.812 E14.59783
G1 X132.508 Y43.148 E14.60848
G1 X129.666 Y40.306 E14.73514
G1 X129.299 Y40.306 E14.74669
G1 X132.478 Y43.485 E14.88835
G1 X132.448 Y43.822 E14.89900
G1 X128.933 Y40.306 E15.05567
G1 X128.566 Y40.306 E15.06721
G1 X132.419 Y44.158 E15.23889
G1 X132.389 Y44.495 E15.24954
G1 X128.200 Y40.306 E15.43622
G1 X127.833 Y40.306 E15.44776
G1 X132.359 Y44.832 E15.64945
G1 X132.330 Y45.169 E15.66010
G1 X127.467 Y40.306 E15.87679
G1 X127.101 Y40.306 E15.88834
G1 X132.300 Y45.505 E16.12003
G1 X132.270 Y45.842 E16.13069
G1 X126.734 Y40.306 E16.37739
G1 X126.368 Y40.306 E16.38893
G1 X132.240 Y46.179 E16.65064
G1 X132.211 Y46.516 E16.66129
G1 X126.001 Y40.306 E16.93801
G1 X125.635 Y40.306 E16.94955
G1 X132.181 Y46.852 E17.24127
G1 X132.151 Y47.189 E17.25192
G1 X125.268 Y40.306 E17.55865
G1 X124.902 Y40.306 E17.57020
G1 X132.122 Y47.526 E17.89193
G1 X132.092 Y47.863 E17.90258
G1 X124.535 Y40.306 E18.23931
G1 X124.169 Y40.306 E18.25086
G1 X132.062 Y48.199 E18.60260
G1 X132.032 Y48.536 E18.61326
G1 X123.802 Y40.306 E18.98000
G1 X123.436 Y40.306 E18.99155
G1 X132.003 Y48.873 E19.37330
G1 X131.973 Y49.209 E19.38396
G1 X123.070 Y40.306 E19.78071
G1 X122.703 Y40.306 E19.79226
G1 X131.943 Y49.546 E20.20403
G1 X131.914 Y49.883 E20.21468
G1 X122.337 Y40.306 E20.64145
G1 X121.970 Y40.306 E20.65300
G1 X131.884 Y50.220 E21.09477
G1 X131.854 Y50.556 E21.10542
G1 X121.604 Y40.306 E21.56221
G1 X121.237 Y40.306 E21.57375
G1 X131.824 Y50.893 E22.04554
G1 X131.795 Y51.230 E22.05619
G1 X120.871 Y40.306 E22.54299
G1 X120.504 Y40.306 E22.55453
G1 X131.765 Y51.567 E23.05633
G1 X131.735 Y51.903 E23.06698
G1 X120.138 Y40.306 E23.58379
G1 X119.772 Y40.306 E23.59534
G1 X131.706 Y52.240 E24.12715
G1 X131.676 Y52.577 E24.13780
G1 X119.405 Y40.306 E24.68462
G1 X119.039 Y40.306 E24.69616
G1 X131.646 Y52.914 E25.25799
G1 X131.616 Y53.250 E25.26864
G1 X118.672 Y40.306 E25.84547
G1 X118.306 Y40.306 E25.85701
G1 X131.587 Y53.587 E26.44885
G1 X131.557 Y53.924 E26.45950
G1 X117.939 Y40.306 E27.06634
G1 X117.573 Y40.306 E27.07788
G1 X131.527 Y54.260 E27.69973
G1 X131.498 Y54.597 E27.71038
G1 X117.206 Y40.306 E28.34723
G1 X116.840 Y40.306 E28.35878
G1 X131.468 Y54.934 E29.01064
G1 X131.438 Y55.271 E29.02129
G1 X116.474 Y40.306 E29.68815
G1 X116.107 Y40.306 E29.69970
G1 X131.408 Y55.607 E30.38157
G1 X131.379 Y55.944 E30.39222
G1 X115.741 Y40.306 E31.08909
G1 X115.374 Y40.306 E31.10064
G1 X131.349 Y56.281 E31.81252
G1 X131.319 Y56.618 E31.82317
G1 X124.081 Y49.379 E32.14575
G1 X124.178 Y49.842 E32.16068
G1 X131.290 Y56.954 E32.47761
G1 X131.260 Y57.291 E32.48826
G1 X124.157 Y50.188 E32.80477
