; generated by Slic3r 1.2.9 on 2017-02-01 at 14:27:16

; external perimeters extrusion width = 0.28mm
; perimeters extrusion width = 0.27mm
; infill extrusion width = 0.27mm
; solid infill extrusion width = 0.25mm
; top infill extrusion width = 0.25mm
; support material extrusion width = 0.25mm

M190 S40 ; set bed temperature
M104 S180 T1 ; set temperature
G28 ; home all axes
G1 Z5 F5000 ; lift nozzle
M109 S180 T1 ; wait for temperature to be reached
G21 ; set units to millimeters
G90 ; use absolute coordinates
M82 ; use absolute distances for extrusion
G92 E0
T1
G92 E0
G1 Z0.292 F9600.000
G1 E-3.00000 F2400.00000
G92 E0
G1 Z0.492 F9600.000
G1 X57.265 Y35.697 F9600.000
G1 Z0.292 F9600.000
G1 E3.00000 F2400.00000
G1 X59.023 Y34.183 E3.07306 F3000.000
G1 X61.188 Y33.351 E3.14612
G1 X62.500 Y33.223 E3.18763
G1 X137.500 Y33.223 E5.54966
G1 X139.786 Y33.620 E5.62272
G1 X141.803 Y34.765 E5.69578 F3000.000
G1 X143.317 Y36.523 E5.76884
G1 X144.149 Y38.688 E5.84190
G1 X144.277 Y40.000 E5.88340
G1 X144.277 Y90.000 E7.45809
G1 X144.251 Y90.596 E7.47687
G1 X138.074 Y160.596 E9.68999
G1 X137.478 Y162.838 E9.76305
G1 X136.160 Y164.747 E9.83611
G1 X134.276 Y166.100 E9.90917
G1 X131.324 Y166.777 E10.00457
G1 X68.676 Y166.777 E11.97756
G1 X66.391 Y166.380 E12.05062
G1 X64.373 Y165.235 E12.12368
G1 X62.860 Y163.477 E12.19674
G1 X61.926 Y160.596 E12.29214
G1 X55.749 Y90.596 E14.50526
G1 X55.723 Y90.000 E14.52404
G1 X55.723 Y40.000 E16.09873
G1 X56.120 Y37.714 E16.17179
G1 X57.235 Y35.749 E16.24296
G1 X57.499 Y35.832 F9600.000
G1 X57.521 Y35.793 E16.24439 F3000.000
G1 X59.270 Y34.339 E16.31603
G1 X62.500 Y33.482 E16.42126
G1 X137.500 Y33.482 E18.78329
G1 X139.740 Y33.879 E18.85493
G1 X141.707 Y35.021 E18.92657 F3000.000
G1 X143.161 Y36.770 E18.99821
G1 X144.018 Y40.000 E19.10345
G1 X144.018 Y90.000 E20.67813
G1 X143.993 Y90.573 E20.69619
G1 X137.816 Y160.573 E22.90932
G1 X137.224 Y162.769 E22.98096
G1 X135.913 Y164.628 E23.05260
G1 X134.043 Y165.923 E23.12424
G1 X131.324 Y166.518 E23.21191
G1 X68.676 Y166.518 E25.18490
G1 X66.437 Y166.121 E25.25654
G1 X64.470 Y164.979 E25.32818
G1 X63.015 Y163.230 E25.39982
G1 X62.184 Y160.573 E25.48750
G1 X56.007 Y90.573 E27.70062
G1 X55.982 Y90.000 E27.71868
G1 X55.982 Y40.000 E29.29337
G1 X56.379 Y37.760 E29.36501
G1 X57.468 Y35.884 E29.43333
G1 X57.731 Y35.971 F9600.000
G1 X57.778 Y35.892 E29.43622 F3000.000
G1 X59.517 Y34.498 E29.50641
G1 X62.500 Y33.741 E29.60334
G1 X137.500 Y33.741 E31.96537
G1 X139.693 Y34.138 E32.03556
G1 X141.608 Y35.278 E32.10575 F3000.000
G1 X143.002 Y37.017 E32.17594
G1 X143.759 Y40.000 E32.27287
G1 X143.759 Y90.000 E33.84756
G1 X143.735 Y90.550 E33.86490
G1 X137.558 Y160.550 E36.07803
G1 X136.970 Y162.700 E36.14822
G1 X135.666 Y164.507 E36.21841
G1 X133.812 Y165.743 E36.28860
G1 X131.324 Y166.259 E36.36863
G1 X68.676 Y166.259 E38.34162
G1 X66.483 Y165.862 E38.41181
G1 X64.568 Y164.722 E38.48200
G1 X63.174 Y162.983 E38.55219
G1 X62.442 Y160.550 E38.63221
G1 X56.265 Y90.550 E40.84534
G1 X56.241 Y90.000 E40.86268
G1 X56.241 Y40.000 E42.43737
G1 X56.638 Y37.807 E42.50756
G1 X57.700 Y36.022 E42.57297
G1 F7680
G1 X57.778 Y35.892 E42.52788
G1 F7680
G1 X59.517 Y34.498 E41.86623
G1 F7680
G1 X62.500 Y33.741 E40.95254
G1 F7680
G1 X66.642 Y33.741 E39.72297
G1 E39.57297 F2400.00000
G92 E0
G1 Z0.492 F9600.000
G1 X78.268 Y148.669 F9600.000
G1 Z0.292 F9600.000
G1 E3.00000 F2400.00000
G1 X78.526 Y148.856 E3.01003 F3000.000
G1 X78.679 Y149.014 E3.01696
G1 X78.857 Y149.278 E3.02698
G1 X78.977 Y149.576 E3.03711
G1 X79.033 Y149.893 E3.04722
G1 X79.022 Y150.211 E3.05725
G1 X78.975 Y150.430 E3.06430
G1 X78.857 Y150.722 E3.07423
G1 X78.677 Y150.988 E3.08434
G1 X78.446 Y151.211 E3.09446
G1 X78.174 Y151.381 E3.10458
G1 X77.872 Y151.491 E3.11469
G1 X77.554 Y151.536 E3.12481
G1 X77.236 Y151.514 E3.13483
G1 X77.023 Y151.461 E3.14176
G1 X76.732 Y151.331 E3.15179
G1 X76.474 Y151.144 E3.16182
G1 X76.321 Y150.986 E3.16875
G1 X76.143 Y150.722 E3.17877
G1 X76.023 Y150.424 E3.18890
G1 X75.967 Y150.107 E3.19902
G1 X75.978 Y149.789 E3.20904
G1 X76.025 Y149.570 E3.21609
G1 X76.143 Y149.278 E3.22602
G1 X76.323 Y149.012 E3.23613
G1 X76.554 Y148.789 E3.24625
G1 X76.826 Y148.619 E3.25637
G1 X77.128 Y148.509 E3.26648
G1 X77.446 Y148.464 E3.27660 F3000.000
G1 X77.764 Y148.486 E3.28662
G1 X77.977 Y148.539 E3.29355
G1 X78.214 Y148.645 E3.30169
G1 X80.449 Y130.119 F9600.000
G1 X79.920 Y130.045 E3.31853 F3000.000
G1 X79.397 Y129.933 E3.33537
G1 X78.883 Y129.786 E3.35221
G1 X78.380 Y129.603 E3.36905
G1 X77.892 Y129.386 E3.38589
G1 X77.420 Y129.135 E3.40273
G1 X76.966 Y128.851 E3.41957
G1 X76.533 Y128.537 E3.43641
G1 X76.124 Y128.193 E3.45326
G1 X75.739 Y127.822 E3.47010
G1 X75.381 Y127.424 E3.48694
G1 X75.052 Y127.003 E3.50378
G1 X74.753 Y126.560 E3.52062
G1 X74.486 Y126.097 E3.53746
G1 X74.251 Y125.616 E3.55430
G1 X74.051 Y125.120 E3.57114
G1 X73.886 Y124.612 E3.58798
G1 X73.756 Y124.093 E3.60483
G1 X73.662 Y123.547 E3.62227
G1 X73.608 Y123.034 E3.63850
G1 X73.589 Y122.500 E3.65534
G1 X73.608 Y121.966 E3.67218
G1 X73.664 Y121.434 E3.68902
G1 X73.756 Y120.907 E3.70586
G1 X73.886 Y120.388 E3.72270
G1 X74.051 Y119.880 E3.73954
G1 X74.251 Y119.384 E3.75638
G1 X74.486 Y118.903 E3.77322
G1 X74.753 Y118.440 E3.79006
G1 X75.052 Y117.997 E3.80691
G1 X75.381 Y117.576 E3.82375
G1 X75.739 Y117.178 E3.84059
G1 X76.124 Y116.807 E3.85743
G1 X76.533 Y116.463 E3.87427
G1 X76.966 Y116.149 E3.89111
G1 X77.420 Y115.865 E3.90795
G1 X77.892 Y115.614 E3.92479
G1 X78.380 Y115.397 E3.94163
G1 X78.883 Y115.214 E3.95847
G1 X79.397 Y115.067 E3.97531
G1 X79.920 Y114.955 E3.99215
G1 X80.449 Y114.881 E4.00899
G1 X80.983 Y114.844 E4.02583
G1 X81.517 Y114.844 E4.04267 F3000.000
G1 X82.032 Y114.880 E4.05891
G1 X82.580 Y114.955 E4.07635
G1 X83.103 Y115.067 E4.09319
G1 X83.599 Y115.209 E4.10942
G1 X84.120 Y115.397 E4.12687
G1 X84.608 Y115.614 E4.14371
G1 X85.080 Y115.865 E4.16055
G1 X85.534 Y116.149 E4.17739
G1 X85.967 Y116.463 E4.19424
G1 X86.376 Y116.807 E4.21108
G1 X86.761 Y117.178 E4.22792
G1 X87.119 Y117.576 E4.24476
G1 X87.448 Y117.997 E4.26160
G1 X87.747 Y118.440 E4.27844
G1 X88.014 Y118.903 E4.29528
G1 X88.249 Y119.384 E4.31212
G1 X88.449 Y119.880 E4.32896
G1 X88.614 Y120.388 E4.34580
G1 X88.744 Y120.907 E4.36265
G1 X88.838 Y121.453 E4.38009
G1 X88.892 Y121.966 E4.39632
G1 X88.911 Y122.500 E4.41316
G1 X88.892 Y123.034 E4.43000
G1 X88.836 Y123.566 E4.44684
G1 X88.744 Y124.093 E4.46368
G1 X88.614 Y124.612 E4.48052
G1 X88.449 Y125.120 E4.49736
G1 X88.249 Y125.616 E4.51420
G1 X88.014 Y126.097 E4.53105
G1 X87.736 Y126.576 E4.54849
G1 X87.448 Y127.003 E4.56473
G1 X87.119 Y127.424 E4.58157
G1 X86.761 Y127.822 E4.59841
G1 X86.376 Y128.193 E4.61525
G1 X85.967 Y128.537 E4.63209
G1 X85.534 Y128.851 E4.64893
G1 X85.080 Y129.135 E4.66577
G1 X84.608 Y129.386 E4.68261
G1 X84.120 Y129.603 E4.69945
G1 X83.617 Y129.786 E4.71629
G1 X83.103 Y129.933 E4.73313
G1 X82.580 Y130.045 E4.74997
G1 X82.051 Y130.119 E4.76681
G1 X81.517 Y130.156 E4.78365
G1 X80.983 Y130.156 E4.80049
G1 X80.509 Y130.123 E4.81545
G1 F7680
G1 X79.920 Y130.045 E4.63892
G1 F7680
G1 X79.397 Y129.933 E4.48018
G1 F7680
G1 X78.883 Y129.786 E4.32145
G1 F7680
G1 X78.380 Y129.603 E4.16268
G1 F7680
G1 X77.892 Y129.386 E4.00394
G1 F7680
G1 X77.420 Y129.135 E3.84519
G1 F7680
G1 X76.966 Y128.851 E3.68646
G1 F7680
G1 X76.533 Y128.537 E3.52770
G1 F7680
G1 X76.124 Y128.193 E3.36894
G1 F7680
G1 X75.739 Y127.822 E3.21020
G1 F7680
G1 X75.381 Y127.424 E3.05146
G1 F7680
G1 X75.052 Y127.003 E2.89272
G1 F7680
G1 X74.753 Y126.560 E2.73396
G1 F7680
G1 X74.486 Y126.097 E2.57521
G1 F7680
G1 X74.251 Y125.616 E2.41646
G1 F7680
G1 X74.051 Y125.120 E2.25771
G1 F7680
G1 X73.886 Y124.612 E2.09898
G1 F7680
G1 X73.777 Y124.175 E1.96544
G1 E1.81545 F2400.00000
G92 E0
G1 Z0.492 F9600.000
G1 X96.170 Y101.635 F9600.000
G1 Z0.292 F9600.000
G1 E3.00000 F2400.00000
G1 X95.716 Y101.351 E3.01684 F3000.000
G1 X95.283 Y101.037 E3.03368
G1 X94.874 Y100.693 E3.05052
G1 X94.489 Y100.322 E3.06736
G1 X94.131 Y99.924 E3.08420
G1 X93.802 Y99.503 E3.10104
G1 X93.503 Y99.060 E3.11788
G1 X93.236 Y98.597 E3.13473
G1 X93.001 Y98.116 E3.15157
G1 X92.801 Y97.620 E3.16840
G1 X92.636 Y97.112 E3.18525
G1 X92.506 Y96.593 E3.20209
G1 X92.414 Y96.066 E3.21893
G1 X92.358 Y95.534 E3.23577
G1 X92.339 Y95.000 E3.25261
G1 X92.358 Y94.465 E3.26946
G1 X92.417 Y93.915 E3.28690
G1 X92.506 Y93.407 E3.30313
G1 X92.636 Y92.888 E3.31997
G1 X92.801 Y92.380 E3.33681
G1 X93.001 Y91.884 E3.35365
G1 X93.236 Y91.403 E3.37049
G1 X93.503 Y90.940 E3.38734
G1 X93.814 Y90.482 E3.40478
G1 X94.131 Y90.076 E3.42101
G1 X94.489 Y89.678 E3.43785
G1 X94.874 Y89.307 E3.45469
G1 X95.283 Y88.963 E3.47153
G1 X95.716 Y88.649 E3.48838
G1 X96.170 Y88.365 E3.50521
G1 X96.642 Y88.114 E3.52206
G1 X97.130 Y87.897 E3.53889
G1 X97.633 Y87.714 E3.55574
G1 X98.147 Y87.567 E3.57258
G1 X98.670 Y87.455 E3.58942
G1 X99.199 Y87.381 E3.60626
G1 X99.733 Y87.344 E3.62310
G1 X100.267 Y87.344 E3.63994 F3000.000
G1 X100.782 Y87.380 E3.65617
G1 X101.330 Y87.455 E3.67361
G1 X101.853 Y87.567 E3.69046
G1 X102.367 Y87.714 E3.70730
G1 X102.870 Y87.897 E3.72414
G1 X103.358 Y88.114 E3.74098
G1 X103.830 Y88.365 E3.75782
G1 X104.284 Y88.649 E3.77466
G1 X104.717 Y88.963 E3.79150
G1 X105.126 Y89.307 E3.80834
G1 X105.511 Y89.678 E3.82519
G1 X105.869 Y90.076 E3.84202
G1 X106.198 Y90.497 E3.85886
G1 X106.497 Y90.940 E3.87571
G1 X106.764 Y91.403 E3.89255
G1 X106.999 Y91.884 E3.90939
G1 X107.199 Y92.380 E3.92623
G1 X107.364 Y92.888 E3.94307
G1 X107.494 Y93.407 E3.95991
G1 X107.586 Y93.934 E3.97675
G1 X107.642 Y94.466 E3.99359
G1 X107.661 Y95.000 E4.01043
G1 X107.642 Y95.534 E4.02727
G1 X107.586 Y96.066 E4.04411
G1 X107.494 Y96.593 E4.06095
G1 X107.364 Y97.112 E4.07780
G1 X107.192 Y97.638 E4.09524
G1 X106.999 Y98.116 E4.11147
G1 X106.764 Y98.597 E4.12831
G1 X106.497 Y99.060 E4.14516
G1 X106.186 Y99.518 E4.16260
G1 X105.869 Y99.924 E4.17883
G1 X105.511 Y100.322 E4.19567
G1 X105.126 Y100.693 E4.21251
G1 X104.717 Y101.037 E4.22935
G1 X104.284 Y101.351 E4.24620
G1 X103.830 Y101.635 E4.26304
G1 X103.358 Y101.886 E4.27988
G1 X102.870 Y102.103 E4.29672
G1 X102.367 Y102.286 E4.31356
G1 X101.853 Y102.433 E4.33040
G1 X101.330 Y102.545 E4.34724
G1 X100.801 Y102.619 E4.36408
G1 X100.267 Y102.656 E4.38092
G1 X99.733 Y102.656 E4.39776
G1 X99.199 Y102.619 E4.41460
G1 X98.670 Y102.545 E4.43144
G1 X98.147 Y102.433 E4.44828
G1 X97.633 Y102.286 E4.46512
G1 X97.130 Y102.103 E4.48196
G1 X96.642 Y101.886 E4.49880
G1 X96.222 Y101.663 E4.51376
G1 F7680
G1 X95.716 Y101.351 E4.33725
G1 F7680
G1 X95.283 Y101.037 E4.17848
G1 F7680
G1 X94.874 Y100.693 E4.01974
G1 F7680
G1 X94.489 Y100.322 E3.86097
G1 F7680
G1 X94.131 Y99.924 E3.70225
G1 F7680
G1 X93.802 Y99.503 E3.54351
G1 F7680
G1 X93.503 Y99.060 E3.38475
G1 F7680
G1 X93.236 Y98.597 E3.22599
G1 F7680
G1 X93.001 Y98.116 E3.06725
G1 F7680
G1 X92.801 Y97.620 E2.90853
G1 F7680
G1 X92.636 Y97.112 E2.74976
G1 F7680
G1 X92.506 Y96.593 E2.59100
G1 F7680
G1 X92.414 Y96.066 E2.43227
G1 F7680
G1 X92.358 Y95.534 E2.27353
G1 F7680
G1 X92.339 Y95.000 E2.11477
G1 F7680
G1 X92.358 Y94.465 E1.95596
G1 F7680
G1 X92.417 Y93.915 E1.79155
G1 F7680
G1 X92.492 Y93.491 E1.66376
G1 E1.51376 F2400.00000
G92 E0
G1 Z0.492 F9600.000
G1 X84.135 Y74.597 F9600.000
G1 Z0.292 F9600.000
G1 E3.00000 F2400.00000
G1 X83.617 Y74.786 E3.01735 F3000.000
G1 X83.103 Y74.933 E3.03419
G1 X82.580 Y75.045 E3.05103
G1 X82.051 Y75.119 E3.06787
G1 X81.517 Y75.156 E3.08471
G1 X80.983 Y75.156 E3.10155
G1 X80.449 Y75.119 E3.11839
G1 X79.920 Y75.045 E3.13523
G1 X79.397 Y74.933 E3.15207
G1 X78.883 Y74.786 E3.16891
G1 X78.380 Y74.603 E3.18575
G1 X77.892 Y74.386 E3.20259
G1 X77.420 Y74.135 E3.21943
G1 X76.966 Y73.851 E3.23627
G1 X76.533 Y73.537 E3.25311
G1 X76.124 Y73.193 E3.26995
G1 X75.739 Y72.822 E3.28679
G1 X75.381 Y72.424 E3.30363
G1 X75.052 Y72.003 E3.32047
G1 X74.753 Y71.560 E3.33732
G1 X74.486 Y71.097 E3.35416
G1 X74.251 Y70.616 E3.37100
G1 X74.051 Y70.120 E3.38784
G1 X73.886 Y69.612 E3.40468
G1 X73.756 Y69.093 E3.42153
G1 X73.662 Y68.547 E3.43897
G1 X73.608 Y68.034 E3.45520
G1 X73.589 Y67.500 E3.47204
G1 X73.608 Y66.966 E3.48888
G1 X73.664 Y66.434 E3.50572
G1 X73.756 Y65.907 E3.52256
G1 X73.886 Y65.388 E3.53940
G1 X74.051 Y64.880 E3.55624
G1 X74.251 Y64.384 E3.57308
G1 X74.486 Y63.903 E3.58992
G1 X74.753 Y63.440 E3.60676
G1 X75.052 Y62.997 E3.62361
G1 X75.381 Y62.576 E3.64045
G1 X75.739 Y62.178 E3.65729
G1 X76.124 Y61.807 E3.67413
G1 X76.533 Y61.463 E3.69097
G1 X76.966 Y61.149 E3.70781
G1 X77.420 Y60.865 E3.72465
G1 X77.892 Y60.614 E3.74149
G1 X78.380 Y60.397 E3.75833
G1 X78.883 Y60.214 E3.77517
G1 X79.397 Y60.067 E3.79201
G1 X79.920 Y59.955 E3.80885
G1 X80.449 Y59.881 E3.82569
G1 X80.983 Y59.844 E3.84253
G1 X81.517 Y59.844 E3.85937 F3000.000
G1 X82.051 Y59.881 E3.87621
G1 X82.580 Y59.955 E3.89305
G1 X83.103 Y60.067 E3.90989
G1 X83.617 Y60.214 E3.92673
G1 X84.120 Y60.397 E3.94357
G1 X84.608 Y60.614 E3.96042
G1 X85.080 Y60.865 E3.97726
G1 X85.534 Y61.149 E3.99410
G1 X85.967 Y61.463 E4.01094
G1 X86.376 Y61.807 E4.02778
G1 X86.761 Y62.178 E4.04462
G1 X87.119 Y62.576 E4.06146
G1 X87.448 Y62.997 E4.07830
G1 X87.747 Y63.440 E4.09514
G1 X88.014 Y63.903 E4.11198
G1 X88.249 Y64.384 E4.12882
G1 X88.449 Y64.880 E4.14566
G1 X88.614 Y65.388 E4.16250
G1 X88.744 Y65.907 E4.17934
G1 X88.836 Y66.434 E4.19618
G1 X88.892 Y66.966 E4.21302
G1 X88.911 Y67.500 E4.22986
G1 X88.892 Y68.034 E4.24671
G1 X88.836 Y68.566 E4.26355
G1 X88.744 Y69.093 E4.28039
G1 X88.614 Y69.612 E4.29723
G1 X88.449 Y70.120 E4.31407
G1 X88.249 Y70.616 E4.33091
G1 X88.014 Y71.097 E4.34775
G1 X87.747 Y71.560 E4.36459
G1 X87.448 Y72.003 E4.38143
G1 X87.119 Y72.424 E4.39827
G1 X86.761 Y72.822 E4.41511
G1 X86.376 Y73.193 E4.43195
G1 X85.967 Y73.537 E4.44879
G1 X85.534 Y73.851 E4.46563
G1 X85.080 Y74.135 E4.48247
G1 X84.608 Y74.386 E4.49931
G1 X84.189 Y74.572 E4.51376
G1 F7680
G1 X83.617 Y74.786 E4.33247
G1 F7680
G1 X83.103 Y74.933 E4.17373
G1 F7680
G1 X82.580 Y75.045 E4.01499
G1 F7680
G1 X82.051 Y75.119 E3.85624
G1 F7680
G1 X81.517 Y75.156 E3.69748
G1 F7680
G1 X80.983 Y75.156 E3.53876
G1 F7680
G1 X80.449 Y75.119 E3.37999
G1 F7680
G1 X79.920 Y75.045 E3.22124
G1 F7680
G1 X79.397 Y74.933 E3.06250
G1 F7680
G1 X78.883 Y74.786 E2.90376
G1 F7680
G1 X78.380 Y74.603 E2.74500
G1 F7680
G1 X77.892 Y74.386 E2.58626
G1 F7680
G1 X77.420 Y74.135 E2.42751
G1 F7680
G1 X76.966 Y73.851 E2.26878
G1 F7680
G1 X76.533 Y73.537 E2.11001
G1 F7680
G1 X76.124 Y73.193 E1.95126
G1 F7680
G1 X75.739 Y72.822 E1.79252
G1 F7680
G1 X75.449 Y72.499 E1.66376
G1 E1.51376 F2400.00000
G92 E0
G1 Z0.492 F9600.000
G1 X70.859 Y50.774 F9600.000
G1 Z0.292 F9600.000
G1 E3.00000 F2400.00000
G1 X70.578 Y50.924 E3.01003 F3000.000
G1 X70.369 Y50.992 E3.01696
G1 X70.054 Y51.036 E3.02699
G1 X69.733 Y51.013 E3.03710
G1 X69.427 Y50.926 E3.04713
G1 X69.229 Y50.829 E3.05406
G1 X68.972 Y50.642 E3.06409
G1 X68.757 Y50.403 E3.07421
G1 X68.596 Y50.125 E3.08432
G1 X68.498 Y49.822 E3.09436
G1 X68.467 Y49.601 E3.10140
G1 X68.478 Y49.286 E3.11131
G1 X68.556 Y48.974 E3.12143
G1 X68.697 Y48.686 E3.13155
G1 X68.895 Y48.432 E3.14166
G1 X69.141 Y48.226 E3.15178
G1 X69.422 Y48.076 E3.16181
G1 X69.631 Y48.008 E3.16874
G1 X69.946 Y47.964 E3.17877 F3000.000
G1 X70.267 Y47.987 E3.18889
G1 X70.576 Y48.075 E3.19900
G1 X70.857 Y48.225 E3.20903
G1 X71.030 Y48.360 E3.21596
G1 X71.241 Y48.595 E3.22590
G1 X71.358 Y48.781 E3.23283
G1 X71.477 Y49.076 E3.24286
G1 X71.533 Y49.393 E3.25297
G1 X71.522 Y49.714 E3.26309
G1 X71.444 Y50.026 E3.27321
G1 X71.303 Y50.314 E3.28333
G1 X71.105 Y50.568 E3.29345
G1 X70.905 Y50.735 E3.30167
G1 X111.558 Y64.862 F9600.000
G1 X111.751 Y64.384 E3.31790 F3000.000
G1 X111.986 Y63.903 E3.33474
G1 X112.253 Y63.440 E3.35159
G1 X112.564 Y62.982 E3.36903
G1 X112.881 Y62.576 E3.38527
G1 X113.239 Y62.178 E3.40210
G1 X113.624 Y61.807 E3.41895
G1 X114.033 Y61.463 E3.43579
G1 X114.466 Y61.149 E3.45263
G1 X114.903 Y60.876 E3.46886
G1 X115.391 Y60.614 E3.48630
G1 X115.880 Y60.397 E3.50315
G1 X116.383 Y60.214 E3.51999
G1 X116.897 Y60.067 E3.53683
G1 X117.420 Y59.955 E3.55367
G1 X117.949 Y59.881 E3.57051
G1 X118.483 Y59.844 E3.58735
