; generated by Slic3r 1.2.9 on 2017-01-27 at 14:55:57

; external perimeters extrusion width = 0.28mm
; perimeters extrusion width = 0.27mm
; infill extrusion width = 0.27mm
; solid infill extrusion width = 0.25mm
; top infill extrusion width = 0.25mm
; support material extrusion width = 0.25mm

M190 S40 ; set bed temperature
M104 S180 T1 ; set temperature
G28 ; home all axes
G1 Z5 F5000 ; lift nozzle
M109 S180 T1 ; wait for temperature to be reached
G21 ; set units to millimeters
G90 ; use absolute coordinates
M82 ; use absolute distances for extrusion
G92 E0
T1
G92 E0
G1 Z0.270 F9600.000
G1 E-3.00000 F2400.00000
G92 E0
G1 Z0.470 F9600.000
G1 X77.324 Y60.719 F9600.000
G1 Z0.270 F9600.000
G1 E3.00000 F2400.00000
G1 X79.080 Y59.219 E3.06197 F3000.000
G1 X81.240 Y58.402 E3.12395
G1 X82.500 Y58.283 E3.15791
G1 X117.500 Y58.283 E4.09713
G1 X119.775 Y58.680 E4.15910
G1 X121.781 Y59.824 E4.22108 F3000.000
G1 X123.281 Y61.580 E4.28305
G1 X124.098 Y63.740 E4.34503
G1 X124.217 Y65.000 E4.37898
G1 X124.217 Y135.000 E6.25743
G1 X123.820 Y137.275 E6.31940
G1 X122.676 Y139.281 E6.38138
G1 X120.920 Y140.781 E6.44335
G1 X118.760 Y141.598 E6.50533
G1 X117.500 Y141.717 E6.53928
G1 X82.500 Y141.717 E7.47850
G1 X80.225 Y141.320 E7.54048
G1 X78.219 Y140.176 E7.60245
G1 X76.719 Y138.420 E7.66443
G1 X75.902 Y136.260 E7.72640
G1 X75.783 Y135.000 E7.76036
G1 X75.783 Y65.000 E9.63880
G1 X76.180 Y62.725 E9.70078
G1 X77.294 Y60.771 E9.76114
G1 X77.540 Y60.845 F9600.000
G1 X77.561 Y60.808 E9.76227 F3000.000
G1 X79.308 Y59.363 E9.82313
G1 X82.500 Y58.522 E9.91170
G1 X117.500 Y58.522 E10.85092
G1 X119.733 Y58.919 E10.91177
G1 X121.692 Y60.061 E10.97263 F3000.000
G1 X123.137 Y61.808 E11.03348
G1 X123.978 Y65.000 E11.12206
G1 X123.978 Y135.000 E13.00050
G1 X123.581 Y137.233 E13.06135
G1 X122.439 Y139.192 E13.12221
G1 X120.692 Y140.637 E13.18306
G1 X117.500 Y141.478 E13.27163
G1 X82.500 Y141.478 E14.21086
G1 X80.267 Y141.081 E14.27171
G1 X78.308 Y139.939 E14.33256
G1 X76.863 Y138.192 E14.39342
G1 X76.022 Y135.000 E14.48199
G1 X76.022 Y65.000 E16.36043
G1 X76.419 Y62.767 E16.42129
G1 X77.510 Y60.896 E16.47940
G1 X77.754 Y60.972 F9600.000
G1 X77.798 Y60.900 E16.48168 F3000.000
G1 X79.536 Y59.510 E16.54139
G1 X82.500 Y58.761 E16.62344
G1 X117.500 Y58.761 E17.56266
G1 X119.689 Y59.158 E17.62237
G1 X121.600 Y60.298 E17.68209 F3000.000
G1 X122.990 Y62.036 E17.74180
G1 X123.739 Y65.000 E17.82385
G1 X123.739 Y135.000 E19.70229
G1 X123.342 Y137.189 E19.76200
G1 X122.202 Y139.100 E19.82171
G1 X120.464 Y140.490 E19.88142
G1 X117.500 Y141.239 E19.96347
G1 X82.500 Y141.239 E20.90269
G1 X80.311 Y140.842 E20.96241
G1 X78.400 Y139.702 E21.02212
G1 X77.010 Y137.964 E21.08183
G1 X76.261 Y135.000 E21.16388
G1 X76.261 Y65.000 E23.04232
G1 X76.658 Y62.811 E23.10203
G1 X77.723 Y61.024 E23.15786
G1 F7680
G1 X77.798 Y60.900 E23.11485
G1 F7680
G1 X79.536 Y59.510 E22.45426
G1 F7680
G1 X82.500 Y58.761 E21.54656
G1 F7680
G1 X86.672 Y58.761 E20.30786
G1 E20.15786 F2400.00000
G92 E0
G1 Z0.470 F9600.000
G1 X115.521 Y131.394 F9600.000
G1 Z0.270 F9600.000
G1 E3.00000 F2400.00000
G1 X115.509 Y131.712 E3.00855 F3000.000
G1 X115.432 Y132.021 E3.01710
G1 X115.293 Y132.308 E3.02565
G1 X115.097 Y132.559 E3.03421
G1 X114.852 Y132.764 E3.04276
G1 X114.573 Y132.912 E3.05124
G1 X114.366 Y132.979 E3.05708
G1 X114.053 Y133.023 E3.06556
G1 X113.735 Y133.001 E3.07412
G1 X113.431 Y132.914 E3.08260
G1 X113.236 Y132.819 E3.08844
G1 X112.980 Y132.633 E3.09693
G1 X112.769 Y132.398 E3.10541
G1 X112.653 Y132.213 E3.11125
G1 X112.535 Y131.920 E3.11973
G1 X112.479 Y131.606 E3.12828
G1 X112.491 Y131.288 E3.13684
G1 X112.568 Y130.979 E3.14539
G1 X112.707 Y130.692 E3.15394
G1 X112.903 Y130.441 E3.16249
G1 X113.148 Y130.236 E3.17104
G1 X113.427 Y130.088 E3.17952
G1 X113.634 Y130.021 E3.18537
G1 X113.947 Y129.977 E3.19385 F3000.000
G1 X114.265 Y129.999 E3.20240
G1 X114.569 Y130.086 E3.21088
G1 X114.764 Y130.181 E3.21673
G1 X115.020 Y130.367 E3.22521
G1 X115.231 Y130.602 E3.23369
G1 X115.347 Y130.787 E3.23953
G1 X115.465 Y131.080 E3.24801
G1 X115.510 Y131.335 E3.25496
G1 F7680
G1 X115.509 Y131.712 E3.14286
G1 F7680
G1 X115.432 Y132.021 E3.04827
G1 F7680
G1 X115.293 Y132.308 E2.95368
G1 F7680
G1 X115.097 Y132.559 E2.85905
G1 F7680
G1 X114.852 Y132.764 E2.76446
G1 F7680
G1 X114.573 Y132.912 E2.67063
G1 F7680
G1 X114.366 Y132.979 E2.60594
G1 F7680
G1 X114.053 Y133.023 E2.51213
G1 F7680
G1 X113.735 Y133.001 E2.41751
G1 F7680
G1 X113.431 Y132.914 E2.32369
G1 F7680
G1 X113.236 Y132.819 E2.25903
G1 F7680
G1 X112.980 Y132.633 E2.16518
G1 F7680
G1 X112.769 Y132.398 E2.07137
G1 F7680
G1 X112.653 Y132.213 E2.00670
G1 F7680
G1 X112.535 Y131.920 E1.91288
G1 F7680
G1 X112.479 Y131.606 E1.81827
G1 F7680
G1 X112.491 Y131.288 E1.72366
G1 F7680
G1 X112.568 Y130.979 E1.62906
G1 F7680
G1 X112.707 Y130.692 E1.53448
G1 F7680
G1 X112.903 Y130.441 E1.43985
G1 F7680
G1 X113.148 Y130.236 E1.34526
G1 F7680
G1 X113.427 Y130.088 E1.25143
G1 F7680
G1 X113.634 Y130.021 E1.18674
G1 E0.25496 F2400.00000
G92 E0
G1 Z0.470 F9600.000
G1 X87.524 Y131.500 F9600.000
G1 Z0.270 F9600.000
G1 E3.00000 F2400.00000
G1 X87.509 Y131.715 E3.00578 F3000.000
G1 X87.432 Y132.021 E3.01426
G1 X87.293 Y132.308 E3.02281
G1 X87.096 Y132.559 E3.03136
G1 X86.852 Y132.764 E3.03991
G1 X86.573 Y132.912 E3.04839
G1 X86.366 Y132.979 E3.05424
G1 X86.053 Y133.023 E3.06272
G1 X85.735 Y133.001 E3.07128
G1 X85.403 Y132.904 E3.08057
G1 X85.147 Y132.763 E3.08841
G1 X84.906 Y132.561 E3.09686
G1 X84.765 Y132.394 E3.10271
G1 X84.607 Y132.120 E3.11119
G1 X84.509 Y131.817 E3.11974
G1 X84.476 Y131.500 E3.12829
G1 X84.509 Y131.183 E3.13684
G1 X84.607 Y130.880 E3.14539
G1 X84.765 Y130.606 E3.15387
G1 X84.906 Y130.439 E3.15972
G1 X85.148 Y130.236 E3.16820
G1 X85.427 Y130.088 E3.17668
G1 X85.634 Y130.021 E3.18253
G1 X85.947 Y129.977 E3.19101 F3000.000
G1 X86.265 Y129.999 E3.19956
G1 X86.571 Y130.087 E3.20811
G1 X86.852 Y130.236 E3.21666
G1 X87.096 Y130.441 E3.22521
G1 X87.293 Y130.692 E3.23377
G1 X87.432 Y130.979 E3.24232
G1 X87.509 Y131.285 E3.25080
G1 X87.520 Y131.440 E3.25496
G1 X87.852 Y127.148 F9600.000
G1 X87.852 Y79.852 E4.52417 F3000.000
G1 X112.148 Y79.852 E5.17618
G1 X112.148 Y127.148 E6.44539
G1 X87.912 Y127.148 E7.09579
G1 X86.053 Y70.023 F9600.000
G1 X85.735 Y70.001 E7.10433 F3000.000
G1 X85.440 Y69.917 E7.11258
G1 X85.236 Y69.819 E7.11866
G1 X84.980 Y69.633 E7.12715
G1 X84.767 Y69.396 E7.13570
G1 X84.607 Y69.120 E7.14425
G1 X84.509 Y68.817 E7.15280
G1 X84.476 Y68.500 E7.16135
G1 X84.509 Y68.183 E7.16990
G1 X84.607 Y67.880 E7.17845
G1 X84.766 Y67.606 E7.18694
G1 X84.906 Y67.439 E7.19278
G1 X85.148 Y67.236 E7.20126
G1 X85.429 Y67.087 E7.20981
G1 X85.724 Y67.001 E7.21805
G1 X85.949 Y66.977 E7.22413 F3000.000
G1 X86.265 Y66.999 E7.23262
G1 X86.571 Y67.087 E7.24117
G1 X86.850 Y67.235 E7.24965
G1 X87.022 Y67.369 E7.25550
G1 X87.233 Y67.604 E7.26398
G1 X87.393 Y67.880 E7.27253
G1 X87.490 Y68.181 E7.28102
G1 X87.521 Y68.405 E7.28710
G1 X87.509 Y68.712 E7.29534
G1 X87.432 Y69.021 E7.30389
G1 X87.293 Y69.308 E7.31244
G1 X87.096 Y69.559 E7.32099
G1 X86.852 Y69.764 E7.32954
G1 X86.573 Y69.912 E7.33802
G1 X86.366 Y69.979 E7.34387
G1 X86.113 Y70.015 E7.35074
G1 X112.480 Y68.609 F9600.000
G1 X112.480 Y68.394 E7.35652 F3000.000
G1 X112.510 Y68.181 E7.36227
G1 X112.611 Y67.860 E7.37131
G1 X112.767 Y67.605 E7.37933
G1 X112.905 Y67.439 E7.38513
G1 X113.146 Y67.238 E7.39354
G1 X113.334 Y67.129 E7.39938
G1 X113.631 Y67.021 E7.40787
G1 X113.947 Y66.977 E7.41642 F3000.000
G1 X114.265 Y66.999 E7.42497
G1 X114.571 Y67.087 E7.43352
G1 X114.850 Y67.235 E7.44200
G1 X115.022 Y67.369 E7.44785
G1 X115.231 Y67.602 E7.45626
G1 X115.347 Y67.787 E7.46210
G1 X115.465 Y68.080 E7.47058
G1 X115.521 Y68.394 E7.47914
G1 X115.509 Y68.712 E7.48769
G1 X115.432 Y69.021 E7.49624
G1 X115.293 Y69.308 E7.50479
G1 X115.097 Y69.559 E7.51334
G1 X114.854 Y69.762 E7.52182
G1 X114.666 Y69.871 E7.52767
G1 X114.369 Y69.979 E7.53615
G1 X114.053 Y70.023 E7.54470
G1 X113.735 Y70.001 E7.55325
G1 X113.429 Y69.913 E7.56180
G1 X113.150 Y69.765 E7.57028
G1 X112.978 Y69.631 E7.57613
G1 X112.769 Y69.398 E7.58454
G1 X112.653 Y69.213 E7.59039
G1 X112.535 Y68.920 E7.59887
G1 X112.490 Y68.668 E7.60574
G1 F7680
G1 X112.480 Y68.394 E7.52424
G1 F7680
G1 X112.510 Y68.181 E7.46056
G1 F7680
G1 X112.611 Y67.860 E7.36054
G1 F7680
G1 X112.767 Y67.605 E7.27180
G1 F7680
G1 X112.905 Y67.439 E7.20770
G1 F7680
G1 X113.146 Y67.238 E7.11465
G1 F7680
G1 X113.334 Y67.129 E7.04999
G1 F7680
G1 X113.631 Y67.021 E6.95614
G1 E4.60574 F2400.00000
G92 E0
G1 Z0.470 F9600.000
G1 X117.352 Y65.148 F9600.000
G1 Z0.270 F9600.000
G1 E3.00000 F2400.00000
G1 X117.352 Y134.852 E4.87047 F3000.000
G1 X82.648 Y134.852 E5.80173
G1 X82.648 Y65.148 E7.67220
G1 X117.292 Y65.148 E8.60184
G1 X117.219 Y65.422 F9600.000
G1 X117.078 Y65.281 E8.60722 F3000.000
G1 X116.739 Y65.281 E8.61632
G1 X117.219 Y65.761 E8.63456
G1 X117.219 Y66.099 E8.64365
G1 X116.401 Y65.281 E8.67476
G1 X116.062 Y65.281 E8.68386
G1 X117.219 Y66.438 E8.72783
G1 X117.219 Y66.777 E8.73692
G1 X115.723 Y65.281 E8.79376
G1 X115.385 Y65.281 E8.80286
G1 X117.219 Y67.115 E8.87256
G1 X117.219 Y67.454 E8.88165
G1 X115.046 Y65.281 E8.96422
G1 X114.708 Y65.281 E8.97332
G1 X117.219 Y67.792 E9.06875
G1 X117.219 Y68.131 E9.07785
G1 X114.369 Y65.281 E9.18614
G1 X114.031 Y65.281 E9.19524
G1 X117.219 Y68.469 E9.31640
G1 X117.219 Y68.808 E9.32550
G1 X113.692 Y65.281 E9.45953
G1 X113.354 Y65.281 E9.46862
G1 X117.219 Y69.146 E9.61552
G1 X117.219 Y69.485 E9.62461
G1 X115.510 Y67.775 E9.68958
G1 X115.638 Y68.243 E9.70259
G1 X117.219 Y69.823 E9.76267
G1 X117.219 Y70.162 E9.77177
G1 X115.645 Y68.588 E9.83160
G1 X115.594 Y68.876 E9.83946
G1 X117.219 Y70.500 E9.90121
G1 X117.219 Y70.839 E9.91030
G1 X115.509 Y69.128 E9.97531
G1 X115.397 Y69.356 E9.98211
G1 X117.219 Y71.178 E10.05134
G1 X117.219 Y71.516 E10.06044
G1 X115.249 Y69.546 E10.13531
G1 X115.082 Y69.717 E10.14174
G1 X117.219 Y71.855 E10.22297
G1 X117.219 Y72.193 E10.23207
G1 X114.896 Y69.870 E10.32036
G1 X114.679 Y69.992 E10.32704
G1 X117.219 Y72.532 E10.42356
G1 X117.219 Y72.870 E10.43266
G1 X114.431 Y70.082 E10.53861
G1 X114.147 Y70.137 E10.54637
G1 X117.219 Y73.209 E10.66310
G1 X117.219 Y73.547 E10.67220
G1 X113.815 Y70.143 E10.80156
G1 X113.390 Y70.056 E10.81323
G1 X117.219 Y73.886 E10.95876
G1 X117.219 Y74.224 E10.96786
G1 X108.276 Y65.281 E11.30773
G1 X108.614 Y65.281 E11.31682
G1 X112.445 Y69.112 E11.46240
G1 X112.347 Y68.676 E11.47440
G1 X108.953 Y65.281 E11.60341
G1 X109.291 Y65.281 E11.61251
G1 X112.359 Y68.349 E11.72909
G1 X112.419 Y68.070 E11.73674
G1 X109.630 Y65.281 E11.84275
G1 X109.968 Y65.281 E11.85185
G1 X112.504 Y67.817 E11.94822
G1 X112.633 Y67.607 E11.95483
G1 X110.307 Y65.281 E12.04322
G1 X110.645 Y65.281 E12.05232
G1 X112.780 Y67.415 E12.13343
G1 X112.955 Y67.252 E12.13987
G1 X110.984 Y65.281 E12.21477
G1 X111.322 Y65.281 E12.22387
G1 X113.147 Y67.106 E12.29321
G1 X113.370 Y66.990 E12.29996
G1 X111.661 Y65.281 E12.36492
G1 X112.000 Y65.281 E12.37401
G1 X113.618 Y66.900 E12.43554
G1 X113.912 Y66.854 E12.44351
G1 X112.338 Y65.281 E12.50330
G1 X112.677 Y65.281 E12.51240
G1 X114.258 Y66.862 E12.57248
G1 X114.712 Y66.978 E12.58509
G1 X113.015 Y65.281 E12.64958
G1 X107.937 Y65.281 F9600.000
G1 X117.219 Y74.563 E13.00232 F3000.000
G1 X117.219 Y74.902 E13.01142
G1 X107.598 Y65.281 E13.37702
G1 X107.260 Y65.281 E13.38612
G1 X117.219 Y75.240 E13.76459
G1 X117.219 Y75.579 E13.77368
G1 X106.921 Y65.281 E14.16502
G1 X106.583 Y65.281 E14.17411
G1 X117.219 Y75.917 E14.57831
G1 X117.219 Y76.256 E14.58741
G1 X106.244 Y65.281 E15.00447
G1 X105.906 Y65.281 E15.01357
G1 X117.219 Y76.594 E15.44350
G1 X117.219 Y76.933 E15.45260
G1 X105.567 Y65.281 E15.89539
G1 X105.229 Y65.281 E15.90449
G1 X117.219 Y77.271 E16.36015
G1 X117.219 Y77.610 E16.36925
G1 X104.890 Y65.281 E16.83777
G1 X104.552 Y65.281 E16.84687
G1 X117.219 Y77.948 E17.32826
G1 X117.219 Y78.287 E17.33736
G1 X104.213 Y65.281 E17.83162
G1 X103.875 Y65.281 E17.84071
G1 X117.219 Y78.625 E18.34783
G1 X117.219 Y78.964 E18.35693
G1 X103.536 Y65.281 E18.87692
G1 X103.197 Y65.281 E18.88602
G1 X117.219 Y79.303 E19.41887
G1 X117.219 Y79.641 E19.42797
G1 X102.859 Y65.281 E19.97368
G1 X102.520 Y65.281 E19.98278
G1 X117.219 Y79.980 E20.54136
G1 X117.219 Y80.318 E20.55046
G1 X102.182 Y65.281 E21.12191
G1 X101.843 Y65.281 E21.13101
G1 X117.219 Y80.657 E21.71532
G1 X117.219 Y80.995 E21.72442
G1 X101.505 Y65.281 E22.32160
G1 X101.166 Y65.281 E22.33069
G1 X117.219 Y81.334 E22.94074
G1 X117.219 Y81.672 E22.94983
G1 X100.828 Y65.281 E23.57274
G1 X100.489 Y65.281 E23.58184
G1 X117.219 Y82.011 E24.21762
G1 X117.219 Y82.349 E24.22671
G1 X100.151 Y65.281 E24.87535
G1 X99.812 Y65.281 E24.88445
G1 X117.219 Y82.688 E25.54596
G1 X117.219 Y83.027 E25.55505
G1 X99.473 Y65.281 E26.22942
G1 X99.135 Y65.281 E26.23852
G1 X117.219 Y83.365 E26.92576
G1 X117.219 Y83.704 E26.93485
G1 X98.796 Y65.281 E27.63496
G1 X98.458 Y65.281 E27.64405
G1 X117.219 Y84.042 E28.35702
G1 X117.219 Y84.381 E28.36612
G1 X98.119 Y65.281 E29.09195
G1 X97.781 Y65.281 E29.10105
G1 X117.219 Y84.719 E29.83974
G1 X117.219 Y85.058 E29.84884
G1 X112.281 Y80.120 E30.03650
G1 X112.281 Y80.458 E30.04560
G1 X117.219 Y85.396 E30.23325
G1 X117.219 Y85.735 E30.24235
G1 X112.281 Y80.797 E30.43001
G1 X112.281 Y81.135 E30.43911
G1 X117.219 Y86.073 E30.62677
G1 X117.219 Y86.412 E30.63586
G1 X112.281 Y81.474 E30.82352
G1 X112.281 Y81.812 E30.83262
G1 X117.219 Y86.750 E31.02028
G1 X117.219 Y87.089 E31.02937
G1 X112.281 Y82.151 E31.21703
G1 X112.281 Y82.489 E31.22613
G1 X117.219 Y87.428 E31.41379
G1 X117.219 Y87.766 E31.42288
G1 X112.281 Y82.828 E31.61054
G1 X112.281 Y83.167 E31.61964
G1 X117.219 Y88.105 E31.80730
G1 X117.219 Y88.443 E31.81639
G1 X112.281 Y83.505 E32.00405
G1 X112.281 Y83.844 E32.01315
G1 X117.219 Y88.782 E32.20081
G1 X117.219 Y89.120 E32.20991
G1 X112.281 Y84.182 E32.39756
G1 X112.281 Y84.521 E32.40666
G1 X117.219 Y89.459 E32.59432
G1 X117.219 Y89.797 E32.60342
G1 X112.281 Y84.859 E32.79108
G1 X112.281 Y85.198 E32.80017
G1 X117.219 Y90.136 E32.98783
G1 X117.219 Y90.474 E32.99693
G1 X112.281 Y85.536 E33.18459
G1 X112.281 Y85.875 E33.19368
G1 X117.219 Y90.813 E33.38134
G1 X117.219 Y91.151 E33.39044
G1 X112.281 Y86.213 E33.57810
G1 X112.281 Y86.552 E33.58719
G1 X117.219 Y91.490 E33.77485
G1 X117.219 Y91.829 E33.78395
G1 X112.281 Y86.890 E33.97161
G1 X112.281 Y87.229 E33.98071
G1 X117.219 Y92.167 E34.16836
G1 X117.219 Y92.506 E34.17746
G1 X112.281 Y87.568 E34.36512
G1 X112.281 Y87.906 E34.37422
G1 X117.219 Y92.844 E34.56187
G1 X117.219 Y93.183 E34.57097
G1 X112.281 Y88.245 E34.75863
G1 X112.281 Y88.583 E34.76773
G1 X117.219 Y93.521 E34.95539
G1 X117.219 Y93.860 E34.96448
G1 X112.281 Y88.922 E35.15214
G1 X112.281 Y89.260 E35.16124
G1 X117.219 Y94.198 E35.34890
G1 X117.219 Y94.537 E35.35799
G1 X112.281 Y89.599 E35.54565
G1 X112.281 Y89.937 E35.55475
G1 X117.219 Y94.875 E35.74241
G1 X117.219 Y95.214 E35.75150
G1 X112.281 Y90.276 E35.93916
G1 X112.281 Y90.614 E35.94826
G1 X117.219 Y95.553 E36.13592
G1 X117.219 Y95.891 E36.14502
G1 X112.281 Y90.953 E36.33267
G1 X112.281 Y91.292 E36.34177
G1 X117.219 Y96.230 E36.52943
G1 X117.219 Y96.568 E36.53853
G1 X112.281 Y91.630 E36.72618
G1 X112.281 Y91.969 E36.73528
G1 X117.219 Y96.907 E36.92294
G1 X117.219 Y97.245 E36.93204
G1 X112.281 Y92.307 E37.11970
G1 X112.281 Y92.646 E37.12879
G1 X117.219 Y97.584 E37.31645
G1 X117.219 Y97.922 E37.32555
G1 X112.281 Y92.984 E37.51321
G1 X112.281 Y93.323 E37.52230
G1 X117.219 Y98.261 E37.70996
G1 X117.219 Y98.599 E37.71906
G1 X112.281 Y93.661 E37.90672
G1 X112.281 Y94.000 E37.91581
G1 X117.219 Y98.938 E38.10347
G1 X117.219 Y99.276 E38.11257
G1 X112.281 Y94.338 E38.30023
G1 X112.281 Y94.677 E38.30933
G1 X117.219 Y99.615 E38.49698
G1 X117.219 Y99.954 E38.50608
G1 X112.281 Y95.015 E38.69374
G1 X112.281 Y95.354 E38.70284
G1 X117.219 Y100.292 E38.89049
G1 X117.219 Y100.631 E38.89959
G1 X112.281 Y95.693 E39.08725
G1 X112.281 Y96.031 E39.09635
G1 X117.219 Y100.969 E39.28401
G1 X117.219 Y101.308 E39.29310
G1 X112.281 Y96.370 E39.48076
G1 X112.281 Y96.708 E39.48986
G1 X117.219 Y101.646 E39.67752
